(** This GCode was generated by ReplicatorG 0037 **)
(*  using Skeinforge (50)  *)
(*  for a Single headed CNC Machine  *)
(*  on 2015/02/08 19:37:39 (+0100) *)
M107
G21
G90
G28
M101
G21
M103
M105
M140 S60.0
M141 S30.0
M142 S0.0
;M113 S1.0
;M108 R15.0
M104 S195.0
G1 X24.6218 Y-42.2081 Z0.15 F3000.0
G1 F12000.0
G1 E2.0
G1 F3000.0
M101
G1 X28.6476 Y-14.7234 Z0.15 F720.0 E0.63151
G1 X43.9386 Y31.1512 Z0.15 F720.0 E1.09933
G1 X50.711 Y32.9055 Z0.15 F720.0 E0.15904
G1 X52.4935 Y32.3353 Z0.15 F720.0 E0.04255
G1 X53.8512 Y31.1684 Z0.15 F720.0 E0.0407
G1 X57.7388 Y23.3816 Z0.15 F720.0 E0.19786
G1 X58.2855 Y21.1587 Z0.15 F720.0 E0.05204
G1 X67.855 Y-19.2847 Z0.15 F720.0 E0.94483
G1 X68.0102 Y-21.1144 Z0.15 F720.0 E0.04174
G1 X70.2986 Y-48.841 Z0.15 F720.0 E0.63248
G1 X69.5887 Y-51.8171 Z0.15 F720.0 E0.06956
G1 X68.6157 Y-54.8539 Z0.15 F720.0 E0.0725
G1 X66.6475 Y-57.9155 Z0.15 F720.0 E0.08275
G1 X64.1252 Y-60.0695 Z0.15 F720.0 E0.07541
G1 X61.2569 Y-61.6674 Z0.15 F720.0 E0.07464
G1 X58.4623 Y-62.7274 Z0.15 F720.0 E0.06795
G1 X52.4989 Y-63.9088 Z0.15 F720.0 E0.13821
G1 X49.3095 Y-63.9998 Z0.15 F720.0 E0.07254
G1 X43.8276 Y-63.1414 Z0.15 F720.0 E0.12615
G1 X40.6724 Y-62.2929 Z0.15 F720.0 E0.07428
G1 X35.2264 Y-59.9558 Z0.15 F720.0 E0.13473
G1 X30.4895 Y-56.64 Z0.15 F720.0 E0.13145
G1 X28.2277 Y-54.2849 Z0.15 F720.0 E0.07423
G1 X26.5578 Y-51.8608 Z0.15 F720.0 E0.06692
G1 X25.2354 Y-48.9412 Z0.15 F720.0 E0.07286
G1 X24.4566 Y-45.5321 Z0.15 F720.0 E0.0795
G1 X24.4218 Y-42.1081 Z0.15 F720.0 E0.07784
G1 F12000.0
G1 E-2.0
G1 F720.0
M103
;M108 R15.0
G1 X34.0838 Y-56.1616 Z0.15 F3000.0
G1 F12000.0
G1 E2.0
G1 F3000.0
M101
G1 X34.4955 Y-56.4899 Z0.15 F720.0 E0.01197
G1 X36.8156 Y-57.9316 Z0.15 F720.0 E0.0621
G1 X39.4108 Y-59.1845 Z0.15 F720.0 E0.06552
G1 X41.8785 Y-60.1038 Z0.15 F720.0 E0.05987
G1 X44.6712 Y-60.8605 Z0.15 F720.0 E0.06578
G1 X47.3649 Y-61.3132 Z0.15 F720.0 E0.0621
G1 X49.9477 Y-61.4897 Z0.15 F720.0 E0.05886
G1 X52.7812 Y-61.1906 Z0.15 F720.0 E0.06477
G1 X55.5606 Y-60.7819 Z0.15 F720.0 E0.06387
G1 X58.0466 Y-60.1416 Z0.15 F720.0 E0.05836
G1 X60.6886 Y-59.1395 Z0.15 F720.0 E0.06424
G1 X63.1154 Y-57.7701 Z0.15 F720.0 E0.06335
G1 X65.1201 Y-56.0529 Z0.15 F720.0 E0.06001
G1 X66.6688 Y-53.7152 Z0.15 F720.0 E0.06375
G1 X67.4996 Y-51.187 Z0.15 F720.0 E0.0605
G1 X67.7834 Y-48.4634 Z0.15 F720.0 E0.06225
G1 X67.151 Y-45.8411 Z0.15 F720.0 E0.06132
G1 X66.4892 Y-43.3338 Z0.15 F720.0 E0.05895
G1 X65.3511 Y-40.5886 Z0.15 F720.0 E0.06756
G1 X62.8934 Y-35.5729 Z0.15 F720.0 E0.12698
G1 X62.3197 Y-32.9321 Z0.15 F720.0 E0.06144
G1 X62.8711 Y-30.2499 Z0.15 F720.0 E0.06225
G1 X63.6722 Y-27.2541 Z0.15 F720.0 E0.0705
G1 X64.6649 Y-24.6656 Z0.15 F720.0 E0.06303
G1 X65.3592 Y-22.1377 Z0.15 F720.0 E0.0596
G1 X65.4881 Y-20.8452 Z0.15 F720.0 E0.02953
G1 X64.9741 Y-19.5931 Z0.15 F720.0 E0.03077
G1 X64.4448 Y-18.4168 Z0.15 F720.0 E0.02933
G1 X63.4233 Y-17.6395 Z0.15 F720.0 E0.02918
G1 X62.0969 Y-17.3368 Z0.15 F720.0 E0.03093
G1 X60.8388 Y-17.8222 Z0.15 F720.0 E0.03066
G1 X58.5612 Y-19.4282 Z0.15 F720.0 E0.06336
G1 X57.3051 Y-19.8369 Z0.15 F720.0 E0.03003
G1 X55.8782 Y-19.4075 Z0.15 F720.0 E0.03388
G1 X54.7667 Y-18.5097 Z0.15 F720.0 E0.03248
G1 X54.1627 Y-17.1254 Z0.15 F720.0 E0.03434
G1 X53.516 Y-14.3393 Z0.15 F720.0 E0.06502
G1 X53.1471 Y-11.5446 Z0.15 F720.0 E0.06409
G1 X52.9075 Y-6.0851 Z0.15 F720.0 E0.12424
G1 X53.3889 Y7.7246 Z0.15 F720.0 E0.31414
G1 X52.6157 Y13.4254 Z0.15 F720.0 E0.13079
G1 X53.1954 Y16.1142 Z0.15 F720.0 E0.06253
G1 X54.0688 Y17.9645 Z0.15 F720.0 E0.04651
G1 X55.3812 Y19.682 Z0.15 F720.0 E0.04914
G1 X55.8016 Y20.8417 Z0.15 F720.0 E0.02804
G1 X54.9713 Y22.6809 Z0.15 F720.0 E0.04588
G1 X52.3065 Y28.406 Z0.15 F720.0 E0.14356
G1 X51.5869 Y29.6355 Z0.15 F720.0 E0.03239
G1 X50.8139 Y30.3538 Z0.15 F720.0 E0.02399
G1 X50.6184 Y30.1007 Z0.15 F720.0 E0.00727
G1 X50.3944 Y29.9705 Z0.15 F720.0 E0.00589
G1 X49.8031 Y29.3591 Z0.15 F720.0 E0.01934
G1 X48.6152 Y28.7212 Z0.15 F720.0 E0.03066
G1 X47.1396 Y29.0209 Z0.15 F720.0 E0.03423
G1 X46.0498 Y28.7542 Z0.15 F720.0 E0.02551
G1 X45.9965 Y28.3834 Z0.15 F720.0 E0.00852
G1 X46.5651 Y27.6193 Z0.15 F720.0 E0.02165
G1 X46.6359 Y26.0639 Z0.15 F720.0 E0.0354
G1 X45.5308 Y23.3948 Z0.15 F720.0 E0.06567
G1 X45.9567 Y21.9062 Z0.15 F720.0 E0.0352
G1 X45.382 Y21.2222 Z0.15 F720.0 E0.02031
G1 X44.8287 Y20.6819 Z0.15 F720.0 E0.01758
G1 X44.3375 Y20.3322 Z0.15 F720.0 E0.01371
G1 X44.231 Y19.9379 Z0.15 F720.0 E0.00928
G1 X45.9644 Y15.8841 Z0.15 F720.0 E0.10023
G1 X46.2325 Y14.4258 Z0.15 F720.0 E0.03371
G1 X42.6929 Y-14.4444 Z0.15 F720.0 E0.66125
G1 X42.2586 Y-15.7958 Z0.15 F720.0 E0.03227
G1 X41.2104 Y-16.5591 Z0.15 F720.0 E0.02948
G1 X39.5849 Y-16.6318 Z0.15 F720.0 E0.03699
G1 X38.1821 Y-15.9777 Z0.15 F720.0 E0.03519
G1 X34.71 Y-13.6619 Z0.15 F720.0 E0.09488
G1 X33.4534 Y-13.2766 Z0.15 F720.0 E0.02988
G1 X32.2772 Y-13.7347 Z0.15 F720.0 E0.02869
G1 X31.2515 Y-14.5571 Z0.15 F720.0 E0.02989
G1 X30.6868 Y-15.6517 Z0.15 F720.0 E0.028
G1 X30.5124 Y-16.9783 Z0.15 F720.0 E0.03042
G1 X31.2535 Y-19.5318 Z0.15 F720.0 E0.06045
G1 X32.818 Y-24.9557 Z0.15 F720.0 E0.12834
G1 X33.3707 Y-27.6918 Z0.15 F720.0 E0.06346
G1 X32.9297 Y-29.8097 Z0.15 F720.0 E0.04918
G1 X32.4592 Y-31.8278 Z0.15 F720.0 E0.04711
G1 X31.8577 Y-33.1289 Z0.15 F720.0 E0.03259
G1 X28.6599 Y-37.5137 Z0.15 F720.0 E0.12338
G1 X27.4222 Y-40.0772 Z0.15 F720.0 E0.06471
G1 X26.9191 Y-42.669 Z0.15 F720.0 E0.06002
G1 X27.374 Y-45.4642 Z0.15 F720.0 E0.06438
G1 X27.969 Y-48.18 Z0.15 F720.0 E0.06321
G1 X29.039 Y-50.6358 Z0.15 F720.0 E0.0609
G1 X30.4727 Y-52.7658 Z0.15 F720.0 E0.05837
G1 X32.4446 Y-54.8547 Z0.15 F720.0 E0.06531
G1 X34.0838 Y-56.1616 Z0.15 F720.0 E0.04766
G1 F12000.0
G1 E-2.0
G1 F720.0
M103
G1 X43.1934 Y-42.1841 Z0.15 F3000.0
G1 F12000.0
G1 E2.0
G1 F3000.0
M101
G1 X42.1982 Y-41.5298 Z0.15 F720.0 E0.02708
G1 X41.2713 Y-38.6825 Z0.15 F720.0 E0.06807
G1 X41.9775 Y-35.7043 Z0.15 F720.0 E0.06959
G1 X43.4716 Y-33.1112 Z0.15 F720.0 E0.06804
G1 X45.8885 Y-31.3473 Z0.15 F720.0 E0.06802
G1 X48.8167 Y-30.7199 Z0.15 F720.0 E0.06808
G1 X51.7449 Y-31.5372 Z0.15 F720.0 E0.06911
G1 X54.1699 Y-33.2929 Z0.15 F720.0 E0.06806
G1 X55.6709 Y-35.8807 Z0.15 F720.0 E0.06801
G1 X55.9892 Y-38.8579 Z0.15 F720.0 E0.06807
G1 X54.6687 Y-41.7054 Z0.15 F720.0 E0.07136
G1 X52.6709 Y-43.9323 Z0.15 F720.0 E0.06801
G1 X49.9376 Y-45.1549 Z0.15 F720.0 E0.06807
G1 X46.9446 Y-45.16 Z0.15 F720.0 E0.06804
G1 X44.2071 Y-43.7468 Z0.15 F720.0 E0.07004
G1 X42.7934 Y-42.1841 Z0.15 F720.0 E0.04791
G1 F12000.0
G1 E-0.0
G1 F720.0
M103
;M108 R20.0
M104 S198.0
G1 X42.541 Y-42.7314 Z0.15 F3000.0
G1 F12000.0
G1 E0.0
G1 F3000.0
M101
G1 X41.8233 Y-41.7361 Z0.15 F1200.0 E0.02232
G1 X40.8417 Y-38.7197 Z0.15 F1200.0 E0.05769
G1 X41.5699 Y-35.5631 Z0.15 F1200.0 E0.05892
G1 X43.1568 Y-32.8167 Z0.15 F1200.0 E0.05769
G1 X45.7206 Y-30.9502 Z0.15 F1200.0 E0.05768
G1 X48.8249 Y-30.2888 Z0.15 F1200.0 E0.05773
G1 X51.9277 Y-31.1467 Z0.15 F1200.0 E0.05855
G1 X54.4957 Y-33.0105 Z0.15 F1200.0 E0.05771
G1 X56.0834 Y-35.7551 Z0.15 F1200.0 E0.05767
G1 X56.4171 Y-38.9111 Z0.15 F1200.0 E0.05772
G1 X55.0379 Y-41.928 Z0.15 F1200.0 E0.06033
G1 X52.9177 Y-44.2859 Z0.15 F1200.0 E0.05767
G1 X50.0192 Y-45.5782 Z0.15 F1200.0 E0.05772
G1 X46.8469 Y-45.58 Z0.15 F1200.0 E0.05769
G1 X43.947 Y-44.0908 Z0.15 F1200.0 E0.05929
G1 X42.541 Y-42.5314 Z0.15 F1200.0 E0.03819
G1 F12000.0
G1 E-0.0
G1 F1200.0
M103
G1 X42.2886 Y-43.0788 Z0.15 F3000.0
G1 F12000.0
G1 E0.0
G1 F3000.0
M101
G1 X41.4517 Y-41.9507 Z0.15 F1200.0 E0.02555
G1 X40.4147 Y-38.7647 Z0.15 F1200.0 E0.06094
G1 X41.1615 Y-35.4304 Z0.15 F1200.0 E0.06215
G1 X42.8378 Y-32.5293 Z0.15 F1200.0 E0.06094
G1 X45.5459 Y-30.5579 Z0.15 F1200.0 E0.06092
G1 X48.8249 Y-29.8594 Z0.15 F1200.0 E0.06097
G1 X52.1024 Y-30.7545 Z0.15 F1200.0 E0.06179
G1 X54.8147 Y-32.7231 Z0.15 F1200.0 E0.06095
G1 X56.4918 Y-35.6224 Z0.15 F1200.0 E0.06092
G1 X56.8442 Y-38.956 Z0.15 F1200.0 E0.06097
G1 X55.4098 Y-42.1427 Z0.15 F1200.0 E0.06356
G1 X53.1701 Y-44.6332 Z0.15 F1200.0 E0.06092
G1 X50.1085 Y-45.9982 Z0.15 F1200.0 E0.06097
G1 X46.7577 Y-46.0 Z0.15 F1200.0 E0.06094
G1 X43.6946 Y-44.4382 Z0.15 F1200.0 E0.06253
G1 X42.2886 Y-42.8788 Z0.15 F1200.0 E0.03819
G1 F12000.0
G1 E-2.0
G1 F1200.0
M103
G1 X37.9942 Y-57.761 Z0.15 F3000.0
G1 F12000.0
G1 E2.0
G1 F3000.0
M101
G1 X39.7407 Y-58.4111 Z0.15 F1200.0 E0.03389
G1 X42.1355 Y-59.3031 Z0.15 F1200.0 E0.04648
G1 X44.8511 Y-60.039 Z0.15 F1200.0 E0.05117
G1 X47.4633 Y-60.4779 Z0.15 F1200.0 E0.04818
G1 X49.9617 Y-60.6487 Z0.15 F1200.0 E0.04554
G1 X52.7051 Y-60.3527 Z0.15 F1200.0 E0.05019
G1 X55.3943 Y-59.9573 Z0.15 F1200.0 E0.04943
G1 X57.7921 Y-59.3398 Z0.15 F1200.0 E0.04503
G1 X60.3312 Y-58.3767 Z0.15 F1200.0 E0.04939
G1 X62.6312 Y-57.0789 Z0.15 F1200.0 E0.04803
G1 X64.4845 Y-55.4913 Z0.15 F1200.0 E0.04438
G1 X65.906 Y-53.3457 Z0.15 F1200.0 E0.04681
G1 X66.6734 Y-51.0105 Z0.15 F1200.0 E0.04471
G1 X66.9396 Y-48.4569 Z0.15 F1200.0 E0.04669
G1 X66.3206 Y-45.9865 Z0.15 F1200.0 E0.04632
G1 X65.6915 Y-43.6031 Z0.15 F1200.0 E0.04483
G1 X64.5852 Y-40.9346 Z0.15 F1200.0 E0.05254
G1 X62.0941 Y-35.8508 Z0.15 F1200.0 E0.10296
G1 X61.4746 Y-32.9986 Z0.15 F1200.0 E0.05308
G1 X62.0374 Y-30.1162 Z0.15 F1200.0 E0.05341
G1 X62.8721 Y-26.9945 Z0.15 F1200.0 E0.05877
G1 X63.8658 Y-24.4033 Z0.15 F1200.0 E0.05047
G1 X64.5302 Y-21.9845 Z0.15 F1200.0 E0.04562
G1 X64.646 Y-20.8433 Z0.15 F1200.0 E0.02086
G1 X64.1555 Y-19.8092 Z0.15 F1200.0 E0.02082
G1 X63.774 Y-18.9491 Z0.15 F1200.0 E0.01711
G1 X63.062 Y-18.4098 Z0.15 F1200.0 E0.01625
G1 X62.0939 Y-18.1894 Z0.15 F1200.0 E0.01806
G1 X61.1854 Y-18.6051 Z0.15 F1200.0 E0.01817
G1 X58.9411 Y-20.1882 Z0.15 F1200.0 E0.04995
G1 X57.3718 Y-20.6926 Z0.15 F1200.0 E0.02998
G1 X55.5291 Y-20.1969 Z0.15 F1200.0 E0.03471
G1 X54.0843 Y-19.033 Z0.15 F1200.0 E0.03374
G1 X53.3621 Y-17.3915 Z0.15 F1200.0 E0.03262
G1 X52.6885 Y-14.4895 Z0.15 F1200.0 E0.05418
G1 X52.3096 Y-11.6181 Z0.15 F1200.0 E0.05268
G1 X52.0674 Y-6.1011 Z0.15 F1200.0 E0.10044
G1 X52.5487 Y7.6996 Z0.15 F1200.0 E0.25115
G1 X51.7738 Y13.426 Z0.15 F1200.0 E0.1051
G1 X52.3679 Y16.3293 Z0.15 F1200.0 E0.0539
G1 X53.3474 Y18.4039 Z0.15 F1200.0 E0.04173
G1 X54.6355 Y20.0896 Z0.15 F1200.0 E0.03858
G1 X54.9354 Y20.8933 Z0.15 F1200.0 E0.0156
G1 X54.1732 Y22.4051 Z0.15 F1200.0 E0.03079
G1 X51.5622 Y28.0144 Z0.15 F1200.0 E0.11253
G1 X50.9395 Y29.1168 Z0.15 F1200.0 E0.02303
G1 X50.6915 Y29.3123 Z0.15 F1200.0 E0.00574
G1 X50.3044 Y28.6838 Z0.15 F1200.0 E0.01342
G1 X48.7996 Y27.871 Z0.15 F1200.0 E0.03111
G1 X47.3078 Y28.186 Z0.15 F1200.0 E0.02773
G1 X46.9936 Y27.5585 Z0.15 F1200.0 E0.01276
G1 X47.481 Y25.9739 Z0.15 F1200.0 E0.03015
G1 X46.3721 Y23.2909 Z0.15 F1200.0 E0.0528
G1 X46.7952 Y21.7981 Z0.15 F1200.0 E0.02822
G1 X46.119 Y20.8018 Z0.15 F1200.0 E0.0219
G1 X45.1593 Y19.8245 Z0.15 F1200.0 E0.02491
G1 X46.7802 Y16.0923 Z0.15 F1200.0 E0.074
G1 X47.0807 Y14.4569 Z0.15 F1200.0 E0.03024
G1 X43.5185 Y-14.6221 Z0.15 F1200.0 E0.53282
G1 X42.9681 Y-16.3057 Z0.15 F1200.0 E0.03222
G1 X41.5018 Y-17.3793 Z0.15 F1200.0 E0.03305
G1 X39.4728 Y-17.4755 Z0.15 F1200.0 E0.03694
G1 X37.8132 Y-16.7412 Z0.15 F1200.0 E0.03301
G1 X34.3476 Y-14.4299 Z0.15 F1200.0 E0.07576
G1 X33.4191 Y-14.132 Z0.15 F1200.0 E0.01773
G1 X32.6442 Y-14.5029 Z0.15 F1200.0 E0.01562
G1 X31.9092 Y-15.0966 Z0.15 F1200.0 E0.01719
G1 X31.4946 Y-15.9071 Z0.15 F1200.0 E0.01656
G1 X31.3599 Y-16.9789 Z0.15 F1200.0 E0.01965
G1 X32.0778 Y-19.3588 Z0.15 F1200.0 E0.04521
G1 X33.6345 Y-24.7558 Z0.15 F1200.0 E0.10216
G1 X34.2123 Y-27.6159 Z0.15 F1200.0 E0.05307
G1 X33.7678 Y-29.9144 Z0.15 F1200.0 E0.04258
G1 X33.2578 Y-32.1021 Z0.15 F1200.0 E0.04085
G1 X32.5853 Y-33.5568 Z0.15 F1200.0 E0.02915
G1 X29.3833 Y-37.9473 Z0.15 F1200.0 E0.09883
G1 X28.2261 Y-40.3441 Z0.15 F1200.0 E0.04841
G1 X27.7607 Y-42.7415 Z0.15 F1200.0 E0.04441
G1 X28.2122 Y-45.365 Z0.15 F1200.0 E0.04842
G1 X28.7719 Y-47.9198 Z0.15 F1200.0 E0.04757
G1 X29.7785 Y-50.2301 Z0.15 F1200.0 E0.04583
G1 X31.1309 Y-52.2394 Z0.15 F1200.0 E0.04405
G1 X33.0147 Y-54.2349 Z0.15 F1200.0 E0.04991
G1 X34.9807 Y-55.8025 Z0.15 F1200.0 E0.04573
G1 X36.5475 Y-56.7761 Z0.15 F1200.0 E0.03355
G1 X37.2198 Y-57.197 Z0.15 F1200.0 E0.01443
G1 X38.3942 Y-57.761 Z0.15 F1200.0 E0.02369
G1 F12000.0
G1 E-0.0
G1 F1200.0
M103
G1 X37.7714 Y-58.1198 Z0.15 F3000.0
G1 F12000.0
G1 E0.0
G1 F3000.0
M101
G1 X39.5757 Y-58.7978 Z0.15 F1200.0 E0.03506
G1 X42.007 Y-59.7034 Z0.15 F1200.0 E0.04719
G1 X44.7612 Y-60.4498 Z0.15 F1200.0 E0.0519
G1 X47.4141 Y-60.8955 Z0.15 F1200.0 E0.04893
G1 X49.9547 Y-61.0692 Z0.15 F1200.0 E0.04631
G1 X52.7431 Y-60.7716 Z0.15 F1200.0 E0.051
G1 X55.4774 Y-60.3696 Z0.15 F1200.0 E0.05026
G1 X57.9193 Y-59.7407 Z0.15 F1200.0 E0.04586
G1 X60.5099 Y-58.7581 Z0.15 F1200.0 E0.05039
G1 X62.8733 Y-57.4245 Z0.15 F1200.0 E0.04936
G1 X64.8023 Y-55.7721 Z0.15 F1200.0 E0.04619
G1 X66.2874 Y-53.5304 Z0.15 F1200.0 E0.04891
G1 X67.0865 Y-51.0987 Z0.15 F1200.0 E0.04655
G1 X67.3615 Y-48.4601 Z0.15 F1200.0 E0.04825
G1 X66.7358 Y-45.9138 Z0.15 F1200.0 E0.04769
G1 X66.0904 Y-43.4684 Z0.15 F1200.0 E0.046
G1 X64.9681 Y-40.7616 Z0.15 F1200.0 E0.05329
G1 X62.4938 Y-35.7118 Z0.15 F1200.0 E0.10227
G1 X61.8971 Y-32.9654 Z0.15 F1200.0 E0.05112
G1 X62.4543 Y-30.1831 Z0.15 F1200.0 E0.05161
G1 X63.2721 Y-27.1243 Z0.15 F1200.0 E0.05758
G1 X64.2654 Y-24.5344 Z0.15 F1200.0 E0.05045
G1 X64.9447 Y-22.0611 Z0.15 F1200.0 E0.04665
G1 X65.067 Y-20.8442 Z0.15 F1200.0 E0.02224
G1 X64.5646 Y-19.7012 Z0.15 F1200.0 E0.02271
G1 X64.109 Y-18.6831 Z0.15 F1200.0 E0.02029
G1 X63.2424 Y-18.025 Z0.15 F1200.0 E0.01979
G1 X62.0953 Y-17.7635 Z0.15 F1200.0 E0.0214
G1 X61.0121 Y-18.2137 Z0.15 F1200.0 E0.02133
G1 X58.7511 Y-19.8082 Z0.15 F1200.0 E0.05032
G1 X57.3383 Y-20.2643 Z0.15 F1200.0 E0.027
G1 X55.7037 Y-19.8016 Z0.15 F1200.0 E0.0309
G1 X54.4257 Y-18.771 Z0.15 F1200.0 E0.02986
G1 X53.7624 Y-17.2585 Z0.15 F1200.0 E0.03004
G1 X53.1023 Y-14.4144 Z0.15 F1200.0 E0.0531
G1 X52.7283 Y-11.5813 Z0.15 F1200.0 E0.05197
G1 X52.4874 Y-6.0931 Z0.15 F1200.0 E0.09991
G1 X52.9688 Y7.7121 Z0.15 F1200.0 E0.25123
G1 X52.1947 Y13.4257 Z0.15 F1200.0 E0.10486
G1 X52.7816 Y16.2218 Z0.15 F1200.0 E0.05196
G1 X53.7081 Y18.1842 Z0.15 F1200.0 E0.03947
G1 X55.0083 Y19.8858 Z0.15 F1200.0 E0.03895
G1 X55.3681 Y20.8676 Z0.15 F1200.0 E0.01902
G1 X54.5723 Y22.5431 Z0.15 F1200.0 E0.03373
G1 X51.9344 Y28.2102 Z0.15 F1200.0 E0.11369
G1 X51.2595 Y29.3748 Z0.15 F1200.0 E0.02448
G1 X50.7238 Y29.8931 Z0.15 F1200.0 E0.01356
G1 X50.6449 Y29.6468 Z0.15 F1200.0 E0.0047
G1 X50.0504 Y29.017 Z0.15 F1200.0 E0.01575
G1 X48.7081 Y28.2971 Z0.15 F1200.0 E0.0277
G1 X47.1337 Y28.6035 Z0.15 F1200.0 E0.02917
G1 X46.4144 Y28.3758 Z0.15 F1200.0 E0.01372
G1 X46.9802 Y27.6743 Z0.15 F1200.0 E0.01639
G1 X47.0584 Y26.0189 Z0.15 F1200.0 E0.03014
G1 X45.9515 Y23.3429 Z0.15 F1200.0 E0.05267
G1 X46.3753 Y21.8532 Z0.15 F1200.0 E0.02817
G1 X45.7505 Y21.0103 Z0.15 F1200.0 E0.01908
G1 X45.1025 Y20.3741 Z0.15 F1200.0 E0.01652
G1 X44.6844 Y20.0807 Z0.15 F1200.0 E0.00929
G1 X44.6725 Y19.9398 Z0.15 F1200.0 E0.00257
G1 X46.3723 Y15.9882 Z0.15 F1200.0 E0.07824
G1 X46.6566 Y14.4414 Z0.15 F1200.0 E0.0286
G1 X43.1057 Y-14.5333 Z0.15 F1200.0 E0.53091
G1 X42.6127 Y-16.0505 Z0.15 F1200.0 E0.02902
G1 X41.3558 Y-16.9685 Z0.15 F1200.0 E0.02831
G1 X39.5288 Y-17.0533 Z0.15 F1200.0 E0.03326
G1 X37.9976 Y-16.3595 Z0.15 F1200.0 E0.03057
G1 X34.5288 Y-14.0459 Z0.15 F1200.0 E0.07583
G1 X33.4365 Y-13.7052 Z0.15 F1200.0 E0.02081
G1 X32.4607 Y-14.1199 Z0.15 F1200.0 E0.01928
G1 X31.5805 Y-14.8271 Z0.15 F1200.0 E0.02053
G1 X31.0909 Y-15.7795 Z0.15 F1200.0 E0.01948
G1 X30.9361 Y-16.9786 Z0.15 F1200.0 E0.02199
G1 X31.6657 Y-19.4453 Z0.15 F1200.0 E0.04678
G1 X33.2262 Y-24.8558 Z0.15 F1200.0 E0.10241
G1 X33.7915 Y-27.6538 Z0.15 F1200.0 E0.05192
G1 X33.3488 Y-29.8621 Z0.15 F1200.0 E0.04096
G1 X32.8585 Y-31.965 Z0.15 F1200.0 E0.03927
G1 X32.2215 Y-33.3428 Z0.15 F1200.0 E0.02761
G1 X29.0216 Y-37.7305 Z0.15 F1200.0 E0.09877
G1 X27.8242 Y-40.2107 Z0.15 F1200.0 E0.05009
G1 X27.3399 Y-42.7052 Z0.15 F1200.0 E0.04622
G1 X27.7931 Y-45.4146 Z0.15 F1200.0 E0.04996
G1 X28.3705 Y-48.0499 Z0.15 F1200.0 E0.04906
G1 X29.4088 Y-50.4329 Z0.15 F1200.0 E0.04728
G1 X30.8018 Y-52.5026 Z0.15 F1200.0 E0.04537
G1 X32.7297 Y-54.5448 Z0.15 F1200.0 E0.05108
G1 X34.7381 Y-56.1462 Z0.15 F1200.0 E0.04672
G1 X36.3259 Y-57.1328 Z0.15 F1200.0 E0.034
G1 X37.0171 Y-57.5656 Z0.15 F1200.0 E0.01483
G1 X38.1714 Y-58.1198 Z0.15 F1200.0 E0.02329
G1 F12000.0
G1 E-2.0
G1 F1200.0
M103
G1 X54.3758 Y-19.3764 Z0.15 F3000.0
G1 F12000.0
G1 E2.0
G1 F3000.0
M101
G1 X28.1616 Y-45.3906 Z0.15 F1200.0 E0.67168
G1 X28.1376 Y-44.6207 Z0.15 F1200.0 E0.01401
G1 X54.1189 Y-19.0393 Z0.15 F1200.0 E0.66313
G1 X53.5377 Y-18.6266 Z0.15 F1200.0 E0.01297
G1 X28.1261 Y-44.2382 Z0.15 F1200.0 E0.65618
G1 X28.1146 Y-43.4558 Z0.15 F1200.0 E0.01423
G1 X53.7564 Y-18.2139 Z0.15 F1200.0 E0.6544
G1 X53.1751 Y-17.8012 Z0.15 F1200.0 E0.01297
G1 X28.1031 Y-43.0733 Z0.15 F1200.0 E0.64745
G1 X28.566 Y-42.2164 Z0.15 F1200.0 E0.01771
G1 X53.4121 Y-17.3703 Z0.15 F1200.0 E0.63906
G1 X52.9002 Y-16.8882 Z0.15 F1200.0 E0.01279
G1 X28.3089 Y-41.6795 Z0.15 F1200.0 E0.63508
G1 X28.8518 Y-40.7426 Z0.15 F1200.0 E0.01969
G1 X53.1884 Y-16.4061 Z0.15 F1200.0 E0.62595
G1 X52.6765 Y-15.924 Z0.15 F1200.0 E0.01279
G1 X28.7325 Y-40.068 Z0.15 F1200.0 E0.61843
G1 F12000.0
G1 E-0.0
G1 F1200.0
M103
G1 X29.6868 Y-38.7197 Z0.15 F3000.0
G1 F12000.0
G1 E0.0
G1 F3000.0
M101
G1 X52.9646 Y-15.4419 Z0.15 F1200.0 E0.59872
G1 X52.4527 Y-14.9598 Z0.15 F1200.0 E0.01279
G1 X30.1601 Y-37.4525 Z0.15 F1200.0 E0.57596
G1 F12000.0
G1 E-0.08013
G1 F1200.0
M103
G1 X32.1606 Y-35.058 Z0.15 F3000.0
G1 F12000.0
G1 E0.08013
G1 F3000.0
M101
G1 X52.7472 Y-14.4714 Z0.15 F1200.0 E0.5295
G1 X52.2779 Y-13.9466 Z0.15 F1200.0 E0.0128
G1 X33.0307 Y-33.3939 Z0.15 F1200.0 E0.49763
G1 F12000.0
G1 E-0.0
G1 F1200.0
M103
G1 X33.9416 Y-32.089 Z0.15 F3000.0
G1 F12000.0
G1 E0.0
G1 F3000.0
M101
G1 X52.6087 Y-13.4219 Z0.15 F1200.0 E0.48013
G1 X52.1394 Y-12.8972 Z0.15 F1200.0 E0.0128
G1 X33.7452 Y-31.4914 Z0.15 F1200.0 E0.47569
G1 X34.3259 Y-30.5167 Z0.15 F1200.0 E0.02063
G1 X52.4702 Y-12.3725 Z0.15 F1200.0 E0.46668
G1 X52.001 Y-11.8478 Z0.15 F1200.0 E0.0128
G1 X34.1033 Y-29.9454 Z0.15 F1200.0 E0.46292
G1 X34.5151 Y-29.1397 Z0.15 F1200.0 E0.01646
G1 X52.3591 Y-11.2957 Z0.15 F1200.0 E0.45896
G1 X51.9341 Y-10.7267 Z0.15 F1200.0 E0.01292
G1 X34.1269 Y-28.7339 Z0.15 F1200.0 E0.46059
G1 X34.5387 Y-27.9282 Z0.15 F1200.0 E0.01646
G1 X52.3091 Y-10.1577 Z0.15 F1200.0 E0.45707
G1 X51.8841 Y-9.5887 Z0.15 F1200.0 E0.01292
G1 X34.1386 Y-27.5343 Z0.15 F1200.0 E0.45901
G1 X34.0388 Y-26.8401 Z0.15 F1200.0 E0.01275
G1 X52.2592 Y-9.0197 Z0.15 F1200.0 E0.46353
G1 X51.8342 Y-8.4507 Z0.15 F1200.0 E0.01292
G1 X33.9389 Y-26.546 Z0.15 F1200.0 E0.46286
G1 X33.8391 Y-25.8518 Z0.15 F1200.0 E0.01275
G1 X52.2092 Y-7.8817 Z0.15 F1200.0 E0.46738
G1 X51.7842 Y-7.3127 Z0.15 F1200.0 E0.01292
G1 X43.4805 Y-15.8165 Z0.15 F1200.0 E0.21617
G1 F12000.0
G1 E-0.0
G1 F1200.0
M103
G1 X44.1705 Y-14.7325 Z0.15 F3000.0
G1 F12000.0
G1 E0.0
G1 F3000.0
M101
G1 X52.1593 Y-6.7437 Z0.15 F1200.0 E0.20548
G1 X51.7343 Y-6.1747 Z0.15 F1200.0 E0.01292
G1 X43.9016 Y-14.2074 Z0.15 F1200.0 E0.20405
G1 X44.3741 Y-13.341 Z0.15 F1200.0 E0.01795
G1 X52.1344 Y-5.5806 Z0.15 F1200.0 E0.1996
G1 X52.138 Y-4.9831 Z0.15 F1200.0 E0.01087
G1 X44.0466 Y-12.8745 Z0.15 F1200.0 E0.20556
G1 X44.5191 Y-12.0081 Z0.15 F1200.0 E0.01795
G1 X52.1415 Y-4.3856 Z0.15 F1200.0 E0.19605
G1 X52.145 Y-3.7881 Z0.15 F1200.0 E0.01087
G1 X44.1916 Y-11.5416 Z0.15 F1200.0 E0.20201
G1 X44.664 Y-10.6751 Z0.15 F1200.0 E0.01795
G1 X52.1485 Y-3.1907 Z0.15 F1200.0 E0.19251
G1 X52.1521 Y-2.5932 Z0.15 F1200.0 E0.01087
G1 X44.3365 Y-10.2087 Z0.15 F1200.0 E0.19847
G1 X44.809 Y-9.3422 Z0.15 F1200.0 E0.01795
G1 X52.1556 Y-1.9957 Z0.15 F1200.0 E0.18896
G1 X52.1591 Y-1.3982 Z0.15 F1200.0 E0.01087
G1 X44.4815 Y-8.8758 Z0.15 F1200.0 E0.19492
G1 X44.954 Y-8.0093 Z0.15 F1200.0 E0.01795
G1 X52.1626 Y-0.8007 Z0.15 F1200.0 E0.18541
G1 X52.1661 Y-0.2032 Z0.15 F1200.0 E0.01087
G1 X44.6265 Y-7.5429 Z0.15 F1200.0 E0.19137
G1 X45.099 Y-6.6764 Z0.15 F1200.0 E0.01795
G1 X52.1696 Y0.3943 Z0.15 F1200.0 E0.18186
G1 X52.1732 Y0.9918 Z0.15 F1200.0 E0.01087
G1 X44.7714 Y-6.21 Z0.15 F1200.0 E0.18782
G1 X45.2439 Y-5.3435 Z0.15 F1200.0 E0.01795
G1 X52.1767 Y1.5893 Z0.15 F1200.0 E0.17832
G1 X52.1802 Y2.1867 Z0.15 F1200.0 E0.01087
G1 X44.9164 Y-4.877 Z0.15 F1200.0 E0.18428
G1 X45.3889 Y-4.0106 Z0.15 F1200.0 E0.01795
G1 X52.1837 Y2.7843 Z0.15 F1200.0 E0.17477
G1 X52.1872 Y3.3817 Z0.15 F1200.0 E0.01087
G1 X45.0614 Y-3.5442 Z0.15 F1200.0 E0.18073
G1 X45.5339 Y-2.6777 Z0.15 F1200.0 E0.01795
G1 X52.1908 Y3.9792 Z0.15 F1200.0 E0.17122
G1 X52.1943 Y4.5767 Z0.15 F1200.0 E0.01087
G1 X45.2063 Y-2.2112 Z0.15 F1200.0 E0.17718
G1 X45.6788 Y-1.3448 Z0.15 F1200.0 E0.01795
G1 X52.1978 Y5.1742 Z0.15 F1200.0 E0.16767
G1 X52.2013 Y5.7717 Z0.15 F1200.0 E0.01087
G1 X45.3513 Y-0.8783 Z0.15 F1200.0 E0.17363
G1 X45.8238 Y-0.0119 Z0.15 F1200.0 E0.01795
G1 X52.2049 Y6.3692 Z0.15 F1200.0 E0.16413
G1 X52.2084 Y6.9667 Z0.15 F1200.0 E0.01087
G1 X45.4963 Y0.4546 Z0.15 F1200.0 E0.17009
G1 X45.9688 Y1.321 Z0.15 F1200.0 E0.01795
G1 X52.2119 Y7.5642 Z0.15 F1200.0 E0.16058
G1 X51.7838 Y8.1301 Z0.15 F1200.0 E0.0129
G1 X45.6412 Y1.7875 Z0.15 F1200.0 E0.16058
G1 X46.1137 Y2.6539 Z0.15 F1200.0 E0.01795
G1 X52.1473 Y8.6875 Z0.15 F1200.0 E0.15519
G1 X51.7108 Y9.245 Z0.15 F1200.0 E0.01288
G1 X45.7862 Y3.1204 Z0.15 F1200.0 E0.15498
G1 X46.2587 Y3.9869 Z0.15 F1200.0 E0.01795
G1 X52.0743 Y9.8025 Z0.15 F1200.0 E0.14958
G1 X51.6378 Y10.3599 Z0.15 F1200.0 E0.01288
G1 X45.9312 Y4.4533 Z0.15 F1200.0 E0.14937
G1 X46.4037 Y5.3198 Z0.15 F1200.0 E0.01795
G1 X52.0013 Y10.9174 Z0.15 F1200.0 E0.14398
G1 X51.5648 Y11.4749 Z0.15 F1200.0 E0.01288
G1 X46.0761 Y5.7862 Z0.15 F1200.0 E0.14377
G1 X46.5486 Y6.6527 Z0.15 F1200.0 E0.01795
G1 X51.9284 Y12.0324 Z0.15 F1200.0 E0.13837
G1 X51.4918 Y12.5899 Z0.15 F1200.0 E0.01288
G1 X46.2211 Y7.1191 Z0.15 F1200.0 E0.13816
G1 X46.6936 Y7.9856 Z0.15 F1200.0 E0.01795
G1 X51.8554 Y13.1473 Z0.15 F1200.0 E0.13276
G1 X51.8583 Y13.7442 Z0.15 F1200.0 E0.01086
G1 X46.3661 Y8.452 Z0.15 F1200.0 E0.13872
G1 X46.8386 Y9.3185 Z0.15 F1200.0 E0.01795
G1 X51.9009 Y14.3808 Z0.15 F1200.0 E0.13021
G1 X51.9434 Y15.0173 Z0.15 F1200.0 E0.0116
G1 X46.5111 Y9.7849 Z0.15 F1200.0 E0.13718
G1 X46.9835 Y10.6514 Z0.15 F1200.0 E0.01795
G1 X51.986 Y15.6538 Z0.15 F1200.0 E0.12867
G1 X52.0285 Y16.2904 Z0.15 F1200.0 E0.0116
G1 X46.656 Y11.1178 Z0.15 F1200.0 E0.13564
G1 X47.1285 Y11.9843 Z0.15 F1200.0 E0.01795
G1 X52.4624 Y17.3182 Z0.15 F1200.0 E0.13719
G1 X52.9951 Y18.4449 Z0.15 F1200.0 E0.02267
G1 X46.801 Y12.4507 Z0.15 F1200.0 E0.15677
G1 X47.2735 Y13.3172 Z0.15 F1200.0 E0.01795
G1 X54.4079 Y20.4516 Z0.15 F1200.0 E0.1835
G1 X54.5199 Y21.1576 Z0.15 F1200.0 E0.013
G1 X46.946 Y13.7837 Z0.15 F1200.0 E0.19225
G1 X47.4184 Y14.6501 Z0.15 F1200.0 E0.01795
G1 X54.4073 Y21.639 Z0.15 F1200.0 E0.17976
G1 X53.8947 Y22.1203 Z0.15 F1200.0 E0.01279
G1 X46.9305 Y14.9561 Z0.15 F1200.0 E0.18171
G1 X46.8384 Y15.658 Z0.15 F1200.0 E0.01287
G1 X54.1338 Y22.5534 Z0.15 F1200.0 E0.18257
G1 X53.5451 Y22.9587 Z0.15 F1200.0 E0.013
G1 X46.7462 Y15.9598 Z0.15 F1200.0 E0.17746
G1 X46.6228 Y16.6303 Z0.15 F1200.0 E0.0124
G1 X53.7564 Y23.364 Z0.15 F1200.0 E0.17841
G1 X53.1677 Y23.7693 Z0.15 F1200.0 E0.013
G1 X46.4757 Y16.8773 Z0.15 F1200.0 E0.17471
G1 X46.3287 Y17.5242 Z0.15 F1200.0 E0.01207
G1 X53.3791 Y24.1746 Z0.15 F1200.0 E0.17627
G1 X52.7904 Y24.5799 Z0.15 F1200.0 E0.013
G1 X46.1817 Y17.7712 Z0.15 F1200.0 E0.17257
G1 X46.0347 Y18.4181 Z0.15 F1200.0 E0.01207
G1 X53.0017 Y24.9852 Z0.15 F1200.0 E0.17413
G1 X52.4131 Y25.3905 Z0.15 F1200.0 E0.013
G1 X45.8877 Y18.6651 Z0.15 F1200.0 E0.17043
G1 X45.7407 Y19.312 Z0.15 F1200.0 E0.01207
G1 X52.6244 Y25.7958 Z0.15 F1200.0 E0.17199
G1 X52.0357 Y26.2011 Z0.15 F1200.0 E0.013
G1 X45.5936 Y19.559 Z0.15 F1200.0 E0.16829
G1 F12000.0
G1 E-0.0
G1 F1200.0
M103
G1 X46.9431 Y21.3024 Z0.15 F3000.0
G1 F12000.0
G1 E0.0
G1 F3000.0
M101
G1 X52.2471 Y26.6064 Z0.15 F1200.0 E0.13642
G1 X51.6584 Y27.0117 Z0.15 F1200.0 E0.013
G1 X46.7259 Y21.8792 Z0.15 F1200.0 E0.12946
G1 X46.7185 Y22.6657 Z0.15 F1200.0 E0.01431
G1 X51.8697 Y27.417 Z0.15 F1200.0 E0.12745
G1 X51.281 Y27.8223 Z0.15 F1200.0 E0.013
G1 X46.7111 Y23.0523 Z0.15 F1200.0 E0.12014
G1 X47.2505 Y23.9857 Z0.15 F1200.0 E0.01961
G1 X51.4633 Y28.1985 Z0.15 F1200.0 E0.10836
G1 X50.8428 Y28.5719 Z0.15 F1200.0 E0.01317
G1 X47.064 Y24.5931 Z0.15 F1200.0 E0.0998
G1 X47.6774 Y25.6005 Z0.15 F1200.0 E0.02145
G1 X50.4302 Y28.3533 Z0.15 F1200.0 E0.0708
G1 F12000.0
G1 E-0.0
G1 F1200.0
M103
G1 X48.8184 Y27.5355 Z0.15 F3000.0
G1 F12000.0
G1 E0.0
G1 F3000.0
M101
G1 X47.41 Y26.1271 Z0.15 F1200.0 E0.03623
G1 X47.3837 Y26.8948 Z0.15 F1200.0 E0.01397
G1 X48.6593 Y27.7703 Z0.15 F1200.0 E0.02814
G1 X47.7002 Y27.8052 Z0.15 F1200.0 E0.01746
G1 X47.3574 Y27.2625 Z0.15 F1200.0 E0.01167
G1 F12000.0
G1 E-2.0
G1 F1200.0
M103
G1 X33.7393 Y-25.5577 Z0.15 F3000.0
G1 F12000.0
G1 E2.0
G1 F3000.0
M101
G1 X41.9813 Y-17.5157 Z0.15 F1200.0 E0.20943
G1 X40.959 Y-17.744 Z0.15 F1200.0 E0.01905
G1 X33.6395 Y-25.0635 Z0.15 F1200.0 E0.18826
G1 X33.5325 Y-24.3765 Z0.15 F1200.0 E0.01265
G1 X40.7366 Y-17.5724 Z0.15 F1200.0 E0.18022
G1 X39.7143 Y-17.8008 Z0.15 F1200.0 E0.01905
G1 X33.3995 Y-24.1155 Z0.15 F1200.0 E0.16242
G1 X33.2666 Y-23.4545 Z0.15 F1200.0 E0.01226
G1 X39.5847 Y-17.5363 Z0.15 F1200.0 E0.15745
G1 X38.7356 Y-17.3915 Z0.15 F1200.0 E0.01567
G1 X33.1336 Y-23.1935 Z0.15 F1200.0 E0.14668
G1 X33.0006 Y-22.5325 Z0.15 F1200.0 E0.01226
G1 X38.6864 Y-17.2467 Z0.15 F1200.0 E0.14119
G1 X37.8372 Y-17.1019 Z0.15 F1200.0 E0.01567
G1 X32.8676 Y-22.2715 Z0.15 F1200.0 E0.13042
G1 X32.7347 Y-21.6105 Z0.15 F1200.0 E0.01226
G1 X37.8451 Y-16.9001 Z0.15 F1200.0 E0.1264
G1 X37.0888 Y-16.6624 Z0.15 F1200.0 E0.01442
G1 X32.6017 Y-21.3496 Z0.15 F1200.0 E0.11801
G1 X32.4687 Y-20.6886 Z0.15 F1200.0 E0.01226
G1 X37.1325 Y-16.4248 Z0.15 F1200.0 E0.11493
G1 X36.3762 Y-16.1871 Z0.15 F1200.0 E0.01442
G1 X32.3357 Y-20.4276 Z0.15 F1200.0 E0.10653
G1 X32.2028 Y-19.7666 Z0.15 F1200.0 E0.01226
G1 X36.4199 Y-15.9494 Z0.15 F1200.0 E0.10345
G1 X35.6636 Y-15.7117 Z0.15 F1200.0 E0.01442
G1 X32.0698 Y-19.5056 Z0.15 F1200.0 E0.09504
G1 X31.9703 Y-18.8111 Z0.15 F1200.0 E0.01276
G1 X35.7073 Y-15.4741 Z0.15 F1200.0 E0.09112
G1 X34.9511 Y-15.2364 Z0.15 F1200.0 E0.01442
G1 X31.9003 Y-18.4871 Z0.15 F1200.0 E0.08108
G1 X31.8303 Y-17.7632 Z0.15 F1200.0 E0.01323
G1 X34.9948 Y-14.9987 Z0.15 F1200.0 E0.07642
G1 X34.2385 Y-14.761 Z0.15 F1200.0 E0.01442
G1 X31.7602 Y-17.4393 Z0.15 F1200.0 E0.06636
G1 X31.7106 Y-16.6949 Z0.15 F1200.0 E0.01357
G1 X34.191 Y-14.6145 Z0.15 F1200.0 E0.05888
G1 X33.2855 Y-14.5261 Z0.15 F1200.0 E0.01655
G1 X31.8035 Y-16.208 Z0.15 F1200.0 E0.04077
G1 F12000.0
G1 E-2.0
G1 F1200.0
M103
G1 X52.0163 Y-45.6947 Z0.15 F3000.0
G1 F12000.0
G1 E2.0
G1 F3000.0
M101
G1 X39.2951 Y-58.0159 Z0.15 F1200.0 E0.32209
G1 X38.8945 Y-57.6225 Z0.15 F1200.0 E0.01021
G1 X50.9456 Y-45.9714 Z0.15 F1200.0 E0.30486
G1 X49.7871 Y-46.336 Z0.15 F1200.0 E0.02209
G1 X38.494 Y-57.6291 Z0.15 F1200.0 E0.29047
G1 X38.0934 Y-57.2357 Z0.15 F1200.0 E0.01021
G1 X49.5931 Y-46.136 Z0.15 F1200.0 E0.29068
G1 X48.5992 Y-46.336 Z0.15 F1200.0 E0.01844
G1 X37.6928 Y-57.2424 Z0.15 F1200.0 E0.28052
G1 X37.2922 Y-56.849 Z0.15 F1200.0 E0.01021
G1 X48.4052 Y-46.136 Z0.15 F1200.0 E0.28074
G1 X47.4112 Y-46.336 Z0.15 F1200.0 E0.01844
G1 X36.8995 Y-56.8477 Z0.15 F1200.0 E0.27037
G1 X36.5331 Y-56.4201 Z0.15 F1200.0 E0.01024
G1 X47.2172 Y-46.136 Z0.15 F1200.0 E0.26971
G1 X46.3646 Y-45.9947 Z0.15 F1200.0 E0.01572
G1 X36.1668 Y-56.3925 Z0.15 F1200.0 E0.26488
G1 X35.8005 Y-55.9648 Z0.15 F1200.0 E0.01024
G1 X46.3536 Y-45.8117 Z0.15 F1200.0 E0.26634
G1 X45.5426 Y-45.6287 Z0.15 F1200.0 E0.01512
G1 X35.4341 Y-55.9372 Z0.15 F1200.0 E0.26258
G1 X35.0678 Y-55.5096 Z0.15 F1200.0 E0.01024
G1 X45.5316 Y-45.4457 Z0.15 F1200.0 E0.26404
G1 X44.7206 Y-45.2628 Z0.15 F1200.0 E0.01512
G1 X34.7087 Y-55.4747 Z0.15 F1200.0 E0.2601
G1 X34.3782 Y-55.0112 Z0.15 F1200.0 E0.01035
G1 X44.7096 Y-45.0798 Z0.15 F1200.0 E0.26064
G1 X43.8987 Y-44.8968 Z0.15 F1200.0 E0.01512
G1 X34.0477 Y-54.9477 Z0.15 F1200.0 E0.25596
G1 X33.7172 Y-54.4843 Z0.15 F1200.0 E0.01035
G1 X43.888 Y-44.7135 Z0.15 F1200.0 E0.25651
G1 X43.2066 Y-44.4009 Z0.15 F1200.0 E0.01363
G1 X33.3867 Y-54.4208 Z0.15 F1200.0 E0.25516
G1 X33.0563 Y-53.9573 Z0.15 F1200.0 E0.01035
G1 X43.3252 Y-44.0883 Z0.15 F1200.0 E0.25903
G1 X42.6439 Y-43.7757 Z0.15 F1200.0 E0.01363
G1 X32.7407 Y-53.8789 Z0.15 F1200.0 E0.2573
G1 X32.4522 Y-53.3734 Z0.15 F1200.0 E0.01059
G1 X42.7625 Y-43.4631 Z0.15 F1200.0 E0.26009
G1 X42.0811 Y-43.1505 Z0.15 F1200.0 E0.01363
G1 X32.1638 Y-53.2678 Z0.15 F1200.0 E0.25766
G1 X31.8754 Y-52.7623 Z0.15 F1200.0 E0.01059
G1 X42.1997 Y-42.838 Z0.15 F1200.0 E0.26046
G1 X41.5183 Y-42.5254 Z0.15 F1200.0 E0.01363
G1 X31.5869 Y-52.6568 Z0.15 F1200.0 E0.25803
G1 X31.2984 Y-52.1513 Z0.15 F1200.0 E0.01059
G1 X41.6369 Y-42.2128 Z0.15 F1200.0 E0.26082
G1 X41.0503 Y-41.8055 Z0.15 F1200.0 E0.01299
G1 X31.01 Y-52.0458 Z0.15 F1200.0 E0.26083
G1 X30.7684 Y-51.4934 Z0.15 F1200.0 E0.01096
G1 X41.3045 Y-41.3573 Z0.15 F1200.0 E0.2659
G1 X40.7587 Y-40.9091 Z0.15 F1200.0 E0.01284
G1 X30.5294 Y-51.3384 Z0.15 F1200.0 E0.26569
G1 X30.2904 Y-50.7834 Z0.15 F1200.0 E0.01099
G1 X41.013 Y-40.4609 Z0.15 F1200.0 E0.2707
G1 X40.4672 Y-40.0127 Z0.15 F1200.0 E0.01284
G1 X30.0515 Y-50.6284 Z0.15 F1200.0 E0.27048
G1 X29.8125 Y-50.0734 Z0.15 F1200.0 E0.01099
G1 X40.7214 Y-39.5645 Z0.15 F1200.0 E0.27549
G1 X40.1757 Y-39.1163 Z0.15 F1200.0 E0.01284
G1 X29.5984 Y-49.8935 Z0.15 F1200.0 E0.27464
G1 X29.4181 Y-49.2799 Z0.15 F1200.0 E0.01163
G1 X40.4916 Y-38.6063 Z0.15 F1200.0 E0.27972
G1 X40.561 Y-37.943 Z0.15 F1200.0 E0.01213
G1 X29.2378 Y-49.0662 Z0.15 F1200.0 E0.28868
G1 X29.0575 Y-48.4525 Z0.15 F1200.0 E0.01163
G1 X40.6303 Y-37.2797 Z0.15 F1200.0 E0.29256
G1 X40.6997 Y-36.6164 Z0.15 F1200.0 E0.01213
G1 X28.8773 Y-48.2388 Z0.15 F1200.0 E0.30152
G1 X28.697 Y-47.6251 Z0.15 F1200.0 E0.01163
G1 X40.769 Y-35.953 Z0.15 F1200.0 E0.3054
G1 X40.8723 Y-35.2559 Z0.15 F1200.0 E0.01282
G1 X28.5887 Y-47.3394 Z0.15 F1200.0 E0.31338
G1 X28.4819 Y-46.6522 Z0.15 F1200.0 E0.01265
G1 X41.6876 Y-33.8466 Z0.15 F1200.0 E0.33455
G1 X42.5029 Y-32.4373 Z0.15 F1200.0 E0.02961
G1 X28.3752 Y-46.365 Z0.15 F1200.0 E0.36081
G1 X28.2684 Y-45.6778 Z0.15 F1200.0 E0.01265
G1 X54.7044 Y-19.6419 Z0.15 F1200.0 E0.67483
G1 X55.0329 Y-20.1073 Z0.15 F1200.0 E0.01036
G1 X42.4035 Y-32.3367 Z0.15 F1200.0 E0.31974
G1 F12000.0
G1 E-0.08944
G1 F1200.0
M103
G1 X44.9808 Y-30.5534 Z0.15 F3000.0
G1 F12000.0
G1 E0.08944
G1 F3000.0
M101
G1 X55.3615 Y-20.1727 Z0.15 F1200.0 E0.267
G1 X55.6901 Y-20.6381 Z0.15 F1200.0 E0.01036
G1 X45.6152 Y-30.3129 Z0.15 F1200.0 E0.25404
G1 X46.7694 Y-29.9526 Z0.15 F1200.0 E0.02199
G1 X56.1499 Y-20.5722 Z0.15 F1200.0 E0.24127
G1 X56.6614 Y-20.8546 Z0.15 F1200.0 E0.01063
G1 X47.1237 Y-29.9924 Z0.15 F1200.0 E0.24023
G1 X48.2779 Y-29.6322 Z0.15 F1200.0 E0.02199
G1 X57.1729 Y-20.7371 Z0.15 F1200.0 E0.22879
G1 X57.6844 Y-21.0196 Z0.15 F1200.0 E0.01063
G1 X48.5609 Y-29.7431 Z0.15 F1200.0 E0.22958
G1 X49.4508 Y-29.8472 Z0.15 F1200.0 E0.01629
G1 X58.4811 Y-20.6168 Z0.15 F1200.0 E0.23485
G1 X59.3551 Y-20.3369 Z0.15 F1200.0 E0.01669
G1 X49.5406 Y-29.9514 Z0.15 F1200.0 E0.24988
G1 X50.4304 Y-30.0555 Z0.15 F1200.0 E0.01629
G1 X61.1933 Y-19.0926 Z0.15 F1200.0 E0.27941
G1 X62.2849 Y-18.595 Z0.15 F1200.0 E0.02182
G1 X50.5202 Y-30.1596 Z0.15 F1200.0 E0.30003
G1 X51.4101 Y-30.2638 Z0.15 F1200.0 E0.01629
G1 X62.845 Y-18.6288 Z0.15 F1200.0 E0.2967
G1 X63.3229 Y-18.9449 Z0.15 F1200.0 E0.01042
G1 X51.4999 Y-30.3679 Z0.15 F1200.0 E0.299
G1 X52.347 Y-30.5148 Z0.15 F1200.0 E0.01564
G1 X63.6599 Y-19.0019 Z0.15 F1200.0 E0.29356
G1 X63.9481 Y-19.5076 Z0.15 F1200.0 E0.01059
G1 X52.291 Y-30.7647 Z0.15 F1200.0 E0.29473
G1 X53.035 Y-31.0147 Z0.15 F1200.0 E0.01427
G1 X64.1332 Y-19.7165 Z0.15 F1200.0 E0.28804
G1 X64.2439 Y-20.3998 Z0.15 F1200.0 E0.01259
G1 X52.9791 Y-31.2646 Z0.15 F1200.0 E0.28464
G1 X53.7231 Y-31.5146 Z0.15 F1200.0 E0.01427
G1 X64.2945 Y-20.7432 Z0.15 F1200.0 E0.27449
G1 X63.8514 Y-21.5802 Z0.15 F1200.0 E0.01722
G1 X53.6671 Y-31.7645 Z0.15 F1200.0 E0.26195
G1 X54.4111 Y-32.0145 Z0.15 F1200.0 E0.01427
G1 X64.1593 Y-22.0663 Z0.15 F1200.0 E0.25332
G1 F12000.0
G1 E-0.0
G1 F1200.0
M103
G1 X63.5344 Y-23.0852 Z0.15 F3000.0
G1 F12000.0
G1 E0.0
G1 F3000.0
M101
G1 X54.3551 Y-32.2645 Z0.15 F1200.0 E0.2361
G1 X55.0897 Y-32.5239 Z0.15 F1200.0 E0.01417
G1 X63.7095 Y-23.7041 Z0.15 F1200.0 E0.22429
G1 F12000.0
G1 E-0.0
G1 F1200.0
M103
G1 X63.0449 Y-24.7627 Z0.15 F3000.0
G1 F12000.0
G1 E0.0
G1 F3000.0
M101
G1 X54.9072 Y-32.9003 Z0.15 F1200.0 E0.20931
G1 X55.5247 Y-33.2768 Z0.15 F1200.0 E0.01315
G1 X63.0754 Y-25.5261 Z0.15 F1200.0 E0.1968
G1 F12000.0
G1 E-0.0
G1 F1200.0
M103
G1 X62.3058 Y-26.6896 Z0.15 F3000.0
G1 F12000.0
G1 E0.0
G1 F3000.0
M101
G1 X55.3422 Y-33.6533 Z0.15 F1200.0 E0.17911
G1 X55.9597 Y-34.0297 Z0.15 F1200.0 E0.01315
G1 X62.4255 Y-27.364 Z0.15 F1200.0 E0.1689
G1 X61.8086 Y-28.3748 Z0.15 F1200.0 E0.02154
G1 X55.7772 Y-34.4062 Z0.15 F1200.0 E0.15513
G1 X56.3947 Y-34.7827 Z0.15 F1200.0 E0.01315
G1 X61.9917 Y-28.9857 Z0.15 F1200.0 E0.14655
G1 X61.3748 Y-29.9965 Z0.15 F1200.0 E0.02154
G1 X56.2122 Y-35.1591 Z0.15 F1200.0 E0.13279
G1 X56.823 Y-35.5423 Z0.15 F1200.0 E0.01311
G1 X61.6799 Y-30.4854 Z0.15 F1200.0 E0.12752
G1 X61.2442 Y-31.315 Z0.15 F1200.0 E0.01704
G1 X56.4795 Y-36.0798 Z0.15 F1200.0 E0.12255
G1 X56.936 Y-36.6172 Z0.15 F1200.0 E0.01283
G1 X61.6086 Y-31.7447 Z0.15 F1200.0 E0.12278
G1 X61.1729 Y-32.5743 Z0.15 F1200.0 E0.01704
G1 X56.5926 Y-37.1546 Z0.15 F1200.0 E0.11781
G1 X57.0491 Y-37.6921 Z0.15 F1200.0 E0.01283
G1 X61.5372 Y-33.004 Z0.15 F1200.0 E0.11804
G1 X61.6388 Y-33.6964 Z0.15 F1200.0 E0.01273
G1 X56.7056 Y-38.2295 Z0.15 F1200.0 E0.12185
G1 X57.1622 Y-38.767 Z0.15 F1200.0 E0.01283
G1 X61.7447 Y-33.9844 Z0.15 F1200.0 E0.12047
G1 X61.8507 Y-34.6724 Z0.15 F1200.0 E0.01266
G1 X56.6221 Y-39.5009 Z0.15 F1200.0 E0.12944
G1 X56.3359 Y-40.3811 Z0.15 F1200.0 E0.01683
G1 X61.9566 Y-34.9604 Z0.15 F1200.0 E0.14202
G1 X62.0626 Y-35.6484 Z0.15 F1200.0 E0.01266
G1 X56.0497 Y-41.2613 Z0.15 F1200.0 E0.1496
G1 X55.7635 Y-42.1415 Z0.15 F1200.0 E0.01683
G1 X62.1685 Y-35.9365 Z0.15 F1200.0 E0.16219
G1 F12000.0
G1 E-2.0
G1 F1200.0
M103
G1 X64.1672 Y-55.5207 Z0.15 F3000.0
G1 F12000.0
G1 E2.0
G1 F3000.0
M101
G1 X65.4142 Y-53.4797 Z0.15 F1200.0 E0.0435
G1 X61.2436 Y-57.4504 Z0.15 F1200.0 E0.10473
G1 X59.8803 Y-58.2197 Z0.15 F1200.0 E0.02847
G1 X65.8456 Y-52.4544 Z0.15 F1200.0 E0.15088
G1 X66.136 Y-51.57 Z0.15 F1200.0 E0.01693
G1 X58.8961 Y-58.6099 Z0.15 F1200.0 E0.18366
G1 X57.9391 Y-58.9729 Z0.15 F1200.0 E0.01861
G1 X66.3631 Y-50.7489 Z0.15 F1200.0 E0.21411
G1 X66.4321 Y-50.0859 Z0.15 F1200.0 E0.01212
G1 X57.0327 Y-59.2853 Z0.15 F1200.0 E0.2392
G1 X56.2327 Y-59.4914 Z0.15 F1200.0 E0.01503
G1 X66.5012 Y-49.4229 Z0.15 F1200.0 E0.26155
G1 X66.5702 Y-48.7599 Z0.15 F1200.0 E0.01212
G1 X55.4326 Y-59.6975 Z0.15 F1200.0 E0.28391
G1 X54.6709 Y-59.8653 Z0.15 F1200.0 E0.01419
G1 X66.5761 Y-48.1601 Z0.15 F1200.0 E0.30365
G1 X66.1277 Y-47.6145 Z0.15 F1200.0 E0.01284
G1 X53.9745 Y-59.9677 Z0.15 F1200.0 E0.31517
G1 X53.2782 Y-60.0701 Z0.15 F1200.0 E0.0128
G1 X66.4793 Y-47.0689 Z0.15 F1200.0 E0.33698
G1 X66.0309 Y-46.5234 Z0.15 F1200.0 E0.01284
G1 X52.5818 Y-60.1724 Z0.15 F1200.0 E0.3485
G1 X51.9307 Y-60.2296 Z0.15 F1200.0 E0.01189
G1 X66.3733 Y-45.987 Z0.15 F1200.0 E0.36891
G1 X65.8493 Y-45.517 Z0.15 F1200.0 E0.0128
G1 X51.3152 Y-60.2512 Z0.15 F1200.0 E0.37641
G1 X50.6996 Y-60.2727 Z0.15 F1200.0 E0.0112
G1 X66.1252 Y-45.0471 Z0.15 F1200.0 E0.39419
G1 X65.6012 Y-44.5772 Z0.15 F1200.0 E0.0128
G1 X50.0841 Y-60.2943 Z0.15 F1200.0 E0.40169
G1 X49.4782 Y-60.3062 Z0.15 F1200.0 E0.01102
G1 X65.8771 Y-44.1073 Z0.15 F1200.0 E0.41923
G1 X65.3453 Y-43.6451 Z0.15 F1200.0 E0.01281
G1 X48.9222 Y-60.2682 Z0.15 F1200.0 E0.42499
G1 X48.3662 Y-60.0302 Z0.15 F1200.0 E0.011
G1 X65.5712 Y-43.2253 Z0.15 F1200.0 E0.43741
G1 X64.9971 Y-42.8054 Z0.15 F1200.0 E0.01294
G1 X47.8103 Y-60.1922 Z0.15 F1200.0 E0.44464
G1 X47.2543 Y-59.9542 Z0.15 F1200.0 E0.011
G1 X65.223 Y-42.3855 Z0.15 F1200.0 E0.45705
G1 X64.6489 Y-41.9656 Z0.15 F1200.0 E0.01294
G1 X46.7329 Y-60.0817 Z0.15 F1200.0 E0.46339
G1 X46.2243 Y-59.7962 Z0.15 F1200.0 E0.01061
G1 X64.8748 Y-41.5457 Z0.15 F1200.0 E0.47459
G1 X64.3007 Y-41.1258 Z0.15 F1200.0 E0.01294
G1 X45.7158 Y-59.9108 Z0.15 F1200.0 E0.4806
G1 X45.2073 Y-59.6254 Z0.15 F1200.0 E0.01061
G1 X64.5081 Y-40.7245 Z0.15 F1200.0 E0.49131
G1 X63.9128 Y-40.3259 Z0.15 F1200.0 E0.01303
G1 X44.6987 Y-59.7399 Z0.15 F1200.0 E0.49678
G1 X44.2172 Y-59.4275 Z0.15 F1200.0 E0.01044
G1 X64.1174 Y-39.9273 Z0.15 F1200.0 E0.50673
G1 X63.5221 Y-39.5286 Z0.15 F1200.0 E0.01303
G1 X43.7499 Y-59.5009 Z0.15 F1200.0 E0.51113
G1 X43.2825 Y-59.1742 Z0.15 F1200.0 E0.01037
G1 X63.7268 Y-39.13 Z0.15 F1200.0 E0.52072
G1 X63.1314 Y-38.7313 Z0.15 F1200.0 E0.01303
G1 X42.8152 Y-59.2476 Z0.15 F1200.0 E0.52513
G1 X42.3479 Y-58.9209 Z0.15 F1200.0 E0.01037
G1 X63.3361 Y-38.3327 Z0.15 F1200.0 E0.53471
G1 X62.7408 Y-37.9341 Z0.15 F1200.0 E0.01303
G1 X41.8805 Y-58.9943 Z0.15 F1200.0 E0.53912
G1 X41.4447 Y-58.6362 Z0.15 F1200.0 E0.01026
G1 X62.9454 Y-37.5354 Z0.15 F1200.0 E0.54789
G1 X62.3501 Y-37.1368 Z0.15 F1200.0 E0.01303
G1 X41.0119 Y-58.675 Z0.15 F1200.0 E0.55141
G1 X40.5791 Y-58.3138 Z0.15 F1200.0 E0.01025
G1 X62.5548 Y-36.7382 Z0.15 F1200.0 E0.56011
G1 X61.9594 Y-36.3395 Z0.15 F1200.0 E0.01303
G1 X40.1464 Y-58.3526 Z0.15 F1200.0 E0.56363
G1 X39.7136 Y-57.9914 Z0.15 F1200.0 E0.01025
G1 X53.087 Y-45.0181 Z0.15 F1200.0 E0.33887
G1 F12000.0
G1 E-2.0
G1 F1200.0
M103
;M108 R50.0
M106 S255
M104 S195.0
G1 X32.4291 Y-55.1613 Z0.45 F3000.0
G1 F12000.0
G1 E2.0
G1 F3000.0
M101
G1 X34.4955 Y-56.4899 Z0.45 F2400.0 E0.05585
G1 X36.8156 Y-57.9316 Z0.45 F2400.0 E0.0621
G1 X39.4108 Y-59.1845 Z0.45 F2400.0 E0.06552
G1 X41.8785 Y-60.1038 Z0.45 F2400.0 E0.05987
G1 X44.6712 Y-60.8605 Z0.45 F2400.0 E0.06578
G1 X47.3649 Y-61.3132 Z0.45 F2400.0 E0.0621
G1 X49.9477 Y-61.4897 Z0.45 F2400.0 E0.05886
G1 X52.7812 Y-61.1906 Z0.45 F2400.0 E0.06477
G1 X55.5606 Y-60.7819 Z0.45 F2400.0 E0.06387
G1 X58.0466 Y-60.1416 Z0.45 F2400.0 E0.05836
G1 X60.6808 Y-59.1424 Z0.45 F2400.0 E0.06405
G1 X61.0823 Y-58.8622 Z0.45 F2400.0 E0.01113
G1 X63.2455 Y-57.6586 Z0.45 F2400.0 E0.05628
G1 X65.1201 Y-56.0529 Z0.45 F2400.0 E0.05611
G1 X66.6688 Y-53.7152 Z0.45 F2400.0 E0.06375
G1 X67.4996 Y-51.187 Z0.45 F2400.0 E0.0605
G1 X67.7834 Y-48.4634 Z0.45 F2400.0 E0.06225
G1 X67.151 Y-45.8411 Z0.45 F2400.0 E0.06132
G1 X66.4892 Y-43.3338 Z0.45 F2400.0 E0.05895
G1 X65.3511 Y-40.5886 Z0.45 F2400.0 E0.06756
G1 X62.8933 Y-35.5727 Z0.45 F2400.0 E0.12699
G1 X62.3156 Y-32.8901 Z0.45 F2400.0 E0.06239
G1 X62.8615 Y-30.4144 Z0.45 F2400.0 E0.05763
G1 X63.7796 Y-26.9281 Z0.45 F2400.0 E0.08196
G1 X64.7095 Y-24.5034 Z0.45 F2400.0 E0.05904
G1 X65.3592 Y-22.1377 Z0.45 F2400.0 E0.05577
G1 X65.487 Y-20.8521 Z0.45 F2400.0 E0.02937
G1 X64.9744 Y-19.5917 Z0.45 F2400.0 E0.03093
G1 X64.5093 Y-18.5046 Z0.45 F2400.0 E0.02688
G1 X64.3915 Y-18.3544 Z0.45 F2400.0 E0.00434
G1 X63.4245 Y-17.6392 Z0.45 F2400.0 E0.02734
G1 X62.0969 Y-17.3368 Z0.45 F2400.0 E0.03096
G1 X60.8379 Y-17.8224 Z0.45 F2400.0 E0.03068
G1 X58.4553 Y-19.4767 Z0.45 F2400.0 E0.06594
G1 X57.3048 Y-19.8383 Z0.45 F2400.0 E0.02742
G1 X56.0015 Y-19.453 Z0.45 F2400.0 E0.0309
G1 X55.7758 Y-19.3621 Z0.45 F2400.0 E0.00553
G1 X54.7654 Y-18.5084 Z0.45 F2400.0 E0.03007
G1 X54.1627 Y-17.1254 Z0.45 F2400.0 E0.0343
G1 X53.5567 Y-14.5148 Z0.45 F2400.0 E0.06093
G1 X53.1472 Y-11.5452 Z0.45 F2400.0 E0.06815
G1 X52.9095 Y-6.1713 Z0.45 F2400.0 E0.12229
G1 X53.3897 Y7.6831 Z0.45 F2400.0 E0.31516
G1 X52.6269 Y13.5933 Z0.45 F2400.0 E0.13548
G1 X53.1954 Y16.1137 Z0.45 F2400.0 E0.05874
G1 X54.0186 Y17.8953 Z0.45 F2400.0 E0.04462
G1 X55.3623 Y19.6443 Z0.45 F2400.0 E0.05014
G1 X55.8105 Y20.8649 Z0.45 F2400.0 E0.02956
G1 X55.0077 Y22.6025 Z0.45 F2400.0 E0.04352
G1 X52.3066 Y28.4057 Z0.45 F2400.0 E0.14552
G1 X51.5507 Y29.686 Z0.45 F2400.0 E0.0338
G1 X50.7852 Y30.3885 Z0.45 F2400.0 E0.02362
G1 X50.4304 Y29.9924 Z0.45 F2400.0 E0.01209
G1 X49.7334 Y29.3 Z0.45 F2400.0 E0.02234
G1 X48.6136 Y28.7211 Z0.45 F2400.0 E0.02866
G1 X47.0917 Y29.0273 Z0.45 F2400.0 E0.03529
G1 X46.2624 Y28.775 Z0.45 F2400.0 E0.01971
G1 X46.0729 Y29.0015 Z0.45 F2400.0 E0.00671
G1 X46.047 Y28.7912 Z0.45 F2400.0 E0.00482
G1 X45.9984 Y28.3832 Z0.45 F2400.0 E0.00934
G1 X46.5651 Y27.6192 Z0.45 F2400.0 E0.02162
G1 X46.636 Y26.0634 Z0.45 F2400.0 E0.03541
G1 X45.5382 Y23.4824 Z0.45 F2400.0 E0.06376
G1 X45.9482 Y21.8637 Z0.45 F2400.0 E0.03796
G1 X45.3731 Y21.224 Z0.45 F2400.0 E0.01955
G1 X44.3396 Y20.3011 Z0.45 F2400.0 E0.0315
G1 X44.2311 Y19.9378 Z0.45 F2400.0 E0.00862
G1 X45.9644 Y15.884 Z0.45 F2400.0 E0.10023
G1 X46.2326 Y14.4174 Z0.45 F2400.0 E0.03389
G1 X42.6929 Y-14.4445 Z0.45 F2400.0 E0.66107
G1 X42.2677 Y-15.7836 Z0.45 F2400.0 E0.03194
G1 X42.1305 Y-15.9393 Z0.45 F2400.0 E0.00472
G1 X41.2864 Y-16.532 Z0.45 F2400.0 E0.02345
G1 X39.5864 Y-16.6319 Z0.45 F2400.0 E0.03871
G1 X38.1821 Y-15.9777 Z0.45 F2400.0 E0.03522
G1 X34.7301 Y-13.6738 Z0.45 F2400.0 E0.09435
G1 X33.4336 Y-13.2785 Z0.45 F2400.0 E0.03081
G1 X32.2774 Y-13.7344 Z0.45 F2400.0 E0.02826
G1 X31.2515 Y-14.5571 Z0.45 F2400.0 E0.0299
G1 X30.6868 Y-15.6517 Z0.45 F2400.0 E0.028
G1 X30.5124 Y-16.9783 Z0.45 F2400.0 E0.03042
G1 X31.2316 Y-19.3678 Z0.45 F2400.0 E0.05673
G1 X32.8528 Y-25.1282 Z0.45 F2400.0 E0.13605
G1 X33.3706 Y-27.6913 Z0.45 F2400.0 E0.05945
G1 X32.9412 Y-29.7218 Z0.45 F2400.0 E0.04718
G1 X32.4858 Y-31.7493 Z0.45 F2400.0 E0.04724
G1 X31.8355 Y-33.1664 Z0.45 F2400.0 E0.03545
G1 X28.6598 Y-37.5138 Z0.45 F2400.0 E0.12239
G1 X27.4222 Y-40.0772 Z0.45 F2400.0 E0.06471
G1 X26.9191 Y-42.669 Z0.45 F2400.0 E0.06002
G1 X27.374 Y-45.4642 Z0.45 F2400.0 E0.06438
G1 X27.969 Y-48.18 Z0.45 F2400.0 E0.06321
G1 X29.039 Y-50.6358 Z0.45 F2400.0 E0.0609
G1 X30.4727 Y-52.7658 Z0.45 F2400.0 E0.05837
G1 X32.4454 Y-54.8554 Z0.45 F2400.0 E0.06533
G1 X32.8291 Y-55.1613 Z0.45 F2400.0 E0.01116
G1 F12000.0
G1 E-2.0
G1 F2400.0
M103
G1 X44.3097 Y-43.3174 Z0.45 F3000.0
G1 F12000.0
G1 E2.0
G1 F3000.0
M101
G1 X42.2783 Y-41.4778 Z0.45 F2400.0 E0.0623
G1 X41.3708 Y-38.6711 Z0.45 F2400.0 E0.06706
G1 X42.069 Y-35.7364 Z0.45 F2400.0 E0.06858
G1 X43.5286 Y-33.1692 Z0.45 F2400.0 E0.06714
G1 X45.9058 Y-31.4027 Z0.45 F2400.0 E0.06733
G1 X48.8092 Y-30.7474 Z0.45 F2400.0 E0.06767
G1 X51.7383 Y-31.5367 Z0.45 F2400.0 E0.06897
G1 X54.1647 Y-33.2929 Z0.45 F2400.0 E0.06809
G1 X55.6656 Y-35.8807 Z0.45 F2400.0 E0.06801
G1 X55.9841 Y-38.8579 Z0.45 F2400.0 E0.06807
G1 X54.6634 Y-41.7054 Z0.45 F2400.0 E0.07136
G1 X52.6655 Y-43.9325 Z0.45 F2400.0 E0.06802
G1 X49.9287 Y-45.1438 Z0.45 F2400.0 E0.06804
G1 X46.9462 Y-44.9165 Z0.45 F2400.0 E0.068
G1 X44.2196 Y-43.6752 Z0.45 F2400.0 E0.06811
G1 X43.9097 Y-43.3174 Z0.45 F2400.0 E0.01076
G1 F12000.0
G1 E-0.0
G1 F2400.0
M103
G1 X43.6518 Y-43.8597 Z0.45 F3000.0
G1 F12000.0
G1 E0.0
G1 F3000.0
M101
G1 X41.9 Y-41.6843 Z0.45 F3000.0 E0.0508
G1 X40.9415 Y-38.7079 Z0.45 F3000.0 E0.05687
G1 X41.6612 Y-35.5969 Z0.45 F3000.0 E0.05807
G1 X43.2118 Y-32.8772 Z0.45 F3000.0 E0.05694
G1 X45.734 Y-31.0073 Z0.45 F3000.0 E0.0571
G1 X48.8131 Y-30.3161 Z0.45 F3000.0 E0.05739
G1 X51.9198 Y-31.145 Z0.45 F3000.0 E0.05848
G1 X54.4904 Y-33.0105 Z0.45 F3000.0 E0.05777
G1 X56.0782 Y-35.7551 Z0.45 F3000.0 E0.05767
G1 X56.412 Y-38.9111 Z0.45 F3000.0 E0.05772
G1 X55.0327 Y-41.928 Z0.45 F3000.0 E0.06033
G1 X52.9117 Y-44.2868 Z0.45 F3000.0 E0.05769
G1 X50.0071 Y-45.5682 Z0.45 F3000.0 E0.05774
G1 X46.8443 Y-45.3355 Z0.45 F3000.0 E0.05768
G1 X43.9724 Y-44.024 Z0.45 F3000.0 E0.05742
G1 X43.6518 Y-43.6597 Z0.45 F3000.0 E0.00883
G1 F12000.0
G1 E-0.0
G1 F3000.0
M103
G1 X43.3965 Y-44.2047 Z0.45 F3000.0
G1 F12000.0
G1 E0.0
G1 F3000.0
M101
G1 X41.5272 Y-41.8969 Z0.45 F3000.0 E0.05401
G1 X40.5146 Y-38.7525 Z0.45 F3000.0 E0.06008
G1 X41.2525 Y-35.4657 Z0.45 F3000.0 E0.06127
G1 X42.8908 Y-32.5922 Z0.45 F3000.0 E0.06016
G1 X45.5555 Y-30.6169 Z0.45 F3000.0 E0.06033
G1 X48.8088 Y-29.8866 Z0.45 F3000.0 E0.06064
G1 X52.0928 Y-30.7515 Z0.45 F3000.0 E0.06176
G1 X54.8095 Y-32.7231 Z0.45 F3000.0 E0.06105
G1 X56.4865 Y-35.6223 Z0.45 F3000.0 E0.06092
G1 X56.839 Y-38.956 Z0.45 F3000.0 E0.06097
G1 X55.4045 Y-42.1427 Z0.45 F3000.0 E0.06356
G1 X53.1635 Y-44.6348 Z0.45 F3000.0 E0.06095
G1 X50.0933 Y-45.9892 Z0.45 F3000.0 E0.06103
G1 X46.7506 Y-45.7544 Z0.45 F3000.0 E0.06094
G1 X43.7171 Y-44.3691 Z0.45 F3000.0 E0.06065
G1 X43.3965 Y-44.0047 Z0.45 F3000.0 E0.00883
G1 F12000.0
G1 E-2.0
G1 F3000.0
M103
G1 X36.556 Y-57.0341 Z0.45 F3000.0
G1 F12000.0
G1 E2.0
G1 F3000.0
M101
G1 X37.221 Y-57.1946 Z0.45 F3000.0 E0.01244
G1 X39.7407 Y-58.411 Z0.45 F3000.0 E0.05089
G1 X42.1355 Y-59.3031 Z0.45 F3000.0 E0.04648
G1 X44.8511 Y-60.039 Z0.45 F3000.0 E0.05117
G1 X47.4633 Y-60.4779 Z0.45 F3000.0 E0.04818
G1 X49.9617 Y-60.6487 Z0.45 F3000.0 E0.04554
G1 X52.7051 Y-60.3527 Z0.45 F3000.0 E0.05019
G1 X55.3943 Y-59.9573 Z0.45 F3000.0 E0.04943
G1 X57.7921 Y-59.3398 Z0.45 F3000.0 E0.04503
G1 X60.3009 Y-58.3882 Z0.45 F3000.0 E0.0488
G1 X62.7608 Y-56.9678 Z0.45 F3000.0 E0.05166
G1 X64.4845 Y-55.4913 Z0.45 F3000.0 E0.04128
G1 X65.906 Y-53.3457 Z0.45 F3000.0 E0.04681
G1 X66.6734 Y-51.0105 Z0.45 F3000.0 E0.04471
G1 X66.9396 Y-48.4569 Z0.45 F3000.0 E0.04669
G1 X66.3206 Y-45.9865 Z0.45 F3000.0 E0.04632
G1 X65.6915 Y-43.6031 Z0.45 F3000.0 E0.04483
G1 X64.5852 Y-40.9346 Z0.45 F3000.0 E0.05254
G1 X62.0937 Y-35.85 Z0.45 F3000.0 E0.10298
G1 X61.4703 Y-32.9548 Z0.45 F3000.0 E0.05386
G1 X62.0279 Y-30.2813 Z0.45 F3000.0 E0.04967
G1 X62.9789 Y-26.67 Z0.45 F3000.0 E0.06792
G1 X63.9104 Y-24.2411 Z0.45 F3000.0 E0.04731
G1 X64.5302 Y-21.9846 Z0.45 F3000.0 E0.04256
G1 X64.645 Y-20.8497 Z0.45 F3000.0 E0.02075
G1 X64.1545 Y-19.8019 Z0.45 F3000.0 E0.02104
G1 X63.807 Y-18.9873 Z0.45 F3000.0 E0.01611
G1 X63.0621 Y-18.4101 Z0.45 F3000.0 E0.01714
G1 X62.0939 Y-18.1895 Z0.45 F3000.0 E0.01806
G1 X61.1814 Y-18.6061 Z0.45 F3000.0 E0.01824
G1 X58.8281 Y-20.2405 Z0.45 F3000.0 E0.05211
G1 X57.3713 Y-20.6916 Z0.45 F3000.0 E0.02773
G1 X55.7824 Y-20.2633 Z0.45 F3000.0 E0.02993
G1 X55.3415 Y-20.0847 Z0.45 F3000.0 E0.00865
G1 X54.0797 Y-19.0252 Z0.45 F3000.0 E0.02996
G1 X53.3621 Y-17.3915 Z0.45 F3000.0 E0.03245
G1 X52.7298 Y-14.6675 Z0.45 F3000.0 E0.05086
G1 X52.3097 Y-11.6213 Z0.45 F3000.0 E0.05593
G1 X52.0694 Y-6.1874 Z0.45 F3000.0 E0.09892
G1 X52.5495 Y7.6598 Z0.45 F3000.0 E0.25199
G1 X51.7852 Y13.5956 Z0.45 F3000.0 E0.10885
G1 X52.3676 Y16.325 Z0.45 F3000.0 E0.05076
G1 X53.2956 Y18.3329 Z0.45 F3000.0 E0.04023
G1 X54.618 Y20.0543 Z0.45 F3000.0 E0.03948
G1 X54.9446 Y20.9192 Z0.45 F3000.0 E0.01681
G1 X54.2092 Y22.3277 Z0.45 F3000.0 E0.0289
G1 X51.563 Y28.0127 Z0.45 F3000.0 E0.11405
G1 X50.8901 Y29.1884 Z0.45 F3000.0 E0.02464
G1 X50.7429 Y29.3414 Z0.45 F3000.0 E0.00386
G1 X50.2194 Y28.6119 Z0.45 F3000.0 E0.01633
G1 X48.7902 Y27.8704 Z0.45 F3000.0 E0.02928
G1 X47.2708 Y28.1904 Z0.45 F3000.0 E0.02824
G1 X46.9937 Y27.5695 Z0.45 F3000.0 E0.01237
G1 X47.4811 Y25.9709 Z0.45 F3000.0 E0.0304
G1 X46.3785 Y23.3718 Z0.45 F3000.0 E0.05135
G1 X46.7858 Y21.7495 Z0.45 F3000.0 E0.03042
G1 X46.1097 Y20.7686 Z0.45 F3000.0 E0.02167
G1 X45.1367 Y19.8916 Z0.45 F3000.0 E0.02382
G1 X46.7804 Y16.0918 Z0.45 F3000.0 E0.0753
G1 X47.0808 Y14.4481 Z0.45 F3000.0 E0.03039
G1 X43.5185 Y-14.6223 Z0.45 F3000.0 E0.53267
G1 X43.0031 Y-16.2152 Z0.45 F3000.0 E0.03045
G1 X42.682 Y-16.5652 Z0.45 F3000.0 E0.00864
G1 X41.5795 Y-17.3496 Z0.45 F3000.0 E0.02461
G1 X39.4805 Y-17.4778 Z0.45 F3000.0 E0.03825
G1 X37.813 Y-16.7412 Z0.45 F3000.0 E0.03315
G1 X34.368 Y-14.442 Z0.45 F3000.0 E0.07533
G1 X33.4005 Y-14.1338 Z0.45 F3000.0 E0.01847
G1 X32.6452 Y-14.5014 Z0.45 F3000.0 E0.01528
G1 X31.9092 Y-15.0966 Z0.45 F3000.0 E0.01721
G1 X31.4946 Y-15.9071 Z0.45 F3000.0 E0.01656
G1 X31.3599 Y-16.9789 Z0.45 F3000.0 E0.01965
G1 X32.0563 Y-19.1975 Z0.45 F3000.0 E0.04229
G1 X33.6699 Y-24.931 Z0.45 F3000.0 E0.10833
G1 X34.2118 Y-27.6134 Z0.45 F3000.0 E0.04977
G1 X33.7798 Y-29.821 Z0.45 F3000.0 E0.04091
G1 X33.2861 Y-32.0192 Z0.45 F3000.0 E0.04098
G1 X32.5636 Y-33.5936 Z0.45 F3000.0 E0.0315
G1 X29.3832 Y-37.9477 Z0.45 F3000.0 E0.09806
G1 X28.2261 Y-40.3441 Z0.45 F3000.0 E0.0484
G1 X27.7607 Y-42.7415 Z0.45 F3000.0 E0.04441
G1 X28.2122 Y-45.365 Z0.45 F3000.0 E0.04842
G1 X28.7719 Y-47.9198 Z0.45 F3000.0 E0.04757
G1 X29.7785 Y-50.2301 Z0.45 F3000.0 E0.04583
G1 X31.1309 Y-52.2394 Z0.45 F3000.0 E0.04405
G1 X33.0147 Y-54.2349 Z0.45 F3000.0 E0.04991
G1 X34.9807 Y-55.8025 Z0.45 F3000.0 E0.04573
G1 X36.5403 Y-56.7716 Z0.45 F3000.0 E0.03339
G1 X36.956 Y-57.0341 Z0.45 F3000.0 E0.00894
G1 F12000.0
G1 E-0.0
G1 F3000.0
M103
G1 X36.3344 Y-57.3907 Z0.45 F3000.0
G1 F12000.0
G1 E0.0
G1 F3000.0
M101
G1 X37.0183 Y-57.5631 Z0.45 F3000.0 E0.01283
G1 X39.5757 Y-58.7978 Z0.45 F3000.0 E0.05165
G1 X42.007 Y-59.7034 Z0.45 F3000.0 E0.04719
G1 X44.7612 Y-60.4498 Z0.45 F3000.0 E0.0519
G1 X47.4141 Y-60.8955 Z0.45 F3000.0 E0.04893
G1 X49.9547 Y-61.0692 Z0.45 F3000.0 E0.04631
G1 X52.7431 Y-60.7716 Z0.45 F3000.0 E0.051
G1 X55.4774 Y-60.3696 Z0.45 F3000.0 E0.05026
G1 X57.9193 Y-59.7407 Z0.45 F3000.0 E0.04586
G1 X60.4815 Y-58.7688 Z0.45 F3000.0 E0.04984
G1 X63.0045 Y-57.3121 Z0.45 F3000.0 E0.05299
G1 X64.8023 Y-55.7721 Z0.45 F3000.0 E0.04305
G1 X66.2874 Y-53.5304 Z0.45 F3000.0 E0.04891
G1 X67.0865 Y-51.0987 Z0.45 F3000.0 E0.04655
G1 X67.3615 Y-48.4601 Z0.45 F3000.0 E0.04825
G1 X66.7358 Y-45.9138 Z0.45 F3000.0 E0.04769
G1 X66.0904 Y-43.4684 Z0.45 F3000.0 E0.046
G1 X64.9681 Y-40.7616 Z0.45 F3000.0 E0.05329
G1 X62.4935 Y-35.7114 Z0.45 F3000.0 E0.10228
G1 X61.8929 Y-32.9224 Z0.45 F3000.0 E0.05189
G1 X62.4447 Y-30.3478 Z0.45 F3000.0 E0.04789
G1 X63.3792 Y-26.799 Z0.45 F3000.0 E0.06674
G1 X64.3099 Y-24.3723 Z0.45 F3000.0 E0.04727
G1 X64.9447 Y-22.0612 Z0.45 F3000.0 E0.04359
G1 X65.0659 Y-20.8509 Z0.45 F3000.0 E0.02212
G1 X64.5641 Y-19.697 Z0.45 F3000.0 E0.02289
G1 X64.1453 Y-18.7255 Z0.45 F3000.0 E0.01924
G1 X63.2449 Y-18.0259 Z0.45 F3000.0 E0.02074
G1 X62.0953 Y-17.7636 Z0.45 F3000.0 E0.02145
G1 X61.0097 Y-18.2142 Z0.45 F3000.0 E0.02138
G1 X58.6417 Y-19.8586 Z0.45 F3000.0 E0.05243
G1 X57.338 Y-20.2647 Z0.45 F3000.0 E0.02483
G1 X55.892 Y-19.8579 Z0.45 F3000.0 E0.02732
G1 X55.5588 Y-19.7232 Z0.45 F3000.0 E0.00654
G1 X54.4228 Y-18.7666 Z0.45 F3000.0 E0.02701
G1 X53.7624 Y-17.2585 Z0.45 F3000.0 E0.02994
G1 X53.1433 Y-14.5912 Z0.45 F3000.0 E0.0498
G1 X52.7284 Y-11.5833 Z0.45 F3000.0 E0.05522
G1 X52.4895 Y-6.1794 Z0.45 F3000.0 E0.09838
G1 X52.9696 Y7.6714 Z0.45 F3000.0 E0.25206
G1 X52.206 Y13.5945 Z0.45 F3000.0 E0.10862
G1 X52.7815 Y16.2192 Z0.45 F3000.0 E0.04887
G1 X53.6571 Y18.1141 Z0.45 F3000.0 E0.03796
G1 X54.9901 Y19.8493 Z0.45 F3000.0 E0.0398
G1 X55.3771 Y20.8922 Z0.45 F3000.0 E0.02023
G1 X54.6084 Y22.4651 Z0.45 F3000.0 E0.03184
G1 X51.9348 Y28.2092 Z0.45 F3000.0 E0.11523
G1 X51.2225 Y29.4287 Z0.45 F3000.0 E0.02568
G1 X50.7392 Y29.8964 Z0.45 F3000.0 E0.01223
G1 X49.9757 Y28.9548 Z0.45 F3000.0 E0.02205
G1 X48.7026 Y28.2969 Z0.45 F3000.0 E0.02606
G1 X47.0831 Y28.6109 Z0.45 F3000.0 E0.03
G1 X46.4874 Y28.3902 Z0.45 F3000.0 E0.01155
G1 X46.4261 Y28.301 Z0.45 F3000.0 E0.00197
G1 X46.9796 Y27.6737 Z0.45 F3000.0 E0.01521
G1 X47.0585 Y26.0171 Z0.45 F3000.0 E0.03016
G1 X45.9584 Y23.4271 Z0.45 F3000.0 E0.05118
G1 X46.3662 Y21.8081 Z0.45 F3000.0 E0.03036
G1 X45.74 Y20.9965 Z0.45 F3000.0 E0.01865
G1 X44.6967 Y20.0643 Z0.45 F3000.0 E0.02544
G1 X44.6717 Y19.9423 Z0.45 F3000.0 E0.00226
G1 X46.3724 Y15.9879 Z0.45 F3000.0 E0.07829
G1 X46.6567 Y14.4328 Z0.45 F3000.0 E0.02875
G1 X43.1057 Y-14.5334 Z0.45 F3000.0 E0.53076
G1 X42.6353 Y-15.9994 Z0.45 F3000.0 E0.028
G1 X42.406 Y-16.2519 Z0.45 F3000.0 E0.0062
G1 X41.4329 Y-16.9398 Z0.45 F3000.0 E0.02167
G1 X39.5334 Y-17.0544 Z0.45 F3000.0 E0.03461
G1 X37.9975 Y-16.3595 Z0.45 F3000.0 E0.03066
G1 X34.5491 Y-14.0579 Z0.45 F3000.0 E0.0754
G1 X33.4174 Y-13.7073 Z0.45 F3000.0 E0.02155
G1 X32.4612 Y-14.1193 Z0.45 F3000.0 E0.01894
G1 X31.5806 Y-14.8271 Z0.45 F3000.0 E0.02055
G1 X31.0909 Y-15.7795 Z0.45 F3000.0 E0.01948
G1 X30.9361 Y-16.9786 Z0.45 F3000.0 E0.02199
G1 X31.6439 Y-19.2826 Z0.45 F3000.0 E0.04384
G1 X33.2614 Y-25.0296 Z0.45 F3000.0 E0.10858
G1 X33.7912 Y-27.6524 Z0.45 F3000.0 E0.04866
G1 X33.3605 Y-29.7714 Z0.45 F3000.0 E0.03933
G1 X32.8859 Y-31.8843 Z0.45 F3000.0 E0.03938
G1 X32.1995 Y-33.38 Z0.45 F3000.0 E0.02993
G1 X29.0215 Y-37.7307 Z0.45 F3000.0 E0.09799
G1 X27.8242 Y-40.2107 Z0.45 F3000.0 E0.05009
G1 X27.3399 Y-42.7052 Z0.45 F3000.0 E0.04622
G1 X27.7931 Y-45.4146 Z0.45 F3000.0 E0.04996
G1 X28.3705 Y-48.0499 Z0.45 F3000.0 E0.04906
G1 X29.4088 Y-50.4329 Z0.45 F3000.0 E0.04728
G1 X30.8018 Y-52.5026 Z0.45 F3000.0 E0.04537
G1 X32.7297 Y-54.5448 Z0.45 F3000.0 E0.05108
G1 X34.7381 Y-56.1462 Z0.45 F3000.0 E0.04672
G1 X36.3186 Y-57.1283 Z0.45 F3000.0 E0.03384
G1 X36.7344 Y-57.3907 Z0.45 F3000.0 E0.00894
G1 F12000.0
G1 E-2.0
G1 F3000.0
M103
G1 X29.2939 Y-48.9949 Z0.45 F3000.0
G1 F12000.0
G1 E2.0
G1 F3000.0
M101
G1 X37.4133 Y-56.9143 Z0.45 F3000.0 E0.20628
G1 F12000.0
G1 E-0.0
G1 F3000.0
M103
G1 X38.5617 Y-57.4687 Z0.45 F3000.0
G1 F12000.0
G1 E0.0
G1 F3000.0
M101
G1 X28.8351 Y-47.9422 Z0.45 F3000.0 E0.24761
G1 F12000.0
G1 E-2.0
G1 F3000.0
M103
G1 X35.8555 Y-55.9505 Z0.45 F3000.0
G1 F12000.0
G1 E2.0
G1 F3000.0
M101
G1 X29.8827 Y-50.1777 Z0.45 F3000.0 E0.15107
G1 F12000.0
G1 E-0.47995
G1 F3000.0
M103
G1 X32.3087 Y-52.9977 Z0.45 F3000.0
G1 F12000.0
G1 E0.47995
G1 F3000.0
M101
G1 X33.5159 Y-54.2048 Z0.45 F3000.0 E0.03105
G1 F12000.0
G1 E-2.0
G1 F3000.0
M103
G1 X40.6853 Y-58.4043 Z0.45 F3000.0
G1 F12000.0
G1 E2.0
G1 F3000.0
M101
G1 X28.4114 Y-46.3305 Z0.45 F3000.0 E0.31313
G1 X28.9781 Y-47.2912 Z0.45 F3000.0 E0.02029
G1 X39.7101 Y-58.0232 Z0.45 F3000.0 E0.27603
G1 F12000.0
G1 E-0.00413
G1 F3000.0
M103
G1 X42.531 Y-59.0622 Z0.45 F3000.0
G1 F12000.0
G1 E0.00413
G1 F3000.0
M101
G1 X28.1426 Y-44.8737 Z0.45 F3000.0 E0.36752
G1 X28.6447 Y-45.7698 Z0.45 F3000.0 E0.01868
G1 X41.6318 Y-58.7569 Z0.45 F3000.0 E0.33404
G1 F12000.0
G1 E-2.0
G1 F3000.0
M103
G1 X58.8711 Y-58.7711 Z0.45 F3000.0
G1 F12000.0
G1 E2.0
G1 F3000.0
M101
G1 X45.4151 Y-45.5151 Z0.45 F3000.0 E0.34354
G1 X44.3205 Y-45.0145 Z0.45 F3000.0 E0.02189
G1 X58.4405 Y-58.9345 Z0.45 F3000.0 E0.36061
G1 X57.6099 Y-59.0978 Z0.45 F3000.0 E0.0154
G1 X32.6108 Y-33.8988 Z0.45 F3000.0 E0.64557
G1 X32.3601 Y-34.442 Z0.45 F3000.0 E0.01088
G1 X57.5685 Y-59.2504 Z0.45 F3000.0 E0.64325
G1 X56.6962 Y-59.372 Z0.45 F3000.0 E0.01602
G1 X32.1094 Y-34.5853 Z0.45 F3000.0 E0.63497
G1 X31.8586 Y-35.1285 Z0.45 F3000.0 E0.01088
G1 X56.6238 Y-59.4937 Z0.45 F3000.0 E0.63186
G1 X55.7515 Y-59.6153 Z0.45 F3000.0 E0.01602
G1 X31.6079 Y-35.2717 Z0.45 F3000.0 E0.62357
G1 X31.3572 Y-35.815 Z0.45 F3000.0 E0.01088
G1 X55.6792 Y-59.737 Z0.45 F3000.0 E0.62046
G1 X54.7952 Y-59.847 Z0.45 F3000.0 E0.0162
G1 X31.1064 Y-35.9582 Z0.45 F3000.0 E0.61187
G1 X30.8557 Y-36.5014 Z0.45 F3000.0 E0.01088
G1 X54.6774 Y-59.9231 Z0.45 F3000.0 E0.60759
G1 X53.7596 Y-59.9993 Z0.45 F3000.0 E0.01675
G1 X30.605 Y-36.6447 Z0.45 F3000.0 E0.59813
G1 X30.3542 Y-37.1879 Z0.45 F3000.0 E0.01088
G1 X53.6417 Y-60.0754 Z0.45 F3000.0 E0.59385
G1 X52.7239 Y-60.1515 Z0.45 F3000.0 E0.01675
G1 X30.1035 Y-37.3311 Z0.45 F3000.0 E0.58439
G1 X29.8528 Y-37.8744 Z0.45 F3000.0 E0.01088
G1 X52.5986 Y-60.2202 Z0.45 F3000.0 E0.57992
G1 X51.6247 Y-60.2403 Z0.45 F3000.0 E0.01772
G1 X29.618 Y-38.0336 Z0.45 F3000.0 E0.56861
G1 X29.4246 Y-38.6342 Z0.45 F3000.0 E0.01148
G1 X51.4509 Y-60.2604 Z0.45 F3000.0 E0.56141
G1 X50.477 Y-60.2805 Z0.45 F3000.0 E0.01772
G1 X29.2313 Y-38.8348 Z0.45 F3000.0 E0.54903
G1 X29.0379 Y-39.4354 Z0.45 F3000.0 E0.01148
G1 X50.3031 Y-60.3006 Z0.45 F3000.0 E0.54184
G1 X49.3028 Y-60.0942 Z0.45 F3000.0 E0.01858
G1 X28.8445 Y-39.636 Z0.45 F3000.0 E0.5262
G1 X28.6511 Y-40.2366 Z0.45 F3000.0 E0.01148
G1 X49.0652 Y-60.2507 Z0.45 F3000.0 E0.51995
G1 X48.0277 Y-60.0071 Z0.45 F3000.0 E0.01938
G1 X28.5024 Y-40.4818 Z0.45 F3000.0 E0.5022
G1 X28.4059 Y-41.1793 Z0.45 F3000.0 E0.01281
G1 X47.7901 Y-60.1635 Z0.45 F3000.0 E0.49346
G1 X46.7106 Y-59.8779 Z0.45 F3000.0 E0.02031
G1 X28.3095 Y-41.4768 Z0.45 F3000.0 E0.47329
G1 X28.213 Y-42.1743 Z0.45 F3000.0 E0.01281
G1 X46.3967 Y-59.958 Z0.45 F3000.0 E0.46258
G1 X45.2828 Y-59.638 Z0.45 F3000.0 E0.02108
G1 X28.1165 Y-42.4718 Z0.45 F3000.0 E0.44153
G1 X28.1067 Y-43.2559 Z0.45 F3000.0 E0.01426
G1 X44.9689 Y-59.7181 Z0.45 F3000.0 E0.42859
G1 X43.7605 Y-59.3038 Z0.45 F3000.0 E0.02323
G1 X28.1186 Y-43.6619 Z0.45 F3000.0 E0.40232
G1 X28.5306 Y-44.4678 Z0.45 F3000.0 E0.01646
G1 X43.3458 Y-59.283 Z0.45 F3000.0 E0.38106
G1 F12000.0
G1 E-2.0
G1 F3000.0
M103
G1 X56.5589 Y-34.876 Z0.45 F3000.0
G1 F12000.0
G1 E2.0
G1 F3000.0
M101
G1 X65.9083 Y-44.4254 Z0.45 F3000.0 E0.24306
G1 X66.1213 Y-45.2324 Z0.45 F3000.0 E0.01518
G1 X56.4632 Y-35.7742 Z0.45 F3000.0 E0.24586
G1 X56.933 Y-36.638 Z0.45 F3000.0 E0.01788
G1 X66.3344 Y-46.0394 Z0.45 F3000.0 E0.24181
G1 X66.4315 Y-46.7305 Z0.45 F3000.0 E0.01269
G1 X56.6028 Y-37.1018 Z0.45 F3000.0 E0.25024
G1 X57.0727 Y-37.9656 Z0.45 F3000.0 E0.01788
G1 X66.4893 Y-47.3823 Z0.45 F3000.0 E0.2422
G1 X66.5472 Y-48.0341 Z0.45 F3000.0 E0.0119
G1 X56.7425 Y-38.4295 Z0.45 F3000.0 E0.24962
G1 X56.7159 Y-39.1968 Z0.45 F3000.0 E0.01396
G1 X66.5993 Y-48.6802 Z0.45 F3000.0 E0.24912
G1 X66.1433 Y-49.2182 Z0.45 F3000.0 E0.01283
G1 X56.5701 Y-39.445 Z0.45 F3000.0 E0.24881
G1 X56.4243 Y-40.0932 Z0.45 F3000.0 E0.01208
G1 X66.4873 Y-49.7561 Z0.45 F3000.0 E0.25373
G1 X66.0313 Y-50.2941 Z0.45 F3000.0 E0.01283
G1 X56.2786 Y-40.3414 Z0.45 F3000.0 E0.25343
G1 X56.1328 Y-40.9896 Z0.45 F3000.0 E0.01208
G1 X66.3753 Y-50.8321 Z0.45 F3000.0 E0.25835
G1 X65.8802 Y-51.331 Z0.45 F3000.0 E0.01278
G1 X55.9871 Y-41.2378 Z0.45 F3000.0 E0.25704
G1 X55.8413 Y-41.886 Z0.45 F3000.0 E0.01208
G1 X66.1333 Y-51.7781 Z0.45 F3000.0 E0.25963
G1 X65.5865 Y-52.2252 Z0.45 F3000.0 E0.01285
G1 X55.6908 Y-42.1295 Z0.45 F3000.0 E0.25711
G1 X55.4094 Y-42.6421 Z0.45 F3000.0 E0.01063
G1 X65.8397 Y-52.6723 Z0.45 F3000.0 E0.26318
G1 X65.2928 Y-53.1195 Z0.45 F3000.0 E0.01285
G1 X55.128 Y-42.7547 Z0.45 F3000.0 E0.26403
G1 X54.8466 Y-43.2672 Z0.45 F3000.0 E0.01063
G1 X65.5118 Y-53.5324 Z0.45 F3000.0 E0.26922
G1 X64.8752 Y-53.8897 Z0.45 F3000.0 E0.01328
G1 X54.5652 Y-43.3798 Z0.45 F3000.0 E0.26776
G1 X54.2839 Y-43.8924 Z0.45 F3000.0 E0.01063
G1 X65.0385 Y-54.2471 Z0.45 F3000.0 E0.27152
G1 X64.4019 Y-54.6044 Z0.45 F3000.0 E0.01328
G1 X54.0025 Y-44.005 Z0.45 F3000.0 E0.27006
G1 X53.7211 Y-44.5176 Z0.45 F3000.0 E0.01063
G1 X64.5653 Y-54.9618 Z0.45 F3000.0 E0.27382
G1 X63.9286 Y-55.3191 Z0.45 F3000.0 E0.01328
G1 X53.4397 Y-44.6302 Z0.45 F3000.0 E0.27237
G1 X53.0635 Y-45.048 Z0.45 F3000.0 E0.01022
G1 X64.0428 Y-55.6272 Z0.45 F3000.0 E0.2773
G1 X63.3229 Y-55.9013 Z0.45 F3000.0 E0.01401
G1 X52.6512 Y-45.0296 Z0.45 F3000.0 E0.27707
G1 X52.2388 Y-45.4112 Z0.45 F3000.0 E0.01022
G1 X63.403 Y-56.1754 Z0.45 F3000.0 E0.28205
G1 X62.6831 Y-56.4495 Z0.45 F3000.0 E0.01401
G1 X51.8265 Y-45.3929 Z0.45 F3000.0 E0.28182
G1 X51.4142 Y-45.7745 Z0.45 F3000.0 E0.01022
G1 X62.7632 Y-56.7235 Z0.45 F3000.0 E0.28681
G1 X62.0215 Y-56.9758 Z0.45 F3000.0 E0.01425
G1 X51.0018 Y-45.7561 Z0.45 F3000.0 E0.28602
G1 X50.5895 Y-46.1377 Z0.45 F3000.0 E0.01022
G1 X62.045 Y-57.1932 Z0.45 F3000.0 E0.28954
G1 X61.2684 Y-57.4106 Z0.45 F3000.0 E0.01467
G1 X50.1772 Y-46.1194 Z0.45 F3000.0 E0.28786
G1 X49.5853 Y-46.3215 Z0.45 F3000.0 E0.01137
G1 X61.2919 Y-57.6281 Z0.45 F3000.0 E0.296
G1 X60.5153 Y-57.8455 Z0.45 F3000.0 E0.01467
G1 X48.9848 Y-46.1149 Z0.45 F3000.0 E0.29916
G1 X48.3842 Y-46.1083 Z0.45 F3000.0 E0.01092
G1 X60.5388 Y-58.0629 Z0.45 F3000.0 E0.31006
G1 X59.7623 Y-58.2803 Z0.45 F3000.0 E0.01467
G1 X47.7837 Y-46.1018 Z0.45 F3000.0 E0.31068
G1 X47.1831 Y-46.0952 Z0.45 F3000.0 E0.01092
G1 X59.7324 Y-58.4445 Z0.45 F3000.0 E0.32021
G1 X58.9018 Y-58.6078 Z0.45 F3000.0 E0.0154
G1 X46.5096 Y-46.0156 Z0.45 F3000.0 E0.32132
G1 F12000.0
G1 E-2.0
G1 F3000.0
M103
G1 X41.1581 Y-41.852 Z0.45 F3000.0
G1 F12000.0
G1 E2.0
G1 F3000.0
M101
G1 X32.8597 Y-33.5537 Z0.45 F3000.0 E0.21344
G1 X33.4466 Y-33.1466 Z0.45 F3000.0 E0.01299
G1 X41.2767 Y-41.1767 Z0.45 F3000.0 E0.20398
G1 F12000.0
G1 E-0.0
G1 F3000.0
M103
G1 X40.5953 Y-40.1013 Z0.45 F3000.0
G1 F12000.0
G1 E0.0
G1 F3000.0
M101
G1 X33.2335 Y-32.7395 Z0.45 F3000.0 E0.18935
G1 X33.8203 Y-32.3324 Z0.45 F3000.0 E0.01299
G1 X40.7139 Y-39.426 Z0.45 F3000.0 E0.1799
G1 X40.1994 Y-38.5175 Z0.45 F3000.0 E0.01899
G1 X33.6067 Y-31.9248 Z0.45 F3000.0 E0.16957
G1 X34.1157 Y-31.4398 Z0.45 F3000.0 E0.01279
G1 X40.655 Y-38.1792 Z0.45 F3000.0 E0.17079
G1 X40.7107 Y-37.4408 Z0.45 F3000.0 E0.01347
G1 X33.8247 Y-30.9548 Z0.45 F3000.0 E0.17204
G1 X34.3337 Y-30.4699 Z0.45 F3000.0 E0.01279
G1 X40.7663 Y-37.1025 Z0.45 F3000.0 E0.16804
G1 X40.8219 Y-36.3641 Z0.45 F3000.0 E0.01347
G1 X34.0427 Y-29.9849 Z0.45 F3000.0 E0.1693
G1 X34.5181 Y-29.4663 Z0.45 F3000.0 E0.01279
G1 X40.8775 Y-36.0258 Z0.45 F3000.0 E0.16616
G1 X40.9537 Y-35.308 Z0.45 F3000.0 E0.01313
G1 X34.1266 Y-28.8809 Z0.45 F3000.0 E0.17053
G1 X34.5352 Y-28.2955 Z0.45 F3000.0 E0.01298
G1 X41.1695 Y-35.1298 Z0.45 F3000.0 E0.17323
G1 X41.3854 Y-34.5517 Z0.45 F3000.0 E0.01122
G1 X34.1437 Y-27.7101 Z0.45 F3000.0 E0.18119
G1 X34.0821 Y-27.0544 Z0.45 F3000.0 E0.01198
G1 X41.6012 Y-34.3736 Z0.45 F3000.0 E0.19084
G1 X41.8171 Y-33.7955 Z0.45 F3000.0 E0.01122
G1 X33.9317 Y-26.3101 Z0.45 F3000.0 E0.19774
G1 X33.7814 Y-25.5658 Z0.45 F3000.0 E0.01381
G1 X42.0329 Y-33.6173 Z0.45 F3000.0 E0.20968
G1 X42.2488 Y-33.0392 Z0.45 F3000.0 E0.01122
G1 X33.631 Y-24.8214 Z0.45 F3000.0 E0.21657
G1 X33.417 Y-24.0135 Z0.45 F3000.0 E0.0152
G1 X42.4646 Y-32.8611 Z0.45 F3000.0 E0.23015
G1 X42.7062 Y-32.3087 Z0.45 F3000.0 E0.01097
G1 X33.1844 Y-23.1869 Z0.45 F3000.0 E0.23982
G1 X32.9517 Y-22.3603 Z0.45 F3000.0 E0.01562
G1 X43.0475 Y-32.256 Z0.45 F3000.0 E0.25711
G1 X43.3887 Y-31.8033 Z0.45 F3000.0 E0.01031
G1 X32.7191 Y-21.5336 Z0.45 F3000.0 E0.26934
G1 X32.4864 Y-20.707 Z0.45 F3000.0 E0.01562
G1 X43.73 Y-31.7506 Z0.45 F3000.0 E0.28663
G1 X44.0712 Y-31.2979 Z0.45 F3000.0 E0.01031
G1 X32.2538 Y-19.8804 Z0.45 F3000.0 E0.29885
G1 X32.0211 Y-19.0538 Z0.45 F3000.0 E0.01562
G1 X44.4125 Y-31.2452 Z0.45 F3000.0 E0.31615
G1 X44.7538 Y-30.7925 Z0.45 F3000.0 E0.01031
G1 X31.9083 Y-18.347 Z0.45 F3000.0 E0.32529
G1 X31.8166 Y-17.6614 Z0.45 F3000.0 E0.01258
G1 X45.095 Y-30.7398 Z0.45 F3000.0 E0.33897
G1 X45.4448 Y-30.2956 Z0.45 F3000.0 E0.01028
G1 X31.725 Y-16.9758 Z0.45 F3000.0 E0.34778
G1 X32.1497 Y-16.4064 Z0.45 F3000.0 E0.01292
G1 X45.9301 Y-30.3869 Z0.45 F3000.0 E0.35702
G1 X46.4154 Y-30.0782 Z0.45 F3000.0 E0.01046
G1 X31.8204 Y-15.8832 Z0.45 F3000.0 E0.37029
G1 X32.4053 Y-15.4742 Z0.45 F3000.0 E0.01298
G1 X46.9007 Y-30.1696 Z0.45 F3000.0 E0.37541
G1 X47.386 Y-29.8609 Z0.45 F3000.0 E0.01046
G1 X32.2212 Y-15.0961 Z0.45 F3000.0 E0.38494
G1 X32.951 Y-14.8319 Z0.45 F3000.0 E0.01412
G1 X47.8713 Y-29.9522 Z0.45 F3000.0 E0.38634
G1 X48.3566 Y-29.6436 Z0.45 F3000.0 E0.01046
G1 X32.9186 Y-14.6055 Z0.45 F3000.0 E0.39197
G1 X33.8164 Y-14.5094 Z0.45 F3000.0 E0.01642
G1 X48.8593 Y-29.7522 Z0.45 F3000.0 E0.38949
G1 X49.6045 Y-29.9035 Z0.45 F3000.0 E0.01383
G1 X34.3048 Y-14.8038 Z0.45 F3000.0 E0.39096
G1 F12000.0
G1 E-0.0
G1 F3000.0
M103
G1 X36.4914 Y-16.1965 Z0.45 F3000.0
G1 F12000.0
G1 E0.0
G1 F3000.0
M101
G1 X50.3498 Y-30.0548 Z0.45 F3000.0 E0.35645
G1 X51.095 Y-30.2061 Z0.45 F3000.0 E0.01383
G1 X37.7688 Y-17.0799 Z0.45 F3000.0 E0.3402
G1 F12000.0
G1 E-0.0
G1 F3000.0
M103
G1 X39.0454 Y-17.5624 Z0.45 F3000.0
G1 F12000.0
G1 E0.0
G1 F3000.0
M101
G1 X51.8403 Y-30.3574 Z0.45 F3000.0 E0.32909
G1 X53.2557 Y-31.1788 Z0.45 F3000.0 E0.02976
G1 X39.4907 Y-17.6138 Z0.45 F3000.0 E0.35148
G1 X40.451 Y-17.5801 Z0.45 F3000.0 E0.01748
G1 X65.1994 Y-42.5286 Z0.45 F3000.0 E0.63912
G1 X65.6201 Y-43.5432 Z0.45 F3000.0 E0.01998
G1 X55.3462 Y-33.4693 Z0.45 F3000.0 E0.26169
G1 F12000.0
G1 E-2.0
G1 F3000.0
M103
G1 X62.1126 Y-35.878 Z0.45 F3000.0
G1 F12000.0
G1 E2.0
G1 F3000.0
M101
G1 X42.7518 Y-16.7171 Z0.45 F3000.0 E0.49541
G1 X43.462 Y-16.4334 Z0.45 F3000.0 E0.01391
G1 X61.9498 Y-35.1211 Z0.45 F3000.0 E0.4781
G1 X61.3869 Y-34.1643 Z0.45 F3000.0 E0.02019
G1 X43.3221 Y-16.0995 Z0.45 F3000.0 E0.46464
G1 X43.8688 Y-15.6522 Z0.45 F3000.0 E0.01285
G1 X61.624 Y-33.6074 Z0.45 F3000.0 E0.45926
G1 X61.1461 Y-32.7356 Z0.45 F3000.0 E0.01808
G1 X43.6155 Y-15.205 Z0.45 F3000.0 E0.4509
G1 X44.1622 Y-14.7577 Z0.45 F3000.0 E0.01285
G1 X61.5793 Y-32.3748 Z0.45 F3000.0 E0.45056
G1 X61.6125 Y-31.614 Z0.45 F3000.0 E0.01385
G1 X43.8726 Y-14.2741 Z0.45 F3000.0 E0.45117
G1 X44.3309 Y-13.7384 Z0.45 F3000.0 E0.01282
G1 X61.6456 Y-31.2532 Z0.45 F3000.0 E0.44793
G1 X61.6788 Y-30.4924 Z0.45 F3000.0 E0.01385
G1 X43.9892 Y-13.2027 Z0.45 F3000.0 E0.44987
G1 X44.4475 Y-12.6671 Z0.45 F3000.0 E0.01282
G1 X61.7597 Y-30.1793 Z0.45 F3000.0 E0.44786
G1 X61.8836 Y-29.5092 Z0.45 F3000.0 E0.01239
G1 X44.1057 Y-12.1314 Z0.45 F3000.0 E0.45214
G1 X44.564 Y-11.5957 Z0.45 F3000.0 E0.01282
G1 X62.0074 Y-29.2391 Z0.45 F3000.0 E0.45124
G1 X62.1312 Y-28.5689 Z0.45 F3000.0 E0.01239
G1 X44.2223 Y-11.06 Z0.45 F3000.0 E0.45552
G1 X44.6806 Y-10.5243 Z0.45 F3000.0 E0.01282
G1 X62.2551 Y-28.2988 Z0.45 F3000.0 E0.45461
G1 X62.3789 Y-27.6287 Z0.45 F3000.0 E0.01239
G1 X44.3389 Y-9.9886 Z0.45 F3000.0 E0.45889
G1 X44.7971 Y-9.4529 Z0.45 F3000.0 E0.01282
G1 X53.9117 Y-18.7675 Z0.45 F3000.0 E0.23702
G1 F12000.0
G1 E-0.0
G1 F3000.0
M103
G1 X53.0465 Y-17.5083 Z0.45 F3000.0
G1 F12000.0
G1 E0.0
G1 F3000.0
M101
G1 X44.4554 Y-8.9172 Z0.45 F3000.0 E0.22097
G1 X44.9137 Y-8.3816 Z0.45 F3000.0 E0.01282
G1 X53.264 Y-16.9318 Z0.45 F3000.0 E0.21736
G1 X52.6845 Y-15.9583 Z0.45 F3000.0 E0.0206
G1 X44.572 Y-7.8459 Z0.45 F3000.0 E0.20866
G1 X45.0303 Y-7.3102 Z0.45 F3000.0 E0.01282
G1 X52.905 Y-15.3849 Z0.45 F3000.0 E0.20513
G1 X52.3601 Y-14.446 Z0.45 F3000.0 E0.01974
G1 X44.6885 Y-6.7745 Z0.45 F3000.0 E0.19732
G1 X45.1468 Y-6.2388 Z0.45 F3000.0 E0.01282
G1 X52.6651 Y-13.957 Z0.45 F3000.0 E0.19596
G1 X52.1701 Y-13.068 Z0.45 F3000.0 E0.01851
G1 X44.8051 Y-5.7031 Z0.45 F3000.0 E0.18943
G1 X45.2634 Y-5.1674 Z0.45 F3000.0 E0.01282
G1 X52.475 Y-12.5791 Z0.45 F3000.0 E0.18808
G1 X51.98 Y-11.6901 Z0.45 F3000.0 E0.01851
G1 X44.9217 Y-4.6317 Z0.45 F3000.0 E0.18155
G1 X45.38 Y-4.096 Z0.45 F3000.0 E0.01282
G1 X52.3488 Y-11.2648 Z0.45 F3000.0 E0.18183
G1 X51.9213 Y-10.4434 Z0.45 F3000.0 E0.01684
G1 X45.0382 Y-3.5604 Z0.45 F3000.0 E0.17704
G1 X45.4965 Y-3.0247 Z0.45 F3000.0 E0.01282
G1 X52.2938 Y-10.022 Z0.45 F3000.0 E0.17742
G1 X51.8663 Y-9.2005 Z0.45 F3000.0 E0.01684
G1 X45.1548 Y-2.489 Z0.45 F3000.0 E0.17263
G1 X45.6131 Y-1.9533 Z0.45 F3000.0 E0.01282
G1 X52.2388 Y-8.779 Z0.45 F3000.0 E0.17301
G1 X51.8114 Y-7.9576 Z0.45 F3000.0 E0.01684
G1 X45.2713 Y-1.4176 Z0.45 F3000.0 E0.16821
G1 X45.7296 Y-0.8819 Z0.45 F3000.0 E0.01282
G1 X52.1839 Y-7.5362 Z0.45 F3000.0 E0.1686
G1 X51.7564 Y-6.7147 Z0.45 F3000.0 E0.01684
G1 X45.3879 Y-0.3462 Z0.45 F3000.0 E0.1638
G1 X45.8462 Y0.1895 Z0.45 F3000.0 E0.01282
G1 X52.1339 Y-6.2983 Z0.45 F3000.0 E0.16432
G1 X52.1373 Y-5.5077 Z0.45 F3000.0 E0.01438
G1 X45.5045 Y0.7252 Z0.45 F3000.0 E0.16554
G1 X45.9628 Y1.2609 Z0.45 F3000.0 E0.01282
G1 X52.1408 Y-5.1171 Z0.45 F3000.0 E0.1615
G1 X52.1442 Y-4.3266 Z0.45 F3000.0 E0.01438
G1 X45.621 Y1.7965 Z0.45 F3000.0 E0.16272
G1 X46.0793 Y2.3322 Z0.45 F3000.0 E0.01282
G1 X52.1476 Y-3.936 Z0.45 F3000.0 E0.15867
G1 X52.151 Y-3.1455 Z0.45 F3000.0 E0.01438
G1 X45.7376 Y2.8679 Z0.45 F3000.0 E0.1599
G1 X46.1959 Y3.4036 Z0.45 F3000.0 E0.01282
G1 X52.1544 Y-2.7549 Z0.45 F3000.0 E0.15585
G1 X52.1578 Y-1.9644 Z0.45 F3000.0 E0.01438
G1 X45.8542 Y3.9393 Z0.45 F3000.0 E0.15708
G1 X46.3124 Y4.475 Z0.45 F3000.0 E0.01282
G1 X52.1613 Y-1.5738 Z0.45 F3000.0 E0.15303
G1 X52.1647 Y-0.7833 Z0.45 F3000.0 E0.01438
G1 X45.9707 Y5.0107 Z0.45 F3000.0 E0.15425
G1 X46.429 Y5.5464 Z0.45 F3000.0 E0.01282
G1 X52.1681 Y-0.3927 Z0.45 F3000.0 E0.15021
G1 X52.1715 Y0.3978 Z0.45 F3000.0 E0.01438
G1 X46.0873 Y6.082 Z0.45 F3000.0 E0.15143
G1 X46.5456 Y6.6177 Z0.45 F3000.0 E0.01282
G1 X52.1749 Y0.7884 Z0.45 F3000.0 E0.14739
G1 X52.1783 Y1.5789 Z0.45 F3000.0 E0.01438
G1 X46.2038 Y7.1534 Z0.45 F3000.0 E0.14861
G1 X46.6621 Y7.6891 Z0.45 F3000.0 E0.01282
G1 X52.1818 Y1.9695 Z0.45 F3000.0 E0.14456
G1 X52.1852 Y2.7601 Z0.45 F3000.0 E0.01438
G1 X46.3204 Y8.2248 Z0.45 F3000.0 E0.14579
G1 X46.7787 Y8.7605 Z0.45 F3000.0 E0.01282
G1 X52.1886 Y3.1506 Z0.45 F3000.0 E0.14174
G1 X52.192 Y3.9411 Z0.45 F3000.0 E0.01438
G1 X46.437 Y9.2962 Z0.45 F3000.0 E0.14297
G1 X46.8952 Y9.8319 Z0.45 F3000.0 E0.01282
G1 X52.1954 Y4.3317 Z0.45 F3000.0 E0.13892
G1 X52.1988 Y5.1223 Z0.45 F3000.0 E0.01438
G1 X46.5535 Y10.3676 Z0.45 F3000.0 E0.14015
G1 X47.0118 Y10.9032 Z0.45 F3000.0 E0.01282
G1 X52.2022 Y5.5128 Z0.45 F3000.0 E0.1361
G1 X52.2057 Y6.3034 Z0.45 F3000.0 E0.01438
G1 X46.6701 Y11.4389 Z0.45 F3000.0 E0.13733
G1 X47.1284 Y11.9746 Z0.45 F3000.0 E0.01282
G1 X52.2091 Y6.6939 Z0.45 F3000.0 E0.13328
G1 X52.2125 Y7.4845 Z0.45 F3000.0 E0.01438
G1 X46.7867 Y12.5103 Z0.45 F3000.0 E0.13451
G1 X47.2449 Y13.046 Z0.45 F3000.0 E0.01282
G1 X52.1855 Y7.9054 Z0.45 F3000.0 E0.12967
G1 X51.7467 Y8.7382 Z0.45 F3000.0 E0.01712
G1 X46.9032 Y13.5817 Z0.45 F3000.0 E0.12458
G1 X47.3615 Y14.1174 Z0.45 F3000.0 E0.01282
G1 X52.1078 Y9.171 Z0.45 F3000.0 E0.12468
G1 X51.669 Y10.0038 Z0.45 F3000.0 E0.01712
G1 X47.0198 Y14.6531 Z0.45 F3000.0 E0.11958
G1 X46.8889 Y15.3779 Z0.45 F3000.0 E0.0134
G1 X52.0302 Y10.4367 Z0.45 F3000.0 E0.12969
G1 X51.5913 Y11.2695 Z0.45 F3000.0 E0.01712
G1 X46.7562 Y16.1046 Z0.45 F3000.0 E0.12436
G1 X46.5239 Y16.9309 Z0.45 F3000.0 E0.01561
G1 X51.9525 Y11.7023 Z0.45 F3000.0 E0.13708
G1 X51.5136 Y12.5351 Z0.45 F3000.0 E0.01712
G1 X46.2328 Y17.816 Z0.45 F3000.0 E0.13583
G1 X45.9416 Y18.7011 Z0.45 F3000.0 E0.01695
G1 X51.8748 Y12.9679 Z0.45 F3000.0 E0.15006
G1 X51.4604 Y13.7762 Z0.45 F3000.0 E0.01652
G1 X45.6505 Y19.5862 Z0.45 F3000.0 E0.14944
G1 X46.0957 Y20.1349 Z0.45 F3000.0 E0.01285
G1 X51.8977 Y14.133 Z0.45 F3000.0 E0.15182
G1 X51.9349 Y14.8897 Z0.45 F3000.0 E0.01378
G1 X46.0024 Y20.4222 Z0.45 F3000.0 E0.14753
G1 X46.7091 Y20.7095 Z0.45 F3000.0 E0.01387
G1 X51.9721 Y15.2465 Z0.45 F3000.0 E0.13796
G1 X52.0093 Y16.0032 Z0.45 F3000.0 E0.01378
G1 X46.4915 Y21.121 Z0.45 F3000.0 E0.13688
G1 X47.0252 Y21.5813 Z0.45 F3000.0 E0.01282
G1 X52.0864 Y16.3202 Z0.45 F3000.0 E0.13277
G1 X52.2743 Y16.9262 Z0.45 F3000.0 E0.01154
G1 X46.7182 Y22.0823 Z0.45 F3000.0 E0.13786
G1 X46.7167 Y22.6778 Z0.45 F3000.0 E0.01083
G1 X52.4622 Y17.1322 Z0.45 F3000.0 E0.14523
G1 X52.6501 Y17.7383 Z0.45 F3000.0 E0.01154
G1 X46.7151 Y23.2733 Z0.45 F3000.0 E0.1476
G1 X47.187 Y23.7953 Z0.45 F3000.0 E0.0128
G1 X52.8381 Y17.9443 Z0.45 F3000.0 E0.14794
G1 X53.0331 Y18.5433 Z0.45 F3000.0 E0.01146
G1 X46.9135 Y24.2628 Z0.45 F3000.0 E0.15234
G1 X47.44 Y24.7303 Z0.45 F3000.0 E0.01281
G1 X53.2912 Y18.6791 Z0.45 F3000.0 E0.15309
G1 X53.5493 Y19.215 Z0.45 F3000.0 E0.01082
G1 X47.1665 Y25.1978 Z0.45 F3000.0 E0.15911
G1 X47.693 Y25.6653 Z0.45 F3000.0 E0.01281
G1 X53.8074 Y19.3509 Z0.45 F3000.0 E0.15986
G1 X54.0655 Y19.8868 Z0.45 F3000.0 E0.01082
G1 X47.419 Y26.1333 Z0.45 F3000.0 E0.16589
G1 X47.3901 Y26.7561 Z0.45 F3000.0 E0.01134
G1 X54.3218 Y20.0244 Z0.45 F3000.0 E0.17573
G1 X54.48 Y20.6602 Z0.45 F3000.0 E0.01191
G1 X47.3613 Y27.3789 Z0.45 F3000.0 E0.17803
G1 X47.9154 Y27.8187 Z0.45 F3000.0 E0.01287
G1 X54.5219 Y21.0123 Z0.45 F3000.0 E0.17251
G1 X53.9434 Y21.9847 Z0.45 F3000.0 E0.02058
G1 X48.1503 Y27.7778 Z0.45 F3000.0 E0.149
G1 X49.1852 Y27.5369 Z0.45 F3000.0 E0.01933
G1 X53.9289 Y22.7932 Z0.45 F3000.0 E0.12201
G1 F12000.0
G1 E-0.0
G1 F3000.0
M103
G1 X53.0117 Y24.1044 Z0.45 F3000.0
G1 F12000.0
G1 E0.0
G1 F3000.0
M101
G1 X49.2051 Y27.9109 Z0.45 F3000.0 E0.09791
G1 X49.9969 Y28.1132 Z0.45 F3000.0 E0.01486
G1 X52.8944 Y25.0156 Z0.45 F3000.0 E0.07714
G1 F12000.0
G1 E-0.0
G1 F3000.0
M103
G1 X51.9771 Y26.3269 Z0.45 F3000.0
G1 F12000.0
G1 E0.0
G1 F3000.0
M101
G1 X49.9886 Y28.3154 Z0.45 F3000.0 E0.05115
G1 X50.7803 Y28.5176 Z0.45 F3000.0 E0.01486
G1 X51.8599 Y27.2381 Z0.45 F3000.0 E0.03045
G1 F12000.0
G1 E-2.0
G1 F3000.0
M103
G1 X41.7157 Y-17.6629 Z0.45 F3000.0
G1 F12000.0
G1 E2.0
G1 F3000.0
M101
G1 X63.673 Y-39.2202 Z0.45 F3000.0 E0.55964
G1 X64.2437 Y-40.3849 Z0.45 F3000.0 E0.02359
G1 X41.1715 Y-17.5127 Z0.45 F3000.0 E0.59087
G1 X40.6112 Y-17.7464 Z0.45 F3000.0 E0.01104
G1 X64.7787 Y-41.5139 Z0.45 F3000.0 E0.61648
G1 F12000.0
G1 E-0.80434
G1 F3000.0
M103
G1 X62.7023 Y-37.8556 Z0.45 F3000.0
G1 F12000.0
G1 E0.80434
G1 F3000.0
M101
G1 X42.0611 Y-17.2143 Z0.45 F3000.0 E0.53091
G1 X42.8064 Y-16.9657 Z0.45 F3000.0 E0.01429
G1 X62.5316 Y-36.8909 Z0.45 F3000.0 E0.50992
G1 F12000.0
G1 E-2.0
G1 F3000.0
M103
G1 X62.1028 Y-27.1585 Z0.45 F3000.0
G1 F12000.0
G1 E2.0
G1 F3000.0
M101
G1 X55.413 Y-20.4687 Z0.45 F3000.0 E0.17207
G1 X56.5955 Y-20.8573 Z0.45 F3000.0 E0.02264
G1 X62.6266 Y-26.8884 Z0.45 F3000.0 E0.15512
G1 X62.7807 Y-26.2485 Z0.45 F3000.0 E0.01197
G1 X56.8911 Y-20.7589 Z0.45 F3000.0 E0.14643
G1 X57.9203 Y-20.9941 Z0.45 F3000.0 E0.0192
G1 X62.9453 Y-26.0192 Z0.45 F3000.0 E0.12925
G1 X63.11 Y-25.3899 Z0.45 F3000.0 E0.01183
G1 X57.9746 Y-20.6545 Z0.45 F3000.0 E0.12705
G1 X58.8289 Y-20.5149 Z0.45 F3000.0 E0.01574
G1 X63.2746 Y-25.1606 Z0.45 F3000.0 E0.11695
G1 X63.4393 Y-24.5312 Z0.45 F3000.0 E0.01183
G1 X58.8833 Y-20.3753 Z0.45 F3000.0 E0.11216
G1 X59.655 Y-20.153 Z0.45 F3000.0 E0.01461
G1 X63.601 Y-24.299 Z0.45 F3000.0 E0.1041
G1 X63.729 Y-23.633 Z0.45 F3000.0 E0.01233
G1 X59.6055 Y-19.9096 Z0.45 F3000.0 E0.10105
G1 X60.356 Y-19.6661 Z0.45 F3000.0 E0.01435
G1 X63.857 Y-23.367 Z0.45 F3000.0 E0.09265
G1 X63.985 Y-22.701 Z0.45 F3000.0 E0.01233
G1 X60.3065 Y-19.4226 Z0.45 F3000.0 E0.08962
G1 X61.057 Y-19.1791 Z0.45 F3000.0 E0.01435
G1 X64.1129 Y-22.4351 Z0.45 F3000.0 E0.08121
G1 X64.2159 Y-21.7441 Z0.45 F3000.0 E0.01271
G1 X61.0075 Y-18.9357 Z0.45 F3000.0 E0.07755
G1 X61.7744 Y-18.7086 Z0.45 F3000.0 E0.01455
G1 X64.2684 Y-21.4026 Z0.45 F3000.0 E0.06677
G1 X64.2819 Y-20.6222 Z0.45 F3000.0 E0.0142
G1 X61.8603 Y-18.6005 Z0.45 F3000.0 E0.05737
G1 X62.8937 Y-18.8399 Z0.45 F3000.0 E0.01929
G1 X64.222 Y-20.1682 Z0.45 F3000.0 E0.03416
G1 F12000.0
G1 E-2.0
G1 F3000.0
M103
M106 S255
G1 X34.4901 Y-56.7351 Z0.75 F3000.0
G1 F12000.0
G1 E2.0
G1 F3000.0
M101
G1 X36.8156 Y-57.9316 Z0.75 F2400.0 E0.05945
G1 X39.4108 Y-59.1845 Z0.75 F2400.0 E0.06552
G1 X41.8785 Y-60.1038 Z0.75 F2400.0 E0.05987
G1 X44.6712 Y-60.8605 Z0.75 F2400.0 E0.06578
G1 X47.3649 Y-61.3132 Z0.75 F2400.0 E0.0621
G1 X49.9477 Y-61.4897 Z0.75 F2400.0 E0.05886
G1 X52.7812 Y-61.1906 Z0.75 F2400.0 E0.06477
G1 X55.5606 Y-60.7819 Z0.75 F2400.0 E0.06387
G1 X58.0466 Y-60.1416 Z0.75 F2400.0 E0.05836
G1 X60.6809 Y-59.1424 Z0.75 F2400.0 E0.06405
G1 X61.3593 Y-58.6691 Z0.75 F2400.0 E0.01881
G1 X63.3752 Y-57.5475 Z0.75 F2400.0 E0.05245
G1 X65.1201 Y-56.0529 Z0.75 F2400.0 E0.05223
G1 X66.6688 Y-53.7152 Z0.75 F2400.0 E0.06375
G1 X67.4996 Y-51.187 Z0.75 F2400.0 E0.0605
G1 X67.7834 Y-48.4634 Z0.75 F2400.0 E0.06225
G1 X67.151 Y-45.8411 Z0.75 F2400.0 E0.06132
G1 X66.4892 Y-43.3338 Z0.75 F2400.0 E0.05895
G1 X65.3511 Y-40.5886 Z0.75 F2400.0 E0.06756
G1 X62.8933 Y-35.5727 Z0.75 F2400.0 E0.12699
G1 X62.3156 Y-32.8901 Z0.75 F2400.0 E0.06239
G1 X62.8517 Y-30.579 Z0.75 F2400.0 E0.05393
G1 X63.887 Y-26.6019 Z0.75 F2400.0 E0.09343
G1 X64.754 Y-24.3412 Z0.75 F2400.0 E0.05505
G1 X65.3592 Y-22.1377 Z0.75 F2400.0 E0.05195
G1 X65.4859 Y-20.859 Z0.75 F2400.0 E0.02921
G1 X64.9746 Y-19.5903 Z0.75 F2400.0 E0.0311
G1 X64.5516 Y-18.5761 Z0.75 F2400.0 E0.02498
G1 X64.3317 Y-18.2951 Z0.75 F2400.0 E0.00811
G1 X63.4258 Y-17.639 Z0.75 F2400.0 E0.02543
G1 X62.0969 Y-17.3368 Z0.75 F2400.0 E0.03098
G1 X60.8388 Y-17.8222 Z0.75 F2400.0 E0.03066
G1 X58.5611 Y-19.4282 Z0.75 F2400.0 E0.06336
G1 X57.3061 Y-19.8378 Z0.75 F2400.0 E0.03001
G1 X56.0415 Y-19.4634 Z0.75 F2400.0 E0.02998
G1 X55.694 Y-19.3245 Z0.75 F2400.0 E0.00851
G1 X54.7642 Y-18.5067 Z0.75 F2400.0 E0.02815
G1 X54.1627 Y-17.1254 Z0.75 F2400.0 E0.03425
G1 X53.5975 Y-14.6903 Z0.75 F2400.0 E0.05683
G1 X53.1472 Y-11.5459 Z0.75 F2400.0 E0.07222
G1 X52.9115 Y-6.2575 Z0.75 F2400.0 E0.12035
G1 X53.3905 Y7.6415 Z0.75 F2400.0 E0.31617
G1 X52.6381 Y13.7612 Z0.75 F2400.0 E0.14017
G1 X53.1953 Y16.1133 Z0.75 F2400.0 E0.05495
G1 X53.9682 Y17.8256 Z0.75 F2400.0 E0.04271
G1 X55.3623 Y19.6442 Z0.75 F2400.0 E0.05209
G1 X55.8243 Y20.8734 Z0.75 F2400.0 E0.02985
G1 X55.4152 Y21.0086 Z0.75 F2400.0 E0.00979
G1 X55.0439 Y22.5245 Z0.75 F2400.0 E0.03548
G1 X52.3068 Y28.4053 Z0.75 F2400.0 E0.14747
G1 X51.5145 Y29.7368 Z0.75 F2400.0 E0.03522
G1 X50.7846 Y30.3907 Z0.75 F2400.0 E0.02228
G1 X50.4656 Y30.015 Z0.75 F2400.0 E0.01121
G1 X49.6636 Y29.241 Z0.75 F2400.0 E0.02534
G1 X48.6117 Y28.7213 Z0.75 F2400.0 E0.02667
G1 X47.0434 Y29.0323 Z0.75 F2400.0 E0.03635
G1 X46.5405 Y28.8035 Z0.75 F2400.0 E0.01256
G1 X46.1765 Y29.0495 Z0.75 F2400.0 E0.00999
G1 X46.0532 Y28.8266 Z0.75 F2400.0 E0.00579
G1 X46.0002 Y28.3821 Z0.75 F2400.0 E0.01018
G1 X46.5651 Y27.6192 Z0.75 F2400.0 E0.02158
G1 X46.636 Y26.0628 Z0.75 F2400.0 E0.03542
G1 X45.5457 Y23.57 Z0.75 F2400.0 E0.06186
G1 X45.5392 Y21.8216 Z0.75 F2400.0 E0.03975
G1 X45.3723 Y21.2245 Z0.75 F2400.0 E0.0141
G1 X44.3255 Y20.2777 Z0.75 F2400.0 E0.03209
G1 X44.2305 Y19.9396 Z0.75 F2400.0 E0.00799
G1 X45.9645 Y15.8839 Z0.75 F2400.0 E0.10028
G1 X46.2327 Y14.4091 Z0.75 F2400.0 E0.03408
G1 X42.6929 Y-14.4445 Z0.75 F2400.0 E0.66088
G1 X42.2674 Y-15.7828 Z0.75 F2400.0 E0.03193
G1 X42.064 Y-16.0128 Z0.75 F2400.0 E0.00698
G1 X41.3628 Y-16.504 Z0.75 F2400.0 E0.01946
G1 X39.5878 Y-16.6319 Z0.75 F2400.0 E0.04046
G1 X38.182 Y-15.9777 Z0.75 F2400.0 E0.03525
G1 X34.748 Y-13.6841 Z0.75 F2400.0 E0.09388
G1 X33.5275 Y-13.2786 Z0.75 F2400.0 E0.02924
G1 X33.4371 Y-13.2671 Z0.75 F2400.0 E0.00207
G1 X32.2775 Y-13.7343 Z0.75 F2400.0 E0.02842
G1 X31.2515 Y-14.5571 Z0.75 F2400.0 E0.0299
G1 X30.6868 Y-15.6517 Z0.75 F2400.0 E0.028
G1 X30.5124 Y-16.9783 Z0.75 F2400.0 E0.03042
G1 X31.2096 Y-19.2036 Z0.75 F2400.0 E0.05302
G1 X32.8876 Y-25.3006 Z0.75 F2400.0 E0.14376
G1 X33.3708 Y-27.6924 Z0.75 F2400.0 E0.05547
G1 X32.9331 Y-29.4856 Z0.75 F2400.0 E0.04196
G1 X33.3575 Y-29.6121 Z0.75 F2400.0 E0.01007
G1 X32.5123 Y-31.6707 Z0.75 F2400.0 E0.05059
G1 X31.8132 Y-33.2038 Z0.75 F2400.0 E0.03831
G1 X28.6598 Y-37.5138 Z0.75 F2400.0 E0.12141
G1 X27.4222 Y-40.0772 Z0.75 F2400.0 E0.06471
G1 X26.9191 Y-42.669 Z0.75 F2400.0 E0.06002
G1 X27.374 Y-45.4642 Z0.75 F2400.0 E0.06438
G1 X27.969 Y-48.18 Z0.75 F2400.0 E0.06321
G1 X29.039 Y-50.6358 Z0.75 F2400.0 E0.0609
G1 X30.4727 Y-52.7658 Z0.75 F2400.0 E0.05837
G1 X32.4446 Y-54.8547 Z0.75 F2400.0 E0.06531
G1 X34.4961 Y-56.4904 Z0.75 F2400.0 E0.05965
G1 X34.8901 Y-56.7351 Z0.75 F2400.0 E0.01055
G1 F12000.0
G1 E-2.0
G1 F2400.0
M103
G1 X42.7707 Y-41.1807 Z0.75 F3000.0
G1 F12000.0
G1 E2.0
G1 F3000.0
M101
G1 X41.5573 Y-38.6511 Z0.75 F2400.0 E0.06378
G1 X42.2478 Y-35.7965 Z0.75 F2400.0 E0.06677
G1 X43.6668 Y-33.2986 Z0.75 F2400.0 E0.06531
G1 X45.9798 Y-31.5801 Z0.75 F2400.0 E0.06551
G1 X48.8039 Y-30.9424 Z0.75 F2400.0 E0.06582
G1 X51.6545 Y-31.711 Z0.75 F2400.0 E0.06712
G1 X54.0355 Y-33.4021 Z0.75 F2400.0 E0.06639
G1 X55.5188 Y-35.9261 Z0.75 F2400.0 E0.06656
G1 X55.8334 Y-38.8428 Z0.75 F2400.0 E0.06669
G1 X54.5235 Y-41.6285 Z0.75 F2400.0 E0.06998
G1 X52.555 Y-43.7902 Z0.75 F2400.0 E0.06647
G1 X49.8815 Y-44.9532 Z0.75 F2400.0 E0.06628
G1 X46.9815 Y-44.7264 Z0.75 F2400.0 E0.06613
G1 X44.3518 Y-43.5291 Z0.75 F2400.0 E0.06569
G1 X42.4232 Y-41.3617 Z0.75 F2400.0 E0.06596
G1 X42.3707 Y-41.1807 Z0.75 F2400.0 E0.00429
G1 F12000.0
G1 E-0.0
G1 F2400.0
M103
G1 X42.0503 Y-41.7563 Z0.75 F3000.0
G1 F12000.0
G1 E0.0
G1 F3000.0
M101
G1 X41.1279 Y-38.6878 Z0.75 F3000.0 E0.05827
G1 X41.84 Y-35.6571 Z0.75 F3000.0 E0.05662
G1 X43.3498 Y-33.0066 Z0.75 F3000.0 E0.05548
G1 X45.808 Y-31.1847 Z0.75 F3000.0 E0.05565
G1 X48.8074 Y-30.5112 Z0.75 F3000.0 E0.05591
G1 X51.8335 Y-31.3186 Z0.75 F3000.0 E0.05696
G1 X54.3594 Y-33.1172 Z0.75 F3000.0 E0.0564
G1 X55.9312 Y-35.7993 Z0.75 F3000.0 E0.05654
G1 X56.2615 Y-38.8966 Z0.75 F3000.0 E0.05665
G1 X54.8917 Y-41.8533 Z0.75 F3000.0 E0.05927
G1 X52.7986 Y-44.1461 Z0.75 F3000.0 E0.05646
G1 X49.9586 Y-45.3775 Z0.75 F3000.0 E0.0563
G1 X46.8794 Y-45.1453 Z0.75 F3000.0 E0.05616
G1 X44.0889 Y-43.8707 Z0.75 F3000.0 E0.0558
G1 X42.0563 Y-41.581 Z0.75 F3000.0 E0.05568
G1 X42.0503 Y-41.5563 Z0.75 F3000.0 E0.00046
G1 F12000.0
G1 E-0.0
G1 F3000.0
M103
G1 X41.7789 Y-42.1012 Z0.75 F3000.0
G1 F12000.0
G1 E0.0
G1 F3000.0
M101
G1 X41.6879 Y-41.8014 Z0.75 F3000.0 E0.0057
G1 X40.7011 Y-38.7324 Z0.75 F3000.0 E0.05863
G1 X41.4313 Y-35.5258 Z0.75 F3000.0 E0.05981
G1 X43.0288 Y-32.7216 Z0.75 F3000.0 E0.0587
G1 X45.6295 Y-30.7943 Z0.75 F3000.0 E0.05887
G1 X48.8027 Y-30.0818 Z0.75 F3000.0 E0.05915
G1 X52.0043 Y-30.9245 Z0.75 F3000.0 E0.06021
G1 X54.6765 Y-32.8274 Z0.75 F3000.0 E0.05966
G1 X56.3393 Y-35.6651 Z0.75 F3000.0 E0.05982
G1 X56.6887 Y-38.9421 Z0.75 F3000.0 E0.05994
G1 X55.2625 Y-42.0701 Z0.75 F3000.0 E0.06252
G1 X53.048 Y-44.4958 Z0.75 F3000.0 E0.05974
G1 X50.0434 Y-45.7984 Z0.75 F3000.0 E0.05956
G1 X46.7857 Y-45.5643 Z0.75 F3000.0 E0.0594
G1 X43.8335 Y-44.2157 Z0.75 F3000.0 E0.05903
G1 X41.7789 Y-41.9012 Z0.75 F3000.0 E0.05629
G1 F12000.0
G1 E-2.0
G1 F3000.0
M103
G1 X38.8878 Y-58.1924 Z0.75 F3000.0
G1 F12000.0
G1 E2.0
G1 F3000.0
M101
G1 X39.7407 Y-58.4111 Z0.75 F3000.0 E0.01601
G1 X42.1355 Y-59.3031 Z0.75 F3000.0 E0.04648
G1 X44.8511 Y-60.039 Z0.75 F3000.0 E0.05117
G1 X47.4633 Y-60.4779 Z0.75 F3000.0 E0.04818
G1 X49.9617 Y-60.6487 Z0.75 F3000.0 E0.04554
G1 X52.7051 Y-60.3527 Z0.75 F3000.0 E0.05019
G1 X55.3943 Y-59.9573 Z0.75 F3000.0 E0.04943
G1 X57.7921 Y-59.3398 Z0.75 F3000.0 E0.04503
G1 X60.2859 Y-58.3939 Z0.75 F3000.0 E0.04851
G1 X60.9138 Y-57.9557 Z0.75 F3000.0 E0.01393
G1 X62.8929 Y-56.8546 Z0.75 F3000.0 E0.04119
G1 X64.4845 Y-55.4913 Z0.75 F3000.0 E0.03811
G1 X65.906 Y-53.3457 Z0.75 F3000.0 E0.04681
G1 X66.6734 Y-51.0105 Z0.75 F3000.0 E0.04471
G1 X66.9396 Y-48.4569 Z0.75 F3000.0 E0.04669
G1 X66.3206 Y-45.9865 Z0.75 F3000.0 E0.04632
G1 X65.6915 Y-43.6031 Z0.75 F3000.0 E0.04483
G1 X64.5852 Y-40.9346 Z0.75 F3000.0 E0.05254
G1 X62.0937 Y-35.85 Z0.75 F3000.0 E0.10298
G1 X61.4703 Y-32.9548 Z0.75 F3000.0 E0.05386
G1 X62.0181 Y-30.4472 Z0.75 F3000.0 E0.04668
G1 X63.0859 Y-26.3449 Z0.75 F3000.0 E0.0771
G1 X63.9549 Y-24.0789 Z0.75 F3000.0 E0.04414
G1 X64.5301 Y-21.9848 Z0.75 F3000.0 E0.0395
G1 X64.6439 Y-20.8562 Z0.75 F3000.0 E0.02063
G1 X64.1537 Y-19.7966 Z0.75 F3000.0 E0.02123
G1 X63.828 Y-19.0026 Z0.75 F3000.0 E0.01561
G1 X63.7473 Y-18.8978 Z0.75 F3000.0 E0.0024
G1 X63.0719 Y-18.4119 Z0.75 F3000.0 E0.01513
G1 X62.0939 Y-18.1895 Z0.75 F3000.0 E0.01824
G1 X61.1854 Y-18.6051 Z0.75 F3000.0 E0.01817
G1 X58.9411 Y-20.1882 Z0.75 F3000.0 E0.04995
G1 X57.3795 Y-20.6914 Z0.75 F3000.0 E0.02984
G1 X55.8241 Y-20.2744 Z0.75 F3000.0 E0.02929
G1 X55.2521 Y-20.0439 Z0.75 F3000.0 E0.01121
G1 X54.075 Y-19.0157 Z0.75 F3000.0 E0.02843
G1 X53.3621 Y-17.3915 Z0.75 F3000.0 E0.03226
G1 X52.7711 Y-14.8451 Z0.75 F3000.0 E0.04754
G1 X52.3099 Y-11.6243 Z0.75 F3000.0 E0.05918
G1 X52.0714 Y-6.2738 Z0.75 F3000.0 E0.09741
G1 X52.5503 Y7.6198 Z0.75 F3000.0 E0.25284
G1 X51.7965 Y13.7651 Z0.75 F3000.0 E0.11261
G1 X52.3673 Y16.3203 Z0.75 F3000.0 E0.04762
G1 X53.2427 Y18.2599 Z0.75 F3000.0 E0.0387
G1 X54.6177 Y20.0536 Z0.75 F3000.0 E0.04111
G1 X54.9617 Y20.9622 Z0.75 F3000.0 E0.01767
G1 X54.2464 Y22.2474 Z0.75 F3000.0 E0.02675
G1 X51.5637 Y28.0113 Z0.75 F3000.0 E0.11563
G1 X50.9515 Y29.0905 Z0.75 F3000.0 E0.02257
G1 X50.4726 Y29.0961 Z0.75 F3000.0 E0.00871
G1 X50.1388 Y28.5474 Z0.75 F3000.0 E0.01168
G1 X48.7794 Y27.8702 Z0.75 F3000.0 E0.02762
G1 X47.2331 Y28.1948 Z0.75 F3000.0 E0.02874
G1 X46.9938 Y27.5816 Z0.75 F3000.0 E0.01197
G1 X47.4813 Y25.9677 Z0.75 F3000.0 E0.03066
G1 X46.385 Y23.4533 Z0.75 F3000.0 E0.04989
G1 X46.3766 Y21.7009 Z0.75 F3000.0 E0.03187
G1 X46.1073 Y20.7682 Z0.75 F3000.0 E0.01766
G1 X45.1386 Y19.8858 Z0.75 F3000.0 E0.02383
G1 X46.7805 Y16.0914 Z0.75 F3000.0 E0.07519
G1 X47.0808 Y14.4393 Z0.75 F3000.0 E0.03054
G1 X43.5185 Y-14.6223 Z0.75 F3000.0 E0.53251
G1 X43.003 Y-16.2145 Z0.75 F3000.0 E0.03044
G1 X42.6163 Y-16.6377 Z0.75 F3000.0 E0.01043
G1 X41.6616 Y-17.3191 Z0.75 F3000.0 E0.02133
G1 X39.4875 Y-17.48 Z0.75 F3000.0 E0.03965
G1 X37.8128 Y-16.7411 Z0.75 F3000.0 E0.03329
G1 X34.3787 Y-14.4476 Z0.75 F3000.0 E0.07511
G1 X33.4331 Y-14.1244 Z0.75 F3000.0 E0.01818
G1 X32.6461 Y-14.5021 Z0.75 F3000.0 E0.01588
G1 X31.9092 Y-15.0967 Z0.75 F3000.0 E0.01722
G1 X31.4946 Y-15.9071 Z0.75 F3000.0 E0.01656
G1 X31.3599 Y-16.9789 Z0.75 F3000.0 E0.01965
G1 X32.0346 Y-19.0358 Z0.75 F3000.0 E0.03937
G1 X33.7052 Y-25.1058 Z0.75 F3000.0 E0.1145
G1 X34.2126 Y-27.6175 Z0.75 F3000.0 E0.0466
G1 X33.7745 Y-29.4136 Z0.75 F3000.0 E0.03362
G1 X34.2151 Y-29.6206 Z0.75 F3000.0 E0.00885
G1 X33.3143 Y-31.9366 Z0.75 F3000.0 E0.04519
G1 X32.5418 Y-33.6306 Z0.75 F3000.0 E0.03386
G1 X29.383 Y-37.948 Z0.75 F3000.0 E0.09729
G1 X28.2261 Y-40.3441 Z0.75 F3000.0 E0.04839
G1 X27.7607 Y-42.7415 Z0.75 F3000.0 E0.04441
G1 X28.2122 Y-45.365 Z0.75 F3000.0 E0.04842
G1 X28.7719 Y-47.9198 Z0.75 F3000.0 E0.04757
G1 X29.7785 Y-50.2301 Z0.75 F3000.0 E0.04583
G1 X31.1309 Y-52.2394 Z0.75 F3000.0 E0.04405
G1 X33.0147 Y-54.2349 Z0.75 F3000.0 E0.04991
G1 X34.9807 Y-55.8025 Z0.75 F3000.0 E0.04573
G1 X36.5481 Y-56.7764 Z0.75 F3000.0 E0.03356
G1 X37.221 Y-57.1945 Z0.75 F3000.0 E0.01441
G1 X39.2878 Y-58.1924 Z0.75 F3000.0 E0.04174
G1 F12000.0
G1 E-0.0
G1 F3000.0
M103
G1 X38.6649 Y-58.5512 Z0.75 F3000.0
G1 F12000.0
G1 E0.0
G1 F3000.0
M101
G1 X39.5757 Y-58.7978 Z0.75 F3000.0 E0.01716
G1 X42.007 Y-59.7034 Z0.75 F3000.0 E0.04719
G1 X44.7612 Y-60.4498 Z0.75 F3000.0 E0.0519
G1 X47.4141 Y-60.8955 Z0.75 F3000.0 E0.04893
G1 X49.9547 Y-61.0692 Z0.75 F3000.0 E0.04631
G1 X52.7431 Y-60.7716 Z0.75 F3000.0 E0.051
G1 X55.4774 Y-60.3696 Z0.75 F3000.0 E0.05026
G1 X57.9193 Y-59.7407 Z0.75 F3000.0 E0.04586
G1 X60.4834 Y-58.7681 Z0.75 F3000.0 E0.04988
G1 X61.1366 Y-58.3124 Z0.75 F3000.0 E0.01449
G1 X63.1341 Y-57.201 Z0.75 F3000.0 E0.04157
G1 X64.8023 Y-55.7721 Z0.75 F3000.0 E0.03995
G1 X66.2874 Y-53.5304 Z0.75 F3000.0 E0.04891
G1 X67.0865 Y-51.0987 Z0.75 F3000.0 E0.04655
G1 X67.3615 Y-48.4601 Z0.75 F3000.0 E0.04825
G1 X66.7358 Y-45.9138 Z0.75 F3000.0 E0.04769
G1 X66.0904 Y-43.4684 Z0.75 F3000.0 E0.046
G1 X64.9681 Y-40.7616 Z0.75 F3000.0 E0.05329
G1 X62.4935 Y-35.7114 Z0.75 F3000.0 E0.10228
G1 X61.8929 Y-32.9224 Z0.75 F3000.0 E0.05189
G1 X62.4349 Y-30.5131 Z0.75 F3000.0 E0.04491
G1 X63.4865 Y-26.4734 Z0.75 F3000.0 E0.07592
G1 X64.3545 Y-24.2101 Z0.75 F3000.0 E0.04409
G1 X64.9447 Y-22.0613 Z0.75 F3000.0 E0.04053
G1 X65.0649 Y-20.8576 Z0.75 F3000.0 E0.022
G1 X64.564 Y-19.6935 Z0.75 F3000.0 E0.02305
G1 X64.1897 Y-18.7894 Z0.75 F3000.0 E0.0178
G1 X64.0393 Y-18.5968 Z0.75 F3000.0 E0.00444
G1 X63.2486 Y-18.0258 Z0.75 F3000.0 E0.01774
G1 X62.0953 Y-17.7636 Z0.75 F3000.0 E0.02151
G1 X61.0121 Y-18.2137 Z0.75 F3000.0 E0.02133
G1 X58.7511 Y-19.8082 Z0.75 F3000.0 E0.05032
G1 X57.3427 Y-20.2643 Z0.75 F3000.0 E0.02692
G1 X55.9328 Y-19.8686 Z0.75 F3000.0 E0.02663
G1 X55.4732 Y-19.6841 Z0.75 F3000.0 E0.00901
G1 X54.4198 Y-18.761 Z0.75 F3000.0 E0.02547
G1 X53.7624 Y-17.2585 Z0.75 F3000.0 E0.02983
G1 X53.1843 Y-14.7677 Z0.75 F3000.0 E0.0465
G1 X52.7285 Y-11.5851 Z0.75 F3000.0 E0.05847
G1 X52.4915 Y-6.2656 Z0.75 F3000.0 E0.09684
G1 X52.9704 Y7.6307 Z0.75 F3000.0 E0.25289
G1 X52.2173 Y13.7632 Z0.75 F3000.0 E0.11237
G1 X52.7813 Y16.2165 Z0.75 F3000.0 E0.04578
G1 X53.6055 Y18.0428 Z0.75 F3000.0 E0.03644
G1 X54.9899 Y19.8489 Z0.75 F3000.0 E0.04139
G1 X55.3943 Y20.9363 Z0.75 F3000.0 E0.0211
G1 X54.6453 Y22.3857 Z0.75 F3000.0 E0.02967
G1 X51.9352 Y28.2083 Z0.75 F3000.0 E0.11681
G1 X51.1869 Y29.4792 Z0.75 F3000.0 E0.02682
G1 X50.742 Y29.8995 Z0.75 F3000.0 E0.01113
G1 X49.9019 Y28.8921 Z0.75 F3000.0 E0.02386
G1 X48.6961 Y28.297 Z0.75 F3000.0 E0.02445
G1 X47.0295 Y28.6186 Z0.75 F3000.0 E0.03087
G1 X46.684 Y28.6226 Z0.75 F3000.0 E0.00629
G1 X46.4374 Y28.2239 Z0.75 F3000.0 E0.00853
G1 X46.9785 Y27.6727 Z0.75 F3000.0 E0.01405
G1 X47.0586 Y26.0153 Z0.75 F3000.0 E0.03018
G1 X45.9654 Y23.5117 Z0.75 F3000.0 E0.04968
G1 X45.9575 Y21.7624 Z0.75 F3000.0 E0.03182
G1 X45.7388 Y20.9966 Z0.75 F3000.0 E0.01448
G1 X44.6854 Y20.0441 Z0.75 F3000.0 E0.02583
G1 X44.6702 Y19.947 Z0.75 F3000.0 E0.00179
G1 X46.3725 Y15.9877 Z0.75 F3000.0 E0.07838
G1 X46.6568 Y14.4242 Z0.75 F3000.0 E0.0289
G1 X43.1057 Y-14.5334 Z0.75 F3000.0 E0.5306
G1 X42.6351 Y-15.9986 Z0.75 F3000.0 E0.02799
G1 X42.3399 Y-16.3249 Z0.75 F3000.0 E0.008
G1 X41.5121 Y-16.9098 Z0.75 F3000.0 E0.01843
G1 X39.5376 Y-17.0553 Z0.75 F3000.0 E0.03601
G1 X37.9974 Y-16.3594 Z0.75 F3000.0 E0.03074
G1 X34.5635 Y-14.0659 Z0.75 F3000.0 E0.0751
G1 X33.4536 Y-13.6964 Z0.75 F3000.0 E0.02127
G1 X32.4619 Y-14.1194 Z0.75 F3000.0 E0.01961
G1 X31.5806 Y-14.8272 Z0.75 F3000.0 E0.02056
G1 X31.0909 Y-15.7795 Z0.75 F3000.0 E0.01948
G1 X30.9361 Y-16.9786 Z0.75 F3000.0 E0.02199
G1 X31.6221 Y-19.1197 Z0.75 F3000.0 E0.04089
G1 X33.2964 Y-25.2032 Z0.75 F3000.0 E0.11476
G1 X33.7917 Y-27.6549 Z0.75 F3000.0 E0.04549
G1 X33.3538 Y-29.4496 Z0.75 F3000.0 E0.0336
G1 X33.7863 Y-29.6164 Z0.75 F3000.0 E0.00843
G1 X32.9133 Y-31.8036 Z0.75 F3000.0 E0.04283
G1 X32.1775 Y-33.4172 Z0.75 F3000.0 E0.03225
G1 X29.0214 Y-37.7309 Z0.75 F3000.0 E0.09721
G1 X27.8242 Y-40.2107 Z0.75 F3000.0 E0.05008
G1 X27.3399 Y-42.7052 Z0.75 F3000.0 E0.04622
G1 X27.7931 Y-45.4146 Z0.75 F3000.0 E0.04996
G1 X28.3705 Y-48.0499 Z0.75 F3000.0 E0.04906
G1 X29.4088 Y-50.4329 Z0.75 F3000.0 E0.04728
G1 X30.8018 Y-52.5026 Z0.75 F3000.0 E0.04537
G1 X32.7297 Y-54.5448 Z0.75 F3000.0 E0.05108
G1 X34.7381 Y-56.1462 Z0.75 F3000.0 E0.04672
G1 X36.3264 Y-57.1332 Z0.75 F3000.0 E0.03401
G1 X37.0183 Y-57.5631 Z0.75 F3000.0 E0.01482
G1 X39.065 Y-58.5512 Z0.75 F3000.0 E0.04133
G1 F12000.0
G1 E-2.0
G1 F3000.0
M103
G1 X51.3411 Y-45.5759 Z0.75 F3000.0
G1 F12000.0
G1 E2.0
G1 F3000.0
M101
G1 X49.9875 Y-46.1356 Z0.75 F3000.0 E0.02664
G1 X47.05 Y-45.9032 Z0.75 F3000.0 E0.05359
G1 X38.494 Y-57.6291 Z0.75 F3000.0 E0.264
G1 X36.8995 Y-56.6477 Z0.75 F3000.0 E0.03405
G1 X36.1668 Y-56.1925 Z0.75 F3000.0 E0.01569
G1 X46.9373 Y-45.822 Z0.75 F3000.0 E0.27193
G1 X44.092 Y-44.7034 Z0.75 F3000.0 E0.0556
G1 X35.8005 Y-56.1648 Z0.75 F3000.0 E0.25728
G1 X34.7087 Y-55.2747 Z0.75 F3000.0 E0.02562
G1 X33.3867 Y-54.2208 Z0.75 F3000.0 E0.03075
G1 X44.0845 Y-44.517 Z0.75 F3000.0 E0.26268
G1 X42.2701 Y-42.9616 Z0.75 F3000.0 E0.04347
G1 X33.0563 Y-54.1573 Z0.75 F3000.0 E0.26371
G1 X31.01 Y-51.8458 Z0.75 F3000.0 E0.05615
G1 X30.7684 Y-51.4934 Z0.75 F3000.0 E0.00777
G1 X42.3909 Y-42.6467 Z0.75 F3000.0 E0.26565
G1 X41.4326 Y-42.0171 Z0.75 F3000.0 E0.02085
G1 X40.6886 Y-39.7913 Z0.75 F3000.0 E0.04268
G1 X30.5294 Y-51.3384 Z0.75 F3000.0 E0.27972
G1 X29.5984 Y-49.6936 Z0.75 F3000.0 E0.03438
G1 X29.2378 Y-48.8662 Z0.75 F3000.0 E0.01641
G1 X40.9441 Y-39.3418 Z0.75 F3000.0 E0.27447
G1 X40.3996 Y-38.8924 Z0.75 F3000.0 E0.01284
G1 X40.8759 Y-37.6281 Z0.75 F3000.0 E0.02457
G1 F12000.0
G1 E-0.14405
G1 F3000.0
M103
G1 X41.6271 Y-34.501 Z0.75 F3000.0
G1 F12000.0
G1 E0.14405
G1 F3000.0
M101
G1 X40.6817 Y-35.8404 Z0.75 F3000.0 E0.02982
G1 X40.5445 Y-37.1655 Z0.75 F3000.0 E0.02423
G1 X29.0575 Y-48.6525 Z0.75 F3000.0 E0.29545
G1 X28.697 Y-47.6251 Z0.75 F3000.0 E0.0198
G1 X28.1616 Y-45.1906 Z0.75 F3000.0 E0.04533
G1 X28.1376 Y-44.6207 Z0.75 F3000.0 E0.01037
G1 X42.1187 Y-32.8215 Z0.75 F3000.0 E0.33273
G1 X43.8137 Y-31.7205 Z0.75 F3000.0 E0.03676
G1 X54.1189 Y-19.0393 Z0.75 F3000.0 E0.29719
G1 X54.3782 Y-19.574 Z0.75 F3000.0 E0.01081
G1 X55.3321 Y-20.402 Z0.75 F3000.0 E0.02297
G1 X55.7076 Y-20.6205 Z0.75 F3000.0 E0.0079
G1 X56.1301 Y-20.792 Z0.75 F3000.0 E0.00829
G1 X45.2945 Y-30.6336 Z0.75 F3000.0 E0.26622
G1 X48.7561 Y-29.7479 Z0.75 F3000.0 E0.06499
G1 X50.2561 Y-30.2298 Z0.75 F3000.0 E0.02865
G1 X56.6478 Y-20.6683 Z0.75 F3000.0 E0.20918
G1 X57.6879 Y-21.0161 Z0.75 F3000.0 E0.01995
G1 X59.3551 Y-20.3369 Z0.75 F3000.0 E0.03274
G1 F12000.0
G1 E-1.00868
G1 F3000.0
M103
G1 X63.6647 Y-18.9971 Z0.75 F3000.0
G1 F12000.0
G1 E1.00868
G1 F3000.0
M101
G1 X62.9268 Y-18.741 Z0.75 F3000.0 E0.0142
G1 X62.445 Y-18.6288 Z0.75 F3000.0 E0.009
G1 X61.8849 Y-18.595 Z0.75 F3000.0 E0.01021
G1 X60.7933 Y-19.2926 Z0.75 F3000.0 E0.02356
G1 X50.3505 Y-30.3294 Z0.75 F3000.0 E0.27634
G1 X52.2073 Y-30.6545 Z0.75 F3000.0 E0.03428
G1 X53.5944 Y-31.6433 Z0.75 F3000.0 E0.03098
G1 X63.9626 Y-19.2931 Z0.75 F3000.0 E0.29328
G1 X64.1401 Y-19.9096 Z0.75 F3000.0 E0.01167
G1 X64.2919 Y-20.9458 Z0.75 F3000.0 E0.01905
G1 X63.7593 Y-22.2663 Z0.75 F3000.0 E0.0259
G1 X63.3095 Y-23.9041 Z0.75 F3000.0 E0.03089
G1 X53.5411 Y-31.8905 Z0.75 F3000.0 E0.22948
G1 X54.9639 Y-32.6497 Z0.75 F3000.0 E0.02933
G1 X55.841 Y-34.1484 Z0.75 F3000.0 E0.03158
G1 X62.4903 Y-27.2992 Z0.75 F3000.0 E0.17362
G1 X63.3876 Y-24.6199 Z0.75 F3000.0 E0.05139
G1 F12000.0
G1 E-0.65232
G1 F3000.0
M103
G1 X61.8812 Y-28.3022 Z0.75 F3000.0
G1 F12000.0
G1 E0.65232
G1 F3000.0
M101
G1 X61.2792 Y-30.6861 Z0.75 F3000.0 E0.04472
G1 X55.6603 Y-34.5231 Z0.75 F3000.0 E0.12375
G1 X56.6811 Y-35.6842 Z0.75 F3000.0 E0.02812
G1 X56.738 Y-36.2212 Z0.75 F3000.0 E0.00982
G1 X61.6418 Y-31.1174 Z0.75 F3000.0 E0.12873
G1 X61.1372 Y-33.204 Z0.75 F3000.0 E0.03904
G1 X61.9579 Y-35.1591 Z0.75 F3000.0 E0.03856
G1 X56.395 Y-36.7583 Z0.75 F3000.0 E0.10527
G1 X57.0228 Y-38.9064 Z0.75 F3000.0 E0.0407
G1 X55.7999 Y-41.5111 Z0.75 F3000.0 E0.05233
G1 X62.3594 Y-36.3395 Z0.75 F3000.0 E0.15192
G1 X61.7683 Y-35.9367 Z0.75 F3000.0 E0.01301
G1 X61.6631 Y-35.4479 Z0.75 F3000.0 E0.00909
G1 F12000.0
G1 E-2.0
G1 F3000.0
M103
G1 X57.0327 Y-59.2853 Z0.75 F3000.0
G1 F12000.0
G1 E2.0
G1 F3000.0
M101
G1 X60.3855 Y-57.9145 Z0.75 F3000.0 E0.06588
G1 X65.8456 Y-52.4544 Z0.75 F3000.0 E0.14044
G1 X66.3631 Y-50.7489 Z0.75 F3000.0 E0.03241
G1 X66.5761 Y-48.1601 Z0.75 F3000.0 E0.04724
G1 X66.1277 Y-47.6145 Z0.75 F3000.0 E0.01284
G1 X56.2327 Y-59.4914 Z0.75 F3000.0 E0.28115
G1 X54.6709 Y-59.8653 Z0.75 F3000.0 E0.02921
G1 X51.3152 Y-60.2512 Z0.75 F3000.0 E0.06143
G1 X66.4793 Y-47.0689 Z0.75 F3000.0 E0.36543
G1 X65.9733 Y-45.987 Z0.75 F3000.0 E0.02172
G1 X65.3453 Y-43.6451 Z0.75 F3000.0 E0.0441
G1 X50.6996 Y-60.2727 Z0.75 F3000.0 E0.40299
G1 X49.4782 Y-60.3062 Z0.75 F3000.0 E0.02222
G1 X46.7329 Y-59.8817 Z0.75 F3000.0 E0.05052
G1 X65.5712 Y-43.2253 Z0.75 F3000.0 E0.45734
G1 X63.9128 Y-40.3259 Z0.75 F3000.0 E0.06075
G1 X46.2243 Y-59.9962 Z0.75 F3000.0 E0.48112
G1 X44.6987 Y-59.5399 Z0.75 F3000.0 E0.02896
G1 X42.8152 Y-59.0476 Z0.75 F3000.0 E0.03541
G1 X64.1174 Y-39.9273 Z0.75 F3000.0 E0.5206
G1 X62.1548 Y-36.7382 Z0.75 F3000.0 E0.0681
G1 X54.5017 Y-43.4033 Z0.75 F3000.0 E0.18457
G1 X53.0358 Y-44.8692 Z0.75 F3000.0 E0.0377
G1 X42.3479 Y-59.1209 Z0.75 F3000.0 E0.32399
G1 X38.8945 Y-57.6225 Z0.75 F3000.0 E0.06846
G1 X52.3885 Y-45.1225 Z0.75 F3000.0 E0.33454
G1 F12000.0
G1 E-2.0
G1 F3000.0
M103
G1 X64.1672 Y-55.5207 Z0.75 F3000.0
G1 F12000.0
G1 E2.0
G1 F3000.0
M101
G1 X65.4142 Y-53.4797 Z0.75 F3000.0 E0.0435
G1 X61.4355 Y-57.2584 Z0.75 F3000.0 E0.0998
G1 F12000.0
G1 E-2.0
G1 F3000.0
M103
G1 X53.1751 Y-17.8012 Z0.75 F3000.0
G1 F12000.0
G1 E2.0
G1 F3000.0
M101
G1 X53.9377 Y-18.8266 Z0.75 F3000.0 E0.02324
G1 X28.1261 Y-44.2382 Z0.75 F3000.0 E0.65877
G1 X28.1031 Y-42.8733 Z0.75 F3000.0 E0.02483
G1 X28.8518 Y-40.7426 Z0.75 F3000.0 E0.04107
G1 X29.1325 Y-39.868 Z0.75 F3000.0 E0.01671
G1 X29.6868 Y-38.7197 Z0.75 F3000.0 E0.02319
G1 X30.5668 Y-37.2457 Z0.75 F3000.0 E0.03122
G1 X32.1866 Y-35.032 Z0.75 F3000.0 E0.04989
G1 X53.4121 Y-17.3703 Z0.75 F3000.0 E0.5022
G1 X52.4528 Y-14.9598 Z0.75 F3000.0 E0.04718
G1 X52.2254 Y-13.4052 Z0.75 F3000.0 E0.02857
G1 X33.0091 Y-33.4154 Z0.75 F3000.0 E0.50457
G1 F12000.0
G1 E-0.0
G1 F3000.0
M103
G1 X33.9074 Y-32.1232 Z0.75 F3000.0
G1 F12000.0
G1 E0.0
G1 F3000.0
M101
G1 X34.4846 Y-29.7642 Z0.75 F3000.0 E0.04417
G1 X34.5378 Y-27.9291 Z0.75 F3000.0 E0.03339
G1 X52.551 Y-12.8856 Z0.75 F3000.0 E0.42683
G1 X52.0022 Y-11.8465 Z0.75 F3000.0 E0.02137
G1 X51.8575 Y-9.0213 Z0.75 F3000.0 E0.05145
G1 X34.1386 Y-27.5343 Z0.75 F3000.0 E0.46607
G1 X33.5133 Y-24.3957 Z0.75 F3000.0 E0.0582
G1 X42.0379 Y-17.4591 Z0.75 F3000.0 E0.19988
G1 X39.7148 Y-17.8002 Z0.75 F3000.0 E0.0427
G1 X39.1848 Y-17.5363 Z0.75 F3000.0 E0.01077
G1 X38.2864 Y-17.2467 Z0.75 F3000.0 E0.01717
G1 X33.3851 Y-24.1299 Z0.75 F3000.0 E0.15368
G1 X32.4878 Y-20.6695 Z0.75 F3000.0 E0.06502
G1 X38.2373 Y-17.1019 Z0.75 F3000.0 E0.12306
G1 X35.6647 Y-15.7107 Z0.75 F3000.0 E0.05319
G1 X32.3596 Y-20.4037 Z0.75 F3000.0 E0.1044
G1 X31.975 Y-18.8064 Z0.75 F3000.0 E0.02988
G1 X31.7106 Y-16.6949 Z0.75 F3000.0 E0.0387
G1 X35.7086 Y-15.4728 Z0.75 F3000.0 E0.07603
G1 X34.2403 Y-14.7592 Z0.75 F3000.0 E0.02969
G1 X33.7926 Y-14.6129 Z0.75 F3000.0 E0.00857
G1 X33.2901 Y-14.5215 Z0.75 F3000.0 E0.00929
G1 X31.8035 Y-16.208 Z0.75 F3000.0 E0.04089
G1 F12000.0
G1 E-2.0
G1 F3000.0
M103
G1 X43.8805 Y-15.6165 Z0.75 F3000.0
G1 F12000.0
G1 E2.0
G1 F3000.0
M101
G1 X44.1705 Y-14.7325 Z0.75 F3000.0 E0.01692
G1 X44.3742 Y-13.3409 Z0.75 F3000.0 E0.02558
G1 X52.2322 Y-8.4527 Z0.75 F3000.0 E0.16831
G1 X51.7428 Y-4.9783 Z0.75 F3000.0 E0.06381
G1 X44.0467 Y-12.8744 Z0.75 F3000.0 E0.20054
G1 X44.9545 Y-8.0088 Z0.75 F3000.0 E0.09002
G1 X52.1462 Y-4.3809 Z0.75 F3000.0 E0.1465
G1 X52.1699 Y-0.1994 Z0.75 F3000.0 E0.07605
G1 X44.627 Y-7.5423 Z0.75 F3000.0 E0.19145
G1 X45.5348 Y-2.6768 Z0.75 F3000.0 E0.09002
G1 X52.1733 Y0.398 Z0.75 F3000.0 E0.13306
G1 X52.1971 Y4.5795 Z0.75 F3000.0 E0.07605
G1 X45.2073 Y-2.2103 Z0.75 F3000.0 E0.17723
G1 X46.115 Y2.6553 Z0.75 F3000.0 E0.09002
G1 X52.2004 Y5.1768 Z0.75 F3000.0 E0.1198
G1 X51.7197 Y9.2539 Z0.75 F3000.0 E0.07466
G1 X45.7876 Y3.1218 Z0.75 F3000.0 E0.15517
G1 X46.6953 Y7.9873 Z0.75 F3000.0 E0.09002
G1 X52.0874 Y9.8155 Z0.75 F3000.0 E0.10355
G1 X51.461 Y13.7469 Z0.75 F3000.0 E0.0724
G1 X46.3679 Y8.4538 Z0.75 F3000.0 E0.1336
G1 X47.058 Y11.3198 Z0.75 F3000.0 E0.05362
G1 X51.9009 Y14.3808 Z0.75 F3000.0 E0.1042
G1 X52.0285 Y16.2904 Z0.75 F3000.0 E0.03481
G1 X52.9267 Y18.3764 Z0.75 F3000.0 E0.04131
G1 F12000.0
G1 E-0.165
G1 F3000.0
M103
G1 X54.5509 Y21.1886 Z0.75 F3000.0
G1 F12000.0
G1 E0.165
G1 F3000.0
M101
G1 X54.0022 Y20.246 Z0.75 F3000.0 E0.01984
G1 X46.9482 Y13.7859 Z0.75 F3000.0 E0.17396
G1 X46.7306 Y11.7864 Z0.75 F3000.0 E0.03658
G1 F12000.0
G1 E-0.0
G1 F3000.0
M103
G1 X47.4199 Y14.6516 Z0.75 F3000.0
G1 F12000.0
G1 E0.0
G1 F3000.0
M101
G1 X46.4757 Y17.0772 Z0.75 F3000.0 E0.04734
G1 X54.4375 Y21.6692 Z0.75 F3000.0 E0.16716
G1 X53.9222 Y22.1479 Z0.75 F3000.0 E0.01279
G1 X52.7903 Y24.5798 Z0.75 F3000.0 E0.04879
G1 X46.3287 Y17.3242 Z0.75 F3000.0 E0.1767
G1 X45.5936 Y19.759 Z0.75 F3000.0 E0.04626
G1 X46.9466 Y21.3059 Z0.75 F3000.0 E0.03738
G1 X47.4257 Y21.7861 Z0.75 F3000.0 E0.01234
G1 X47.5067 Y22.5108 Z0.75 F3000.0 E0.01326
G1 X53.0016 Y24.9851 Z0.75 F3000.0 E0.1096
G1 X51.281 Y27.8223 Z0.75 F3000.0 E0.06035
G1 X50.8385 Y28.5676 Z0.75 F3000.0 E0.01577
G1 X49.9599 Y28.083 Z0.75 F3000.0 E0.01825
G1 X50.4893 Y27.6834 Z0.75 F3000.0 E0.01206
G1 X46.7184 Y23.0596 Z0.75 F3000.0 E0.10851
G1 X47.81 Y26.3271 Z0.75 F3000.0 E0.06265
G1 X47.3837 Y26.8948 Z0.75 F3000.0 E0.01291
G1 X49.2171 Y27.7342 Z0.75 F3000.0 E0.03667
G1 X47.7031 Y27.8081 Z0.75 F3000.0 E0.02757
G1 X47.3574 Y27.2625 Z0.75 F3000.0 E0.01175
G1 F12000.0
G1 E-2.0
G1 F3000.0
M103
M106 S255
G1 X33.2045 Y-55.7795 Z1.05 F3000.0
G1 F12000.0
G1 E2.0
G1 F3000.0
M101
G1 X34.4955 Y-56.4899 Z1.05 F2400.0 E0.0335
G1 X36.8156 Y-57.9316 Z1.05 F2400.0 E0.0621
G1 X39.4108 Y-59.1845 Z1.05 F2400.0 E0.06552
G1 X41.8785 Y-60.1038 Z1.05 F2400.0 E0.05987
G1 X44.6712 Y-60.8605 Z1.05 F2400.0 E0.06578
G1 X47.3649 Y-61.3132 Z1.05 F2400.0 E0.0621
G1 X49.9477 Y-61.4897 Z1.05 F2400.0 E0.05886
G1 X52.7812 Y-61.1906 Z1.05 F2400.0 E0.06477
G1 X55.5606 Y-60.7819 Z1.05 F2400.0 E0.06387
G1 X58.0466 Y-60.1416 Z1.05 F2400.0 E0.05836
G1 X60.6913 Y-59.1385 Z1.05 F2400.0 E0.0643
G1 X60.9268 Y-59.0193 Z1.05 F2400.0 E0.006
G1 X61.6331 Y-58.4779 Z1.05 F2400.0 E0.02023
G1 X63.5049 Y-57.4364 Z1.05 F2400.0 E0.0487
G1 X65.1201 Y-56.0529 Z1.05 F2400.0 E0.04835
G1 X66.6688 Y-53.7152 Z1.05 F2400.0 E0.06375
G1 X67.4996 Y-51.187 Z1.05 F2400.0 E0.0605
G1 X67.7834 Y-48.4634 Z1.05 F2400.0 E0.06225
G1 X67.151 Y-45.8411 Z1.05 F2400.0 E0.06132
G1 X66.4892 Y-43.3338 Z1.05 F2400.0 E0.05895
G1 X65.3511 Y-40.5886 Z1.05 F2400.0 E0.06756
G1 X62.8957 Y-35.5776 Z1.05 F2400.0 E0.12686
G1 X62.7239 Y-34.997 Z1.05 F2400.0 E0.01376
G1 X62.3156 Y-32.8876 Z1.05 F2400.0 E0.04885
G1 X62.842 Y-30.7436 Z1.05 F2400.0 E0.05019
G1 X63.9945 Y-26.2757 Z1.05 F2400.0 E0.1049
G1 X64.7986 Y-24.179 Z1.05 F2400.0 E0.05105
G1 X65.3592 Y-22.1378 Z1.05 F2400.0 E0.04813
G1 X65.4848 Y-20.8658 Z1.05 F2400.0 E0.02906
G1 X64.9747 Y-19.5889 Z1.05 F2400.0 E0.03126
G1 X64.5935 Y-18.6479 Z1.05 F2400.0 E0.02308
