(** This GCode was generated by ReplicatorG 0037 **)
(*  using Skeinforge (50)  *)
(*  for a Single headed CNC Machine  *)
(*  on 2015/02/08 14:53:33 (+0100) *)
M107
G21
G90
G28
M101
G21
M103
M105
M140 S60.0
M141 S30.0
M142 S0.0
;M113 S1.0
;M108 R15.0
M104 S195.0
G1 X-32.4556 Y-2.4585 Z0.15 F3000.0
G1 F12000.0
G1 E2.0
G1 F3000.0
M101
G1 X-31.9088 Y1.5731 Z0.15 F720.0 E0.0925
G1 X-31.1128 Y5.3328 Z0.15 F720.0 E0.08737
G1 X-29.8833 Y8.9535 Z0.15 F720.0 E0.08693
G1 X-28.15 Y12.5712 Z0.15 F720.0 E0.0912
G1 X-25.816 Y16.1777 Z0.15 F720.0 E0.09766
G1 X-23.2919 Y19.1702 Z0.15 F720.0 E0.089
G1 X-18.8239 Y23.0689 Z0.15 F720.0 E0.13481
G1 X-3.4091 Y34.3002 Z0.15 F720.0 E0.43359
G1 X-2.4658 Y34.9577 Z0.15 F720.0 E0.02614
G1 X-0.5081 Y35.5727 Z0.15 F720.0 E0.04665
G1 X1.5366 Y35.2531 Z0.15 F720.0 E0.04705
G1 X2.9575 Y34.7026 Z0.15 F720.0 E0.03464
G1 X19.1956 Y22.8867 Z0.15 F720.0 E0.45655
G1 X22.3834 Y20.2626 Z0.15 F720.0 E0.09387
G1 X26.1971 Y16.0069 Z0.15 F720.0 E0.12991
G1 X28.55 Y12.3712 Z0.15 F720.0 E0.09845
G1 X30.2833 Y8.7535 Z0.15 F720.0 E0.0912
G1 X31.5128 Y5.1328 Z0.15 F720.0 E0.08693
G1 X32.3088 Y1.3731 Z0.15 F720.0 E0.08737
G1 X32.6556 Y-2.5585 Z0.15 F720.0 E0.08973
G1 X32.1138 Y-6.6282 Z0.15 F720.0 E0.09334
G1 X31.4472 Y-10.6909 Z0.15 F720.0 E0.0936
G1 X30.3929 Y-14.3215 Z0.15 F720.0 E0.08595
G1 X28.7452 Y-18.1521 Z0.15 F720.0 E0.0948
G1 X26.7515 Y-21.5509 Z0.15 F720.0 E0.08958
G1 X24.3327 Y-24.7135 Z0.15 F720.0 E0.09052
G1 X21.6569 Y-27.4576 Z0.15 F720.0 E0.08713
G1 X16.9307 Y-31.0304 Z0.15 F720.0 E0.13469
G1 X13.3686 Y-32.9444 Z0.15 F720.0 E0.09193
G1 X9.7437 Y-34.3526 Z0.15 F720.0 E0.08841
G1 X5.6806 Y-35.3784 Z0.15 F720.0 E0.09527
G1 X1.6166 Y-35.8608 Z0.15 F720.0 E0.09304
G1 X-2.0166 Y-35.8608 Z0.15 F720.0 E0.0826
G1 X-6.0806 Y-35.1784 Z0.15 F720.0 E0.09369
G1 X-10.1436 Y-34.1526 Z0.15 F720.0 E0.09527
G1 X-13.7686 Y-32.7444 Z0.15 F720.0 E0.08841
G1 X-17.2973 Y-30.8483 Z0.15 F720.0 E0.09107
G1 X-20.531 Y-28.566 Z0.15 F720.0 E0.08998
G1 X-24.7104 Y-24.5426 Z0.15 F720.0 E0.13189
G1 X-27.1515 Y-21.3509 Z0.15 F720.0 E0.09135
G1 X-29.1452 Y-17.9521 Z0.15 F720.0 E0.08958
G1 X-30.7929 Y-14.1215 Z0.15 F720.0 E0.0948
G1 X-31.8472 Y-10.4909 Z0.15 F720.0 E0.08595
G1 X-32.5138 Y-6.4282 Z0.15 F720.0 E0.0936
G1 X-32.6556 Y-2.3585 Z0.15 F720.0 E0.09258
G1 F12000.0
G1 E-2.0
G1 F720.0
M103
;M108 R15.0
G1 X-19.7202 Y-25.7975 Z0.15 F3000.0
G1 F12000.0
G1 E2.0
G1 F3000.0
M101
G1 X-18.5175 Y-26.8219 Z0.15 F720.0 E0.03592
G1 X-17.0483 Y-27.926 Z0.15 F720.0 E0.04178
G1 X-15.5142 Y-28.9379 Z0.15 F720.0 E0.04178
G1 X-13.9209 Y-29.8539 Z0.15 F720.0 E0.04178
G1 X-12.2744 Y-30.6704 Z0.15 F720.0 E0.04178
G1 X-10.581 Y-31.3843 Z0.15 F720.0 E0.04178
G1 X-8.8469 Y-31.993 Z0.15 F720.0 E0.04178
G1 X-7.0788 Y-32.4942 Z0.15 F720.0 E0.04178
G1 X-5.2832 Y-32.886 Z0.15 F720.0 E0.04178
G1 X-3.467 Y-33.167 Z0.15 F720.0 E0.04178
G1 X-1.637 Y-33.3359 Z0.15 F720.0 E0.04178
G1 X0.1999 Y-33.3923 Z0.15 F720.0 E0.04178
G1 X2.0368 Y-33.1359 Z0.15 F720.0 E0.04217
G1 X3.8669 Y-32.967 Z0.15 F720.0 E0.04178
G1 X5.6831 Y-32.6861 Z0.15 F720.0 E0.04178
G1 X7.4786 Y-32.2943 Z0.15 F720.0 E0.04178
G1 X9.2468 Y-31.7931 Z0.15 F720.0 E0.04178
G1 X10.9808 Y-31.1844 Z0.15 F720.0 E0.04178
G1 X12.6743 Y-30.4704 Z0.15 F720.0 E0.04178
G1 X14.3208 Y-29.654 Z0.15 F720.0 E0.04178
G1 X15.9141 Y-28.738 Z0.15 F720.0 E0.04178
G1 X17.4482 Y-27.7261 Z0.15 F720.0 E0.04178
G1 X18.9173 Y-26.6219 Z0.15 F720.0 E0.04178
G1 X20.3159 Y-25.4297 Z0.15 F720.0 E0.04178
G1 X21.6388 Y-24.154 Z0.15 F720.0 E0.04178
G1 X22.8809 Y-22.7995 Z0.15 F720.0 E0.04178
G1 X24.0376 Y-21.3714 Z0.15 F720.0 E0.04178
G1 X25.1045 Y-19.8749 Z0.15 F720.0 E0.04178
G1 X26.0776 Y-18.3159 Z0.15 F720.0 E0.04178
G1 X26.9533 Y-16.7001 Z0.15 F720.0 E0.04178
G1 X27.7281 Y-15.0337 Z0.15 F720.0 E0.04178
G1 X28.3993 Y-13.3228 Z0.15 F720.0 E0.04178
G1 X28.9643 Y-11.574 Z0.15 F720.0 E0.04178
G1 X29.421 Y-9.7939 Z0.15 F720.0 E0.04178
G1 X29.7675 Y-7.989 Z0.15 F720.0 E0.04178
G1 X30.0027 Y-6.1664 Z0.15 F720.0 E0.04178
G1 X30.1257 Y-4.3327 Z0.15 F720.0 E0.04178
G1 X30.136 Y-2.4949 Z0.15 F720.0 E0.04178
G1 X29.6334 Y-0.66 Z0.15 F720.0 E0.04325
G1 X29.4185 Y1.1652 Z0.15 F720.0 E0.04178
G1 X29.0921 Y2.9738 Z0.15 F720.0 E0.04178
G1 X28.6554 Y4.759 Z0.15 F720.0 E0.04178
G1 X28.1099 Y6.514 Z0.15 F720.0 E0.04178
G1 X27.4578 Y8.2322 Z0.15 F720.0 E0.04178
G1 X26.7016 Y9.9072 Z0.15 F720.0 E0.04178
G1 X25.844 Y11.5326 Z0.15 F720.0 E0.04178
G1 X24.8883 Y13.1024 Z0.15 F720.0 E0.04178
G1 X23.8382 Y14.6106 Z0.15 F720.0 E0.04178
G1 X22.6975 Y16.0515 Z0.15 F720.0 E0.04178
G1 X21.4706 Y17.4198 Z0.15 F720.0 E0.04178
G1 X20.162 Y18.7102 Z0.15 F720.0 E0.04178
G1 X18.7767 Y19.9179 Z0.15 F720.0 E0.04178
G1 X17.32 Y21.0384 Z0.15 F720.0 E0.04178
G1 X15.7973 Y22.0674 Z0.15 F720.0 E0.04178
G1 X14.2143 Y23.001 Z0.15 F720.0 E0.04178
G1 X12.577 Y23.8358 Z0.15 F720.0 E0.04178
G1 X10.8916 Y24.5685 Z0.15 F720.0 E0.04178
G1 X9.1645 Y25.1966 Z0.15 F720.0 E0.04178
G1 X7.402 Y25.7174 Z0.15 F720.0 E0.04178
G1 X5.6132 Y26.1287 Z0.15 F720.0 E0.04173
G1 X2.3785 Y26.5968 Z0.15 F720.0 E0.0743
G1 X2.3217 Y30.7075 Z0.15 F720.0 E0.09346
G1 X2.2233 Y31.128 Z0.15 F720.0 E0.00982
G1 X2.0225 Y31.5269 Z0.15 F720.0 E0.01015
G1 X1.7539 Y31.8825 Z0.15 F720.0 E0.01013
G1 X1.4245 Y32.1828 Z0.15 F720.0 E0.01013
G1 X1.0456 Y32.4174 Z0.15 F720.0 E0.01013
G1 X0.63 Y32.5784 Z0.15 F720.0 E0.01013
G1 X0.1923 Y32.655 Z0.15 F720.0 E0.0101
G1 X-0.5923 Y32.455 Z0.15 F720.0 E0.01841
G1 X-1.03 Y32.3784 Z0.15 F720.0 E0.0101
G1 X-1.4456 Y32.2174 Z0.15 F720.0 E0.01013
G1 X-1.8245 Y31.9828 Z0.15 F720.0 E0.01013
G1 X-2.1539 Y31.6825 Z0.15 F720.0 E0.01013
G1 X-2.4225 Y31.3269 Z0.15 F720.0 E0.01013
G1 X-2.6233 Y30.928 Z0.15 F720.0 E0.01015
G1 X-2.7217 Y30.5075 Z0.15 F720.0 E0.00982
G1 X-2.7713 Y26.405 Z0.15 F720.0 E0.09327
G1 X-6.0129 Y25.9287 Z0.15 F720.0 E0.07448
G1 X-7.8019 Y25.5175 Z0.15 F720.0 E0.04173
G1 X-9.5643 Y24.9966 Z0.15 F720.0 E0.04178
G1 X-11.2915 Y24.3686 Z0.15 F720.0 E0.04178
G1 X-12.9769 Y23.6359 Z0.15 F720.0 E0.04178
G1 X-14.6142 Y22.8011 Z0.15 F720.0 E0.04178
G1 X-16.1971 Y21.8674 Z0.15 F720.0 E0.04178
G1 X-17.7199 Y20.8385 Z0.15 F720.0 E0.04178
G1 X-19.1766 Y19.718 Z0.15 F720.0 E0.04178
G1 X-20.5619 Y18.5103 Z0.15 F720.0 E0.04178
G1 X-21.8705 Y17.2199 Z0.15 F720.0 E0.04178
G1 X-23.0974 Y15.8516 Z0.15 F720.0 E0.04178
G1 X-24.2381 Y14.4107 Z0.15 F720.0 E0.04178
G1 X-25.2883 Y12.9025 Z0.15 F720.0 E0.04178
G1 X-26.2439 Y11.3327 Z0.15 F720.0 E0.04178
G1 X-27.1015 Y9.7073 Z0.15 F720.0 E0.04178
G1 X-27.8578 Y8.0323 Z0.15 F720.0 E0.04178
G1 X-28.5099 Y6.3141 Z0.15 F720.0 E0.04178
G1 X-29.0553 Y4.5591 Z0.15 F720.0 E0.04178
G1 X-29.4921 Y2.774 Z0.15 F720.0 E0.04178
G1 X-29.8185 Y0.9654 Z0.15 F720.0 E0.04178
G1 X-30.0334 Y-0.8598 Z0.15 F720.0 E0.04178
G1 X-30.136 Y-2.6947 Z0.15 F720.0 E0.04178
G1 X-29.7257 Y-4.5325 Z0.15 F720.0 E0.04281
G1 X-29.6028 Y-6.3662 Z0.15 F720.0 E0.04178
G1 X-29.3676 Y-8.1889 Z0.15 F720.0 E0.04178
G1 X-29.021 Y-9.9937 Z0.15 F720.0 E0.04178
G1 X-28.5644 Y-11.7739 Z0.15 F720.0 E0.04178
G1 X-27.9994 Y-13.5227 Z0.15 F720.0 E0.04178
G1 X-27.3282 Y-15.2335 Z0.15 F720.0 E0.04178
G1 X-26.5533 Y-16.9 Z0.15 F720.0 E0.04178
G1 X-25.6777 Y-18.5158 Z0.15 F720.0 E0.04178
G1 X-24.7046 Y-20.0748 Z0.15 F720.0 E0.04178
G1 X-23.6377 Y-21.5712 Z0.15 F720.0 E0.04178
G1 X-22.481 Y-22.9994 Z0.15 F720.0 E0.04178
G1 X-21.2389 Y-24.3539 Z0.15 F720.0 E0.04178
G1 X-19.9162 Y-25.63 Z0.15 F720.0 E0.04178
G1 X-19.7202 Y-25.7975 Z0.15 F720.0 E0.00586
G1 F12000.0
G1 E-2.0
G1 F720.0
M103
G1 X-1.7181 Y30.096 Z0.15 F3000.0
G1 F12000.0
G1 E2.0
G1 F3000.0
M101
G1 X-2.1588 Y30.3701 Z0.15 F720.0 E0.0118
G1 X-1.6995 Y30.8575 Z0.15 F720.0 E0.01523
G1 X-1.5209 Y31.3149 Z0.15 F720.0 E0.01116
G1 X-1.2341 Y31.7135 Z0.15 F720.0 E0.01116
G1 X-0.8573 Y32.0282 Z0.15 F720.0 E0.01116
G1 X-0.414 Y32.2393 Z0.15 F720.0 E0.01116
G1 X0.0679 Y32.3336 Z0.15 F720.0 E0.01116
G1 X0.5581 Y32.105 Z0.15 F720.0 E0.0123
G1 X1.0257 Y31.9555 Z0.15 F720.0 E0.01116
G1 X1.4415 Y31.6943 Z0.15 F720.0 E0.01116
G1 X1.7793 Y31.338 Z0.15 F720.0 E0.01116
G1 X2.0178 Y30.9088 Z0.15 F720.0 E0.01116
G1 X2.1422 Y30.4338 Z0.15 F720.0 E0.01116
G1 X2.1444 Y29.9428 Z0.15 F720.0 E0.01116
G1 X1.6246 Y29.4667 Z0.15 F720.0 E0.01603
G1 X1.39 Y29.0353 Z0.15 F720.0 E0.01116
G1 X1.0556 Y28.6759 Z0.15 F720.0 E0.01116
G1 X0.6423 Y28.4108 Z0.15 F720.0 E0.01116
G1 X0.176 Y28.2569 Z0.15 F720.0 E0.01116
G1 X-0.3139 Y28.2238 Z0.15 F720.0 E0.01116
G1 X-0.7966 Y28.5136 Z0.15 F720.0 E0.0128
G1 X-1.2418 Y28.7205 Z0.15 F720.0 E0.01116
G1 X-1.6216 Y29.0318 Z0.15 F720.0 E0.01116
G1 X-1.9121 Y29.4276 Z0.15 F720.0 E0.01116
G1 X-2.0949 Y29.8833 Z0.15 F720.0 E0.01116
G1 X-2.1181 Y30.096 Z0.15 F720.0 E0.00486
G1 F12000.0
G1 E-0.32249
G1 F720.0
M103
;M108 R20.0
M104 S198.0
G1 X-1.5281 Y26.6626 Z0.15 F3000.0
G1 F12000.0
G1 E0.32249
G1 F3000.0
M101
G1 X-1.5058 Y25.6761 Z0.15 F1200.0 E0.01795
G1 X-5.8583 Y25.1023 Z0.15 F1200.0 E0.07985
G1 X-7.5821 Y24.706 Z0.15 F1200.0 E0.03217
G1 X-10.9796 Y23.5875 Z0.15 F1200.0 E0.06506
G1 X-14.209 Y22.064 Z0.15 F1200.0 E0.06494
G1 X-17.2275 Y20.1566 Z0.15 F1200.0 E0.06494
G1 X-19.9897 Y17.8938 Z0.15 F1200.0 E0.06494
G1 X-22.4541 Y15.3099 Z0.15 F1200.0 E0.06494
G1 X-24.5834 Y12.4436 Z0.15 F1200.0 E0.06494
G1 X-26.3458 Y9.3381 Z0.15 F1200.0 E0.06494
G1 X-27.7146 Y6.0403 Z0.15 F1200.0 E0.06494
G1 X-28.6693 Y2.5996 Z0.15 F1200.0 E0.06494
G1 X-29.1955 Y-0.9322 Z0.15 F1200.0 E0.06494
G1 X-29.2852 Y-4.5017 Z0.15 F1200.0 E0.06494
G1 X-28.5372 Y-8.0554 Z0.15 F1200.0 E0.06605
G1 X-27.7566 Y-11.5397 Z0.15 F1200.0 E0.06494
G1 X-26.5552 Y-14.9022 Z0.15 F1200.0 E0.06494
G1 X-24.9511 Y-18.0923 Z0.15 F1200.0 E0.06494
G1 X-22.9684 Y-21.0619 Z0.15 F1200.0 E0.06494
G1 X-20.637 Y-23.7664 Z0.15 F1200.0 E0.06494
G1 X-17.992 Y-26.1651 Z0.15 F1200.0 E0.06494
G1 X-15.0731 Y-28.2218 Z0.15 F1200.0 E0.06494
G1 X-11.9244 Y-29.9056 Z0.15 F1200.0 E0.06494
G1 X-8.5931 Y-31.1912 Z0.15 F1200.0 E0.06494
G1 X-5.1296 Y-32.0591 Z0.15 F1200.0 E0.06494
G1 X-1.5857 Y-32.4964 Z0.15 F1200.0 E0.06494
G1 X1.9849 Y-32.4965 Z0.15 F1200.0 E0.06494
G1 X5.5288 Y-31.8593 Z0.15 F1200.0 E0.06549
G1 X8.9924 Y-30.9914 Z0.15 F1200.0 E0.06494
G1 X12.3236 Y-29.706 Z0.15 F1200.0 E0.06494
G1 X15.4724 Y-28.0222 Z0.15 F1200.0 E0.06494
G1 X18.3913 Y-25.9656 Z0.15 F1200.0 E0.06494
G1 X21.0364 Y-23.567 Z0.15 F1200.0 E0.06494
G1 X23.3679 Y-20.8626 Z0.15 F1200.0 E0.06494
G1 X25.3507 Y-17.893 Z0.15 F1200.0 E0.06494
G1 X26.9549 Y-14.7029 Z0.15 F1200.0 E0.06494
G1 X28.1563 Y-11.3405 Z0.15 F1200.0 E0.06494
G1 X28.937 Y-7.8562 Z0.15 F1200.0 E0.06494
G1 X29.2852 Y-4.3025 Z0.15 F1200.0 E0.06494
G1 X28.7955 Y-0.733 Z0.15 F1200.0 E0.06553
G1 X28.2695 Y2.7988 Z0.15 F1200.0 E0.06494
G1 X27.3149 Y6.2395 Z0.15 F1200.0 E0.06494
G1 X25.9462 Y9.5374 Z0.15 F1200.0 E0.06494
G1 X24.1839 Y12.6429 Z0.15 F1200.0 E0.06494
G1 X22.0546 Y15.5092 Z0.15 F1200.0 E0.06494
G1 X19.5903 Y18.0933 Z0.15 F1200.0 E0.06494
G1 X16.8282 Y20.3561 Z0.15 F1200.0 E0.06494
G1 X13.8097 Y22.2636 Z0.15 F1200.0 E0.06494
G1 X10.5804 Y23.7872 Z0.15 F1200.0 E0.06494
G1 X7.1824 Y24.9059 Z0.15 F1200.0 E0.06506
G1 X5.4586 Y25.3023 Z0.15 F1200.0 E0.03217
G1 X1.5472 Y25.8684 Z0.15 F1200.0 E0.07188
G1 X1.5123 Y28.1683 Z0.15 F1200.0 E0.04183
G1 X1.3762 Y28.2105 Z0.15 F1200.0 E0.00259
G1 X0.9916 Y27.7302 Z0.15 F1200.0 E0.01119
G1 X0.3278 Y27.481 Z0.15 F1200.0 E0.0129
G1 X-0.3598 Y27.4346 Z0.15 F1200.0 E0.01253
G1 X-1.0344 Y27.7695 Z0.15 F1200.0 E0.0137
G1 X-1.5542 Y28.0555 Z0.15 F1200.0 E0.01079
G1 X-1.943 Y28.0862 Z0.15 F1200.0 E0.00709
G1 X-1.5281 Y26.6626 Z0.15 F1200.0 E0.02697
G1 F12000.0
G1 E-0.0
G1 F1200.0
M103
G1 X-2.3341 Y28.1566 Z0.15 F3000.0
G1 F12000.0
G1 E0.0
G1 F3000.0
M101
G1 X-2.3527 Y26.0407 Z0.15 F1200.0 E0.03848
G1 X-5.9356 Y25.5155 Z0.15 F1200.0 E0.06586
G1 X-7.695 Y25.111 Z0.15 F1200.0 E0.03283
G1 X-11.1355 Y23.9783 Z0.15 F1200.0 E0.06588
G1 X-14.4116 Y22.4328 Z0.15 F1200.0 E0.06588
G1 X-17.4737 Y20.4978 Z0.15 F1200.0 E0.06588
G1 X-20.2759 Y18.2024 Z0.15 F1200.0 E0.06588
G1 X-22.7758 Y15.581 Z0.15 F1200.0 E0.06588
G1 X-24.936 Y12.6733 Z0.15 F1200.0 E0.06588
G1 X-26.7238 Y9.523 Z0.15 F1200.0 E0.06588
G1 X-28.1124 Y6.1774 Z0.15 F1200.0 E0.06588
G1 X-29.0809 Y2.687 Z0.15 F1200.0 E0.06588
G1 X-29.6147 Y-0.8958 Z0.15 F1200.0 E0.06588
G1 X-29.7057 Y-4.5169 Z0.15 F1200.0 E0.06588
G1 X-28.9526 Y-8.122 Z0.15 F1200.0 E0.06698
G1 X-28.1608 Y-11.6567 Z0.15 F1200.0 E0.06588
G1 X-26.942 Y-15.0678 Z0.15 F1200.0 E0.06588
G1 X-25.3147 Y-18.304 Z0.15 F1200.0 E0.06588
G1 X-23.3034 Y-21.3166 Z0.15 F1200.0 E0.06588
G1 X-20.9383 Y-24.0602 Z0.15 F1200.0 E0.06588
G1 X-18.255 Y-26.4936 Z0.15 F1200.0 E0.06588
G1 X-15.2939 Y-28.58 Z0.15 F1200.0 E0.06588
G1 X-12.0997 Y-30.2882 Z0.15 F1200.0 E0.06588
G1 X-8.7203 Y-31.5923 Z0.15 F1200.0 E0.06588
G1 X-5.2066 Y-32.4728 Z0.15 F1200.0 E0.06588
G1 X-1.6116 Y-32.9164 Z0.15 F1200.0 E0.06588
G1 X2.0107 Y-32.9165 Z0.15 F1200.0 E0.06588
G1 X5.6058 Y-32.273 Z0.15 F1200.0 E0.06642
G1 X9.1195 Y-31.3926 Z0.15 F1200.0 E0.06588
G1 X12.4989 Y-30.0885 Z0.15 F1200.0 E0.06588
G1 X15.6932 Y-28.3804 Z0.15 F1200.0 E0.06588
G1 X18.6543 Y-26.2941 Z0.15 F1200.0 E0.06588
G1 X21.3377 Y-23.8608 Z0.15 F1200.0 E0.06588
G1 X23.7029 Y-21.1172 Z0.15 F1200.0 E0.06588
G1 X25.7143 Y-18.1047 Z0.15 F1200.0 E0.06588
G1 X27.3417 Y-14.8686 Z0.15 F1200.0 E0.06588
G1 X28.5605 Y-11.4575 Z0.15 F1200.0 E0.06588
G1 X29.3525 Y-7.9228 Z0.15 F1200.0 E0.06588
G1 X29.7057 Y-4.3178 Z0.15 F1200.0 E0.06588
G1 X29.2148 Y-0.6966 Z0.15 F1200.0 E0.06646
G1 X28.6811 Y2.8862 Z0.15 F1200.0 E0.06588
G1 X27.7127 Y6.3766 Z0.15 F1200.0 E0.06588
G1 X26.3242 Y9.7223 Z0.15 F1200.0 E0.06588
G1 X24.5364 Y12.8727 Z0.15 F1200.0 E0.06588
G1 X22.3763 Y15.7804 Z0.15 F1200.0 E0.06588
G1 X19.8764 Y18.4018 Z0.15 F1200.0 E0.06588
G1 X17.0744 Y20.6973 Z0.15 F1200.0 E0.06588
G1 X14.0123 Y22.6325 Z0.15 F1200.0 E0.06588
G1 X10.7363 Y24.178 Z0.15 F1200.0 E0.06588
G1 X7.2954 Y25.3109 Z0.15 F1200.0 E0.06588
G1 X5.5359 Y25.7155 Z0.15 F1200.0 E0.03284
G1 X1.9628 Y26.2326 Z0.15 F1200.0 E0.06566
G1 X1.9289 Y28.4576 Z0.15 F1200.0 E0.04047
G1 X1.4127 Y28.8059 Z0.15 F1200.0 E0.01132
G1 X1.285 Y28.4484 Z0.15 F1200.0 E0.0069
G1 X0.8009 Y28.0824 Z0.15 F1200.0 E0.01104
G1 X0.2472 Y27.8927 Z0.15 F1200.0 E0.01064
G1 X-0.3355 Y27.8534 Z0.15 F1200.0 E0.01062
G1 X-0.9099 Y28.1598 Z0.15 F1200.0 E0.01184
G1 X-1.4372 Y28.4256 Z0.15 F1200.0 E0.01074
G1 X-1.9249 Y28.9066 Z0.15 F1200.0 E0.01246
G1 X-2.3688 Y28.3039 Z0.15 F1200.0 E0.01361
G1 X-1.9341 Y27.9566 Z0.15 F1200.0 E0.01012
G1 F12000.0
G1 E-0.0
G1 F1200.0
M103
G1 X-1.2023 Y25.8203 Z0.15 F3000.0
G1 F12000.0
G1 E0.0
G1 F3000.0
M101
G1 X0.0969 Y27.3196 Z0.15 F1200.0 E0.03608
G1 X-0.82 Y27.3966 Z0.15 F1200.0 E0.01674
G1 X-1.595 Y26.4215 Z0.15 F1200.0 E0.02265
G1 X-1.1878 Y27.2228 Z0.15 F1200.0 E0.01635
G1 X-0.8855 Y27.5251 Z0.15 F1200.0 E0.00777
G1 F12000.0
G1 E-2.0
G1 F1200.0
M103
G1 X-27.839 Y4.3354 Z0.15 F3000.0
G1 F12000.0
G1 E2.0
G1 F3000.0
M101
G1 X-7.5398 Y24.4345 Z0.15 F1200.0 E0.51954
G1 F12000.0
G1 E-0.0
G1 F1200.0
M103
G1 X-8.8253 Y23.943 Z0.15 F3000.0
G1 F12000.0
G1 E0.0
G1 F3000.0
M101
G1 X-27.6109 Y5.1574 Z0.15 F1200.0 E0.48318
G1 F12000.0
G1 E-0.0
G1 F1200.0
M103
G1 X-26.9713 Y6.191 Z0.15 F3000.0
G1 F12000.0
G1 E0.0
G1 F3000.0
M101
G1 X-9.3108 Y23.8515 Z0.15 F1200.0 E0.45424
G1 F12000.0
G1 E-0.0
G1 F1200.0
M103
G1 X-10.5963 Y23.36 Z0.15 F3000.0
G1 F12000.0
G1 E0.0
G1 F3000.0
M101
G1 X-26.9498 Y7.0064 Z0.15 F1200.0 E0.42062
G1 F12000.0
G1 E-0.0
G1 F1200.0
M103
G1 X-26.1284 Y8.2218 Z0.15 F3000.0
G1 F12000.0
G1 E0.0
G1 F3000.0
M101
G1 X-11.2509 Y23.0994 Z0.15 F1200.0 E0.38266
G1 F12000.0
G1 E-0.0
G1 F1200.0
M103
G1 X-12.7753 Y22.3689 Z0.15 F3000.0
G1 F12000.0
G1 E0.0
G1 F3000.0
M101
G1 X-26.107 Y9.0373 Z0.15 F1200.0 E0.3429
G1 F12000.0
G1 E-0.0
G1 F1200.0
M103
G1 X-24.9814 Y10.5567 Z0.15 F3000.0
G1 F12000.0
G1 E0.0
G1 F3000.0
M101
G1 X-13.4998 Y22.0384 Z0.15 F1200.0 E0.29532
G1 F12000.0
G1 E-0.0
G1 F1200.0
M103
G1 X-15.4494 Y20.8828 Z0.15 F3000.0
G1 F12000.0
G1 E0.0
G1 F3000.0
M101
G1 X-24.6021 Y11.7301 Z0.15 F1200.0 E0.23541
G1 F12000.0
G1 E-0.0
G1 F1200.0
M103
G1 X-22.8471 Y13.879 Z0.15 F3000.0
G1 F12000.0
G1 E0.0
G1 F3000.0
M101
G1 X-16.6966 Y20.0295 Z0.15 F1200.0 E0.1582
G1 F12000.0
G1 E-2.0
G1 F1200.0
M103
G1 X-22.1087 Y-22.0087 Z0.15 F3000.0
G1 F12000.0
G1 E2.0
G1 F3000.0
M101
G1 X18.7638 Y18.6638 Z0.15 F1200.0 E1.0487
G1 X18.0373 Y18.9312 Z0.15 F1200.0 E0.01408
G1 X-22.3837 Y-21.6897 Z0.15 F1200.0 E1.04223
G1 X-22.6587 Y-21.1707 Z0.15 F1200.0 E0.01068
G1 X18.1108 Y19.1987 Z0.15 F1200.0 E1.04349
G1 X17.3843 Y19.4662 Z0.15 F1200.0 E0.01408
G1 X-22.9336 Y-21.0517 Z0.15 F1200.0 E1.03958
G1 X-23.194 Y-20.5181 Z0.15 F1200.0 E0.0108
G1 X17.4578 Y19.7337 Z0.15 F1200.0 E1.04046
G1 X16.7313 Y20.0011 Z0.15 F1200.0 E0.01408
G1 X-23.4318 Y-20.3619 Z0.15 F1200.0 E1.0356
G1 X-23.6696 Y-19.8057 Z0.15 F1200.0 E0.011
G1 X16.7788 Y20.2426 Z0.15 F1200.0 E1.03523
G1 X16.0149 Y20.4727 Z0.15 F1200.0 E0.01451
G1 X-23.9074 Y-19.6496 Z0.15 F1200.0 E1.0294
G1 X-24.1452 Y-19.0934 Z0.15 F1200.0 E0.011
G1 X16.0509 Y20.7026 Z0.15 F1200.0 E1.02874
G1 X15.2869 Y20.9326 Z0.15 F1200.0 E0.01451
G1 X-24.383 Y-18.9372 Z0.15 F1200.0 E1.02291
G1 X-24.6208 Y-18.3811 Z0.15 F1200.0 E0.011
G1 X15.323 Y21.1627 Z0.15 F1200.0 E1.02225
G1 X14.559 Y21.3927 Z0.15 F1200.0 E0.01451
G1 X-24.8586 Y-18.2249 Z0.15 F1200.0 E1.01642
G1 X-25.0904 Y-17.6627 Z0.15 F1200.0 E0.01106
G1 X14.595 Y21.6227 Z0.15 F1200.0 E1.01561
G1 X13.8311 Y21.8527 Z0.15 F1200.0 E0.01451
G1 X-25.2891 Y-17.4675 Z0.15 F1200.0 E1.00877
G1 X-25.4879 Y-16.8723 Z0.15 F1200.0 E0.01141
G1 X13.8475 Y22.0631 Z0.15 F1200.0 E1.0066
G1 X13.0439 Y22.2535 Z0.15 F1200.0 E0.01502
G1 X-25.6866 Y-16.6771 Z0.15 F1200.0 E0.99875
G1 X-25.8854 Y-16.0818 Z0.15 F1200.0 E0.01141
G1 X13.0403 Y22.4439 Z0.15 F1200.0 E0.99607
G1 X12.2368 Y22.6343 Z0.15 F1200.0 E0.01502
G1 X-26.0841 Y-15.8866 Z0.15 F1200.0 E0.98821
G1 X-26.2828 Y-15.2914 Z0.15 F1200.0 E0.01141
G1 X12.2332 Y22.8246 Z0.15 F1200.0 E0.98553
G1 X11.4296 Y23.015 Z0.15 F1200.0 E0.01502
G1 X-26.4816 Y-15.0962 Z0.15 F1200.0 E0.97768
G1 X-26.6729 Y-14.4935 Z0.15 F1200.0 E0.0115
G1 X11.426 Y23.2054 Z0.15 F1200.0 E0.9748
G1 X10.6225 Y23.3958 Z0.15 F1200.0 E0.01502
G1 X-26.8293 Y-14.2559 Z0.15 F1200.0 E0.96586
G1 X-26.9856 Y-13.6183 Z0.15 F1200.0 E0.01194
G1 X10.5935 Y23.5609 Z0.15 F1200.0 E0.96143
G1 X9.7467 Y23.708 Z0.15 F1200.0 E0.01563
G1 X-27.142 Y-13.3807 Z0.15 F1200.0 E0.95138
G1 X-27.2984 Y-12.7431 Z0.15 F1200.0 E0.01194
G1 X9.6998 Y23.8551 Z0.15 F1200.0 E0.94649
G1 X8.853 Y24.0022 Z0.15 F1200.0 E0.01563
G1 X-27.4547 Y-12.5055 Z0.15 F1200.0 E0.93643
G1 X-27.6111 Y-11.8679 Z0.15 F1200.0 E0.01194
G1 X8.8061 Y24.1493 Z0.15 F1200.0 E0.93155
G1 X7.9593 Y24.2965 Z0.15 F1200.0 E0.01563
G1 X-27.7674 Y-11.6303 Z0.15 F1200.0 E0.92149
G1 X-27.8962 Y-10.965 Z0.15 F1200.0 E0.01232
G1 X7.9124 Y24.4436 Z0.15 F1200.0 E0.91589
G1 X7.0634 Y24.5886 Z0.15 F1200.0 E0.01566
G1 X-28.0049 Y-10.6798 Z0.15 F1200.0 E0.90456
G1 X-28.1136 Y-9.9945 Z0.15 F1200.0 E0.01262
G1 X6.9805 Y24.6996 Z0.15 F1200.0 E0.89752
G1 X6.0976 Y24.8106 Z0.15 F1200.0 E0.01618
G1 X-28.2223 Y-9.7093 Z0.15 F1200.0 E0.88531
G1 X-28.3311 Y-9.024 Z0.15 F1200.0 E0.01262
G1 X6.0146 Y24.9216 Z0.15 F1200.0 E0.87827
G1 X5.112 Y25.013 Z0.15 F1200.0 E0.0165
G1 X-28.4398 Y-8.7388 Z0.15 F1200.0 E0.86555
G1 X-28.5485 Y-8.0535 Z0.15 F1200.0 E0.01262
G1 X4.9931 Y25.088 Z0.15 F1200.0 E0.85758
G1 X4.0742 Y25.1632 Z0.15 F1200.0 E0.01677
G1 X-28.6303 Y-7.7414 Z0.15 F1200.0 E0.84376
G1 X-28.6833 Y-7.0004 Z0.15 F1200.0 E0.01351
G1 X3.9553 Y25.2382 Z0.15 F1200.0 E0.83436
G1 X3.0365 Y25.3133 Z0.15 F1200.0 E0.01677
G1 X-28.7363 Y-6.6594 Z0.15 F1200.0 E0.81979
G1 X-28.7893 Y-5.9184 Z0.15 F1200.0 E0.01351
G1 X2.9176 Y25.3884 Z0.15 F1200.0 E0.81039
G1 X1.9987 Y25.4635 Z0.15 F1200.0 E0.01677
G1 X-28.8423 Y-5.5775 Z0.15 F1200.0 E0.79583
G1 X-28.8953 Y-4.8365 Z0.15 F1200.0 E0.01351
G1 X1.8798 Y25.5386 Z0.15 F1200.0 E0.78643
G1 X1.2043 Y25.8571 Z0.15 F1200.0 E0.01358
G1 X-28.9483 Y-4.4955 Z0.15 F1200.0 E0.77812
G1 X-28.5337 Y-3.6869 Z0.15 F1200.0 E0.01653
G1 X1.5972 Y26.4439 Z0.15 F1200.0 E0.77499
G1 X1.1901 Y27.0308 Z0.15 F1200.0 E0.01299
G1 X-28.9184 Y-3.2776 Z0.15 F1200.0 E0.77699
G1 X-28.503 Y-2.4684 Z0.15 F1200.0 E0.01654
G1 X1.4569 Y27.4916 Z0.15 F1200.0 E0.77059
G1 X0.334 Y27.1626 Z0.15 F1200.0 E0.02128
G1 X-28.8877 Y-2.0591 Z0.15 F1200.0 E0.7516
G1 X-28.4724 Y-1.2498 Z0.15 F1200.0 E0.01654
G1 X-1.7185 Y25.5041 Z0.15 F1200.0 E0.68813
G1 X-2.813 Y25.2036 Z0.15 F1200.0 E0.02064
G1 X-28.8395 Y-0.8229 Z0.15 F1200.0 E0.66942
G1 X-28.3355 Y0.075 Z0.15 F1200.0 E0.01873
G1 X-3.1075 Y25.303 Z0.15 F1200.0 E0.64888
G1 X-4.202 Y25.0025 Z0.15 F1200.0 E0.02064
G1 X-28.6316 Y0.573 Z0.15 F1200.0 E0.62835
G1 X-28.1276 Y1.4709 Z0.15 F1200.0 E0.01873
G1 X-4.4965 Y25.102 Z0.15 F1200.0 E0.60781
G1 X-5.5909 Y24.8015 Z0.15 F1200.0 E0.02064
G1 X-28.4236 Y1.9688 Z0.15 F1200.0 E0.58727
G1 X-27.8952 Y2.8913 Z0.15 F1200.0 E0.01933
G1 X-5.9395 Y24.847 Z0.15 F1200.0 E0.56472
G1 X-7.1108 Y24.4696 Z0.15 F1200.0 E0.02238
G1 X-28.0671 Y3.5133 Z0.15 F1200.0 E0.53901
G1 F12000.0
G1 E-2.0
G1 F1200.0
M103
G1 X19.0903 Y18.3963 Z0.15 F3000.0
G1 F12000.0
G1 E2.0
G1 F3000.0
M101
G1 X-21.8337 Y-22.3277 Z0.15 F1200.0 E1.05002
G1 X-21.1587 Y-22.6466 Z0.15 F1200.0 E0.01358
G1 X19.4168 Y18.1288 Z0.15 F1200.0 E1.0462
G1 X19.7433 Y17.6614 Z0.15 F1200.0 E0.01037
G1 X-21.2837 Y-22.9656 Z0.15 F1200.0 E1.05011
G1 X-20.6087 Y-23.2846 Z0.15 F1200.0 E0.01358
G1 X20.0352 Y17.5593 Z0.15 F1200.0 E1.04797
G1 X20.3252 Y17.0553 Z0.15 F1200.0 E0.01058
G1 X-20.7255 Y-23.5954 Z0.15 F1200.0 E1.05072
G1 X-20.014 Y-23.8778 Z0.15 F1200.0 E0.01392
G1 X20.6151 Y16.9513 Z0.15 F1200.0 E1.04758
G1 X20.9051 Y16.4473 Z0.15 F1200.0 E0.01058
G1 X-20.1025 Y-24.1603 Z0.15 F1200.0 E1.04961
G1 X-19.391 Y-24.4428 Z0.15 F1200.0 E0.01392
G1 X21.195 Y16.3432 Z0.15 F1200.0 E1.04648
G1 X21.4849 Y15.8392 Z0.15 F1200.0 E0.01058
G1 X-19.4795 Y-24.7253 Z0.15 F1200.0 E1.0485
G1 X-18.768 Y-25.0077 Z0.15 F1200.0 E0.01392
G1 X21.7749 Y15.7352 Z0.15 F1200.0 E1.04537
G1 X22.0648 Y15.2312 Z0.15 F1200.0 E0.01058
G1 X-18.8565 Y-25.2902 Z0.15 F1200.0 E1.04739
G1 X-18.1451 Y-25.5727 Z0.15 F1200.0 E0.01392
G1 X22.3348 Y15.1071 Z0.15 F1200.0 E1.04374
G1 X22.5879 Y14.5663 Z0.15 F1200.0 E0.01086
G1 X-18.2336 Y-25.8552 Z0.15 F1200.0 E1.04483
G1 X-17.4913 Y-26.1069 Z0.15 F1200.0 E0.01425
G1 X22.8411 Y14.4255 Z0.15 F1200.0 E1.03995
G1 X23.0943 Y13.8847 Z0.15 F1200.0 E0.01086
G1 X-17.5429 Y-26.3524 Z0.15 F1200.0 E1.04008
G1 X-16.7944 Y-26.5979 Z0.15 F1200.0 E0.01433
G1 X23.3474 Y13.7439 Z0.15 F1200.0 E1.03505
G1 X23.6006 Y13.2031 Z0.15 F1200.0 E0.01086
G1 X-16.846 Y-26.8435 Z0.15 F1200.0 E1.03518
G1 X-16.0975 Y-27.089 Z0.15 F1200.0 E0.01433
G1 X23.8538 Y13.0623 Z0.15 F1200.0 E1.03015
G1 X24.107 Y12.5215 Z0.15 F1200.0 E0.01086
G1 X-16.1491 Y-27.3345 Z0.15 F1200.0 E1.03028
G1 X-15.4006 Y-27.58 Z0.15 F1200.0 E0.01433
G1 X24.3513 Y12.3719 Z0.15 F1200.0 E1.02502
G1 X24.5664 Y11.793 Z0.15 F1200.0 E0.01123
G1 X-15.4522 Y-27.8255 Z0.15 F1200.0 E1.02417
G1 X-14.6824 Y-28.0498 Z0.15 F1200.0 E0.01458
G1 X24.7814 Y11.6141 Z0.15 F1200.0 E1.01761
G1 X24.9964 Y11.0351 Z0.15 F1200.0 E0.01123
G1 X-14.6954 Y-28.2567 Z0.15 F1200.0 E1.01577
G1 X-13.9084 Y-28.4637 Z0.15 F1200.0 E0.0148
G1 X25.2115 Y10.8562 Z0.15 F1200.0 E1.00877
G1 X25.4265 Y10.2773 Z0.15 F1200.0 E0.01123
G1 X-13.9214 Y-28.6706 Z0.15 F1200.0 E1.00692
G1 X-13.1344 Y-28.8776 Z0.15 F1200.0 E0.0148
G1 X25.6416 Y10.0983 Z0.15 F1200.0 E0.99992
G1 X25.8566 Y9.5194 Z0.15 F1200.0 E0.01123
G1 X-13.1473 Y-29.0845 Z0.15 F1200.0 E0.99808
G1 X-12.3603 Y-29.2915 Z0.15 F1200.0 E0.0148
G1 X26.0663 Y9.3352 Z0.15 F1200.0 E0.99094
G1 X26.2405 Y8.7154 Z0.15 F1200.0 E0.01171
G1 X-12.3733 Y-29.4984 Z0.15 F1200.0 E0.98804
G1 X-11.5651 Y-29.6842 Z0.15 F1200.0 E0.01508
G1 X26.4148 Y8.4957 Z0.15 F1200.0 E0.97944
G1 X26.589 Y7.8759 Z0.15 F1200.0 E0.01171
G1 X-11.5365 Y-29.8496 Z0.15 F1200.0 E0.97548
G1 X-10.7079 Y-30.0149 Z0.15 F1200.0 E0.01537
G1 X26.7632 Y7.6562 Z0.15 F1200.0 E0.96636
G1 X26.9374 Y7.0364 Z0.15 F1200.0 E0.01171
G1 X-10.6793 Y-30.1803 Z0.15 F1200.0 E0.9624
G1 X-9.8507 Y-30.3457 Z0.15 F1200.0 E0.01537
G1 X27.1116 Y6.8166 Z0.15 F1200.0 E0.95327
G1 X27.2858 Y6.1969 Z0.15 F1200.0 E0.01171
G1 X-9.8222 Y-30.5111 Z0.15 F1200.0 E0.94931
G1 X-8.9936 Y-30.6765 Z0.15 F1200.0 E0.01537
G1 X27.4436 Y5.9607 Z0.15 F1200.0 E0.93976
G1 X27.5726 Y5.2957 Z0.15 F1200.0 E0.01232
G1 X-8.965 Y-30.8419 Z0.15 F1200.0 E0.93464
G1 X-8.0981 Y-30.9689 Z0.15 F1200.0 E0.01594
G1 X27.7016 Y5.0307 Z0.15 F1200.0 E0.92337
G1 X27.8306 Y4.3658 Z0.15 F1200.0 E0.01232
G1 X-8.0231 Y-31.0879 Z0.15 F1200.0 E0.91705
G1 X-7.1481 Y-31.2069 Z0.15 F1200.0 E0.01606
G1 X27.9596 Y4.1008 Z0.15 F1200.0 E0.90557
G1 X28.0886 Y3.4358 Z0.15 F1200.0 E0.01232
G1 X-7.0732 Y-31.3259 Z0.15 F1200.0 E0.89926
G1 X-6.1982 Y-31.445 Z0.15 F1200.0 E0.01606
G1 X28.2176 Y3.1709 Z0.15 F1200.0 E0.88777
G1 X28.344 Y2.5033 Z0.15 F1200.0 E0.01236
G1 X-6.1233 Y-31.564 Z0.15 F1200.0 E0.88139
G1 X-5.2483 Y-31.683 Z0.15 F1200.0 E0.01606
G1 X28.421 Y2.1863 Z0.15 F1200.0 E0.86857
G1 X28.498 Y1.4694 Z0.15 F1200.0 E0.01311
G1 X-5.1401 Y-31.7687 Z0.15 F1200.0 E0.86007
G1 X-4.2113 Y-31.8339 Z0.15 F1200.0 E0.01693
G1 X28.575 Y1.1524 Z0.15 F1200.0 E0.84586
G1 X28.652 Y0.4355 Z0.15 F1200.0 E0.01311
G1 X-4.0826 Y-31.8992 Z0.15 F1200.0 E0.83683
G1 X-3.1539 Y-31.9644 Z0.15 F1200.0 E0.01693
G1 X28.729 Y0.1185 Z0.15 F1200.0 E0.82263
G1 X28.806 Y-0.5985 Z0.15 F1200.0 E0.01311
G1 X-3.0251 Y-32.0296 Z0.15 F1200.0 E0.81359
G1 X-2.0964 Y-32.0949 Z0.15 F1200.0 E0.01693
G1 X28.8645 Y-0.934 Z0.15 F1200.0 E0.79891
G1 X28.879 Y-1.7134 Z0.15 F1200.0 E0.01418
G1 X-1.9677 Y-32.1601 Z0.15 F1200.0 E0.78827
G1 X-0.9741 Y-32.1605 Z0.15 F1200.0 E0.01807
G1 X28.8936 Y-2.0928 Z0.15 F1200.0 E0.77079
G1 X28.9082 Y-2.8722 Z0.15 F1200.0 E0.01418
G1 X-0.7801 Y-32.1605 Z0.15 F1200.0 E0.75848
G1 X0.2139 Y-32.1605 Z0.15 F1200.0 E0.01808
G1 X28.9227 Y-3.2516 Z0.15 F1200.0 E0.74099
G1 X28.9373 Y-4.031 Z0.15 F1200.0 E0.01418
G1 X0.4078 Y-32.1605 Z0.15 F1200.0 E0.72867
G1 X1.4018 Y-32.1605 Z0.15 F1200.0 E0.01808
G1 X28.9354 Y-4.4269 Z0.15 F1200.0 E0.71076
G1 X28.4709 Y-5.2854 Z0.15 F1200.0 E0.01775
G1 X1.6002 Y-32.1561 Z0.15 F1200.0 E0.69113
G1 X2.6777 Y-31.8725 Z0.15 F1200.0 E0.02027
G1 X28.8064 Y-5.7439 Z0.15 F1200.0 E0.67205
G1 X28.3419 Y-6.6023 Z0.15 F1200.0 E0.01775
G1 X2.9553 Y-31.9889 Z0.15 F1200.0 E0.65296
G1 X4.0329 Y-31.7053 Z0.15 F1200.0 E0.02027
G1 X28.6774 Y-7.0608 Z0.15 F1200.0 E0.63387
G1 X28.2129 Y-7.9193 Z0.15 F1200.0 E0.01775
G1 X4.3104 Y-31.8217 Z0.15 F1200.0 E0.61479
G1 X5.388 Y-31.5381 Z0.15 F1200.0 E0.02027
G1 X28.4549 Y-8.4712 Z0.15 F1200.0 E0.5933
G1 X27.8834 Y-9.4367 Z0.15 F1200.0 E0.02041
G1 X5.7671 Y-31.553 Z0.15 F1200.0 E0.56885
G1 X6.9597 Y-31.1544 Z0.15 F1200.0 E0.02287
G1 X28.1119 Y-10.0022 Z0.15 F1200.0 E0.54405
G1 X27.5404 Y-10.9676 Z0.15 F1200.0 E0.0204
G1 X7.3522 Y-31.1558 Z0.15 F1200.0 E0.51925
G1 X8.5448 Y-30.7572 Z0.15 F1200.0 E0.02287
G1 X27.7095 Y-11.5925 Z0.15 F1200.0 E0.49293
G1 F12000.0
G1 E-0.0
G1 F1200.0
M103
G1 X26.9792 Y-12.7167 Z0.15 F3000.0
G1 F12000.0
G1 E0.0
G1 F3000.0
M101
G1 X9.0357 Y-30.6602 Z0.15 F1200.0 E0.46152
G1 F12000.0
G1 E-0.0
G1 F1200.0
M103
G1 X10.403 Y-30.087 Z0.15 F3000.0
G1 F12000.0
G1 E0.0
G1 F3000.0
M101
G1 X27.049 Y-13.4409 Z0.15 F1200.0 E0.42815
G1 F12000.0
G1 E-0.0
G1 F1200.0
M103
G1 X26.3188 Y-14.5651 Z0.15 F3000.0
G1 F12000.0
G1 E0.0
G1 F3000.0
M101
G1 X10.9702 Y-29.9137 Z0.15 F1200.0 E0.39478
G1 F12000.0
G1 E-0.0
G1 F1200.0
M103
G1 X12.3865 Y-29.2914 Z0.15 F3000.0
G1 F12000.0
G1 E0.0
G1 F3000.0
M101
G1 X26.178 Y-15.4999 Z0.15 F1200.0 E0.35473
G1 F12000.0
G1 E-0.0
G1 F1200.0
M103
G1 X25.1772 Y-16.8946 Z0.15 F3000.0
G1 F12000.0
G1 E0.0
G1 F3000.0
M101
G1 X13.2631 Y-28.8087 Z0.15 F1200.0 E0.30644
G1 F12000.0
G1 E-0.0
G1 F1200.0
M103
G1 X14.9398 Y-27.926 Z0.15 F3000.0
G1 F12000.0
G1 E0.0
G1 F3000.0
M101
G1 X24.894 Y-17.9718 Z0.15 F1200.0 E0.25603
G1 F12000.0
G1 E-0.0
G1 F1200.0
M103
G1 X23.3007 Y-19.9591 Z0.15 F3000.0
G1 F12000.0
G1 E0.0
G1 F3000.0
M101
G1 X16.3457 Y-26.9141 Z0.15 F1200.0 E0.17889
G1 F12000.0
G1 E-1.09853
G1 F1200.0
M103
G1 X20.0051 Y-24.0487 Z0.15 F3000.0
G1 F12000.0
G1 E1.09853
G1 F3000.0
M101
G1 X21.2561 Y-22.7977 Z0.15 F1200.0 E0.03218
G1 F12000.0
G1 E-2.0
G1 F1200.0
M103
;M108 R50.0
M106 S255
M104 S195.0
G1 X-21.2826 Y-24.6984 Z0.45 F3000.0
G1 F12000.0
G1 E2.0
G1 F3000.0
M101
G1 X-19.9134 Y-25.6323 Z0.45 F2640.0 E0.03425
G1 X-18.5147 Y-26.824 Z0.45 F2640.0 E0.03798
G1 X-17.0457 Y-27.9278 Z0.45 F2640.0 E0.03798
G1 X-15.5118 Y-28.9394 Z0.45 F2640.0 E0.03798
G1 X-13.9187 Y-29.8551 Z0.45 F2640.0 E0.03798
G1 X-12.2724 Y-30.6713 Z0.45 F2640.0 E0.03798
G1 X-10.5792 Y-31.385 Z0.45 F2640.0 E0.03798
G1 X-8.8454 Y-31.9935 Z0.45 F2640.0 E0.03798
G1 X-7.0776 Y-32.4945 Z0.45 F2640.0 E0.03798
G1 X-5.2823 Y-32.8862 Z0.45 F2640.0 E0.03798
G1 X-3.4664 Y-33.167 Z0.45 F2640.0 E0.03798
G1 X-1.6367 Y-33.3359 Z0.45 F2640.0 E0.03798
G1 X0.1999 Y-33.3923 Z0.45 F2640.0 E0.03798
G1 X2.0365 Y-33.136 Z0.45 F2640.0 E0.03833
G1 X3.8662 Y-32.9671 Z0.45 F2640.0 E0.03798
G1 X5.6822 Y-32.6862 Z0.45 F2640.0 E0.03798
G1 X7.4774 Y-32.2946 Z0.45 F2640.0 E0.03798
G1 X9.2453 Y-31.7936 Z0.45 F2640.0 E0.03798
G1 X10.9791 Y-31.185 Z0.45 F2640.0 E0.03798
G1 X12.6723 Y-30.4714 Z0.45 F2640.0 E0.03798
G1 X14.3185 Y-29.6551 Z0.45 F2640.0 E0.03798
G1 X15.9116 Y-28.7395 Z0.45 F2640.0 E0.03798
G1 X17.4456 Y-27.7279 Z0.45 F2640.0 E0.03798
G1 X18.9146 Y-26.6241 Z0.45 F2640.0 E0.03798
G1 X20.3131 Y-25.4323 Z0.45 F2640.0 E0.03798
G1 X21.6359 Y-24.1569 Z0.45 F2640.0 E0.03798
G1 X22.878 Y-22.8028 Z0.45 F2640.0 E0.03798
G1 X24.0348 Y-21.3751 Z0.45 F2640.0 E0.03798
G1 X25.1017 Y-19.8791 Z0.45 F2640.0 E0.03798
G1 X26.0749 Y-18.3205 Z0.45 F2640.0 E0.03798
G1 X26.9507 Y-16.7052 Z0.45 F2640.0 E0.03798
G1 X27.7258 Y-15.0392 Z0.45 F2640.0 E0.03798
G1 X28.3972 Y-13.3287 Z0.45 F2640.0 E0.03798
G1 X28.9625 Y-11.5804 Z0.45 F2640.0 E0.03798
G1 X29.4194 Y-9.8006 Z0.45 F2640.0 E0.03798
G1 X29.7664 Y-7.9962 Z0.45 F2640.0 E0.03798
G1 X30.002 Y-6.1739 Z0.45 F2640.0 E0.03798
G1 X30.1254 Y-4.3405 Z0.45 F2640.0 E0.03798
G1 X30.1361 Y-2.5031 Z0.45 F2640.0 E0.03798
G1 X29.6341 Y-0.6684 Z0.45 F2640.0 E0.03931
G1 X29.4198 Y1.1565 Z0.45 F2640.0 E0.03798
G1 X29.094 Y2.9649 Z0.45 F2640.0 E0.03798
G1 X28.6579 Y4.7499 Z0.45 F2640.0 E0.03798
G1 X28.1131 Y6.5047 Z0.45 F2640.0 E0.03798
G1 X27.4617 Y8.2229 Z0.45 F2640.0 E0.03798
G1 X26.7061 Y9.8978 Z0.45 F2640.0 E0.03798
G1 X25.8493 Y11.5233 Z0.45 F2640.0 E0.03798
G1 X24.8943 Y13.0932 Z0.45 F2640.0 E0.03798
G1 X23.8449 Y14.6015 Z0.45 F2640.0 E0.03798
G1 X22.705 Y16.0426 Z0.45 F2640.0 E0.03798
G1 X21.4788 Y17.4111 Z0.45 F2640.0 E0.03798
G1 X20.1709 Y18.7019 Z0.45 F2640.0 E0.03798
G1 X18.7864 Y19.9099 Z0.45 F2640.0 E0.03798
G1 X17.3304 Y21.0308 Z0.45 F2640.0 E0.03798
G1 X15.8084 Y22.0603 Z0.45 F2640.0 E0.03798
G1 X14.2261 Y22.9945 Z0.45 F2640.0 E0.03798
G1 X12.5895 Y23.8299 Z0.45 F2640.0 E0.03798
G1 X10.9047 Y24.5633 Z0.45 F2640.0 E0.03798
G1 X9.1782 Y25.192 Z0.45 F2640.0 E0.03798
G1 X7.4163 Y25.7136 Z0.45 F2640.0 E0.03798
G1 X5.6273 Y26.1258 Z0.45 F2640.0 E0.03794
G1 X2.7685 Y26.5596 Z0.45 F2640.0 E0.05976
G1 X2.7583 Y30.2466 Z0.45 F2640.0 E0.0762
G1 X2.7253 Y30.7711 Z0.45 F2640.0 E0.01086
G1 X2.5856 Y31.2691 Z0.45 F2640.0 E0.01069
G1 X2.3548 Y31.7326 Z0.45 F2640.0 E0.0107
G1 X2.0427 Y32.1458 Z0.45 F2640.0 E0.0107
G1 X1.6601 Y32.4947 Z0.45 F2640.0 E0.0107
G1 X1.2198 Y32.7673 Z0.45 F2640.0 E0.0107
G1 X0.737 Y32.9543 Z0.45 F2640.0 E0.0107
G1 X0.2283 Y33.0437 Z0.45 F2640.0 E0.01067
G1 X-0.6283 Y32.8437 Z0.45 F2640.0 E0.01818
G1 X-1.137 Y32.7544 Z0.45 F2640.0 E0.01067
G1 X-1.6198 Y32.5673 Z0.45 F2640.0 E0.0107
G1 X-2.0601 Y32.2947 Z0.45 F2640.0 E0.0107
G1 X-2.4427 Y31.9458 Z0.45 F2640.0 E0.0107
G1 X-2.7548 Y31.5326 Z0.45 F2640.0 E0.0107
G1 X-2.9856 Y31.0691 Z0.45 F2640.0 E0.0107
G1 X-3.1253 Y30.5711 Z0.45 F2640.0 E0.01069
G1 X-3.1583 Y30.0466 Z0.45 F2640.0 E0.01086
G1 X-3.1616 Y26.3676 Z0.45 F2640.0 E0.07604
G1 X-6.027 Y25.9259 Z0.45 F2640.0 E0.05992
G1 X-7.8161 Y25.5137 Z0.45 F2640.0 E0.03795
G1 X-9.578 Y24.992 Z0.45 F2640.0 E0.03798
G1 X-11.3046 Y24.3633 Z0.45 F2640.0 E0.03798
G1 X-12.9894 Y23.6299 Z0.45 F2640.0 E0.03798
G1 X-14.626 Y22.7945 Z0.45 F2640.0 E0.03798
G1 X-16.2083 Y21.8604 Z0.45 F2640.0 E0.03798
G1 X-17.7303 Y20.8309 Z0.45 F2640.0 E0.03798
G1 X-19.1863 Y19.71 Z0.45 F2640.0 E0.03798
G1 X-20.5708 Y18.502 Z0.45 F2640.0 E0.03798
G1 X-21.8787 Y17.2112 Z0.45 F2640.0 E0.03798
G1 X-23.1049 Y15.8427 Z0.45 F2640.0 E0.03798
G1 X-24.2448 Y14.4016 Z0.45 F2640.0 E0.03798
G1 X-25.2943 Y12.8933 Z0.45 F2640.0 E0.03798
G1 X-26.2492 Y11.3234 Z0.45 F2640.0 E0.03798
G1 X-27.1061 Y9.698 Z0.45 F2640.0 E0.03798
G1 X-27.8616 Y8.023 Z0.45 F2640.0 E0.03798
G1 X-28.513 Y6.3049 Z0.45 F2640.0 E0.03798
G1 X-29.0578 Y4.55 Z0.45 F2640.0 E0.03798
G1 X-29.494 Y2.7651 Z0.45 F2640.0 E0.03798
G1 X-29.8198 Y0.9567 Z0.45 F2640.0 E0.03798
G1 X-30.0341 Y-0.8683 Z0.45 F2640.0 E0.03798
G1 X-30.1361 Y-2.7029 Z0.45 F2640.0 E0.03798
G1 X-29.7254 Y-4.5404 Z0.45 F2640.0 E0.03891
G1 X-29.602 Y-6.3737 Z0.45 F2640.0 E0.03798
G1 X-29.3664 Y-8.196 Z0.45 F2640.0 E0.03798
G1 X-29.0195 Y-10.0005 Z0.45 F2640.0 E0.03798
G1 X-28.5625 Y-11.7802 Z0.45 F2640.0 E0.03798
G1 X-27.9973 Y-13.5286 Z0.45 F2640.0 E0.03798
G1 X-27.3258 Y-15.239 Z0.45 F2640.0 E0.03798
G1 X-26.5508 Y-16.905 Z0.45 F2640.0 E0.03798
G1 X-25.675 Y-18.5204 Z0.45 F2640.0 E0.03798
G1 X-24.7018 Y-20.079 Z0.45 F2640.0 E0.03798
G1 X-23.6349 Y-21.575 Z0.45 F2640.0 E0.03798
G1 X-22.4781 Y-23.0027 Z0.45 F2640.0 E0.03798
G1 X-21.2362 Y-24.3572 Z0.45 F2640.0 E0.03798
G1 X-20.8826 Y-24.6984 Z0.45 F2640.0 E0.01016
G1 F12000.0
G1 E-2.0
G1 F2640.0
M103
G1 X-0.8408 Y28.7247 Z0.45 F3000.0
G1 F12000.0
G1 E2.0
G1 F3000.0
M101
G1 X-1.6084 Y29.0191 Z0.45 F2640.0 E0.01699
G1 X-1.9024 Y29.4121 Z0.45 F2640.0 E0.01014
G1 X-2.0894 Y29.8659 Z0.45 F2640.0 E0.01014
G1 X-2.1578 Y30.3519 Z0.45 F2640.0 E0.01014
G1 X-1.7031 Y30.8396 Z0.45 F2640.0 E0.01378
G1 X-1.5288 Y31.2984 Z0.45 F2640.0 E0.01014
G1 X-1.2459 Y31.6995 Z0.45 F2640.0 E0.01014
G1 X-0.8722 Y32.0176 Z0.45 F2640.0 E0.01014
G1 X-0.431 Y32.2327 Z0.45 F2640.0 E0.01014
G1 X0.0497 Y32.3314 Z0.45 F2640.0 E0.01014
G1 X0.5399 Y32.1075 Z0.45 F2640.0 E0.01114
G1 X1.0088 Y31.9624 Z0.45 F2640.0 E0.01014
G1 X1.4268 Y31.7052 Z0.45 F2640.0 E0.01014
G1 X1.7677 Y31.3522 Z0.45 F2640.0 E0.01014
G1 X2.0102 Y30.9255 Z0.45 F2640.0 E0.01014
G1 X2.1389 Y30.4518 Z0.45 F2640.0 E0.01014
G1 X2.1458 Y29.9611 Z0.45 F2640.0 E0.01014
G1 X1.6304 Y29.484 Z0.45 F2640.0 E0.01451
G1 X1.4 Y29.0507 Z0.45 F2640.0 E0.01014
G1 X1.069 Y28.6883 Z0.45 F2640.0 E0.01014
G1 X0.6584 Y28.4195 Z0.45 F2640.0 E0.01014
G1 X0.1938 Y28.2613 Z0.45 F2640.0 E0.01014
G1 X-0.2956 Y28.2236 Z0.45 F2640.0 E0.01014
G1 X-0.7789 Y28.5089 Z0.45 F2640.0 E0.0116
G1 X-1.2259 Y28.7116 Z0.45 F2640.0 E0.01014
G1 X-1.2408 Y28.7247 Z0.45 F2640.0 E0.00041
G1 F12000.0
G1 E-0.0
G1 F2640.0
M103
G1 X-0.64 Y28.1391 Z0.45 F3000.0
G1 F12000.0
G1 E0.0
G1 F3000.0
M101
G1 X-1.04 Y-33.0303 Z0.45 F3300.0 E1.01139
G1 X-0.22 Y-33.0432 Z0.45 F3300.0 E0.01356
G1 X-0.62 Y28.2143 Z0.45 F3300.0 E1.01285
G1 F12000.0
G1 E-2.0
G1 F3300.0
M103
G1 X-2.3 Y-32.9742 Z0.45 F3000.0
G1 F12000.0
G1 E2.0
G1 F3000.0
M101
G1 X-2.3 Y29.688 Z0.45 F3300.0 E1.03605
G1 X-1.06 Y28.3631 Z0.45 F3300.0 E0.03
G1 X-1.46 Y-33.0174 Z0.45 F3300.0 E1.01488
G1 X-1.88 Y-32.8046 Z0.45 F3300.0 E0.00779
G1 X-1.88 Y28.944 Z0.45 F3300.0 E1.02094
G1 F12000.0
G1 E-1.87165
G1 F3300.0
M103
G1 X3.14 Y26.024 Z0.45 F3000.0
G1 F12000.0
G1 E1.87165
G1 F3000.0
M101
G1 X2.74 Y-32.8966 Z0.45 F3300.0 E0.97421
G1 X3.56 Y-32.6579 Z0.45 F3300.0 E0.01412
G1 X3.16 Y26.1603 Z0.45 F3300.0 E0.97252
G1 X3.98 Y25.8966 Z0.45 F3300.0 E0.01424
G1 X3.58 Y-32.8094 Z0.45 F3300.0 E0.97066
G1 X4.4 Y-32.5445 Z0.45 F3300.0 E0.01425
G1 X4.0 Y26.0329 Z0.45 F3300.0 E0.96853
G1 X4.82 Y25.7692 Z0.45 F3300.0 E0.01424
G1 X4.42 Y-32.6795 Z0.45 F3300.0 E0.96641
G1 X5.24 Y-32.4146 Z0.45 F3300.0 E0.01425
G1 X4.84 Y25.9054 Z0.45 F3300.0 E0.96428
G1 X5.66 Y25.6417 Z0.45 F3300.0 E0.01424
G1 X5.26 Y-32.5471 Z0.45 F3300.0 E0.96211
G1 X6.08 Y-32.2555 Z0.45 F3300.0 E0.01439
G1 X5.68 Y25.7689 Z0.45 F3300.0 E0.95939
G1 X6.5 Y25.4721 Z0.45 F3300.0 E0.01442
G1 X6.1 Y-32.3639 Z0.45 F3300.0 E0.95628
G1 X6.92 Y-32.0722 Z0.45 F3300.0 E0.01439
G1 X6.52 Y25.5753 Z0.45 F3300.0 E0.95316
G1 X7.34 Y25.2785 Z0.45 F3300.0 E0.01442
G1 X6.94 Y-32.1806 Z0.45 F3300.0 E0.95005
G1 X7.76 Y-31.8652 Z0.45 F3300.0 E0.01453
G1 X7.36 Y25.3798 Z0.45 F3300.0 E0.94651
G1 X8.18 Y25.0555 Z0.45 F3300.0 E0.01458
G1 X7.78 Y-31.9462 Z0.45 F3300.0 E0.94248
G1 X8.6 Y-31.6272 Z0.45 F3300.0 E0.01455
G1 X8.2 Y25.1311 Z0.45 F3300.0 E0.93846
G1 X9.02 Y24.8068 Z0.45 F3300.0 E0.01458
G1 X8.62 Y-31.7081 Z0.45 F3300.0 E0.93443
G1 X9.44 Y-31.3691 Z0.45 F3300.0 E0.01467
G1 X9.04 Y24.8824 Z0.45 F3300.0 E0.93008
G1 X9.86 Y24.5317 Z0.45 F3300.0 E0.01475
G1 X9.46 Y-31.4217 Z0.45 F3300.0 E0.92515
G1 X10.28 Y-31.0743 Z0.45 F3300.0 E0.01472
G1 X9.88 Y24.5788 Z0.45 F3300.0 E0.92019
G1 X10.7 Y24.2259 Z0.45 F3300.0 E0.01476
G1 X10.3 Y-31.1269 Z0.45 F3300.0 E0.91522
G1 X11.12 Y-30.761 Z0.45 F3300.0 E0.01485
G1 X10.72 Y24.2729 Z0.45 F3300.0 E0.90995
G1 X11.54 Y23.8943 Z0.45 F3300.0 E0.01493
G1 X11.14 Y-30.7839 Z0.45 F3300.0 E0.90407
G1 X11.96 Y-30.4069 Z0.45 F3300.0 E0.01492
G1 X11.56 Y23.9115 Z0.45 F3300.0 E0.89812
G1 X12.38 Y23.5287 Z0.45 F3300.0 E0.01496
G1 X11.98 Y-30.4299 Z0.45 F3300.0 E0.89217
G1 X12.8 Y-30.0329 Z0.45 F3300.0 E0.01506
G1 X12.4 Y23.5458 Z0.45 F3300.0 E0.88589
G1 X13.22 Y23.1349 Z0.45 F3300.0 E0.01516
G1 X12.82 Y-30.0247 Z0.45 F3300.0 E0.87896
G1 X13.64 Y-29.6165 Z0.45 F3300.0 E0.01515
G1 X13.24 Y23.1205 Z0.45 F3300.0 E0.87197
G1 X14.06 Y22.7061 Z0.45 F3300.0 E0.01519
G1 X13.66 Y-29.6082 Z0.45 F3300.0 E0.86499
G1 X14.48 Y-29.1747 Z0.45 F3300.0 E0.01534
G1 X14.08 Y22.6905 Z0.45 F3300.0 E0.85756
G1 X14.9 Y22.2425 Z0.45 F3300.0 E0.01545
G1 X14.5 Y-29.1333 Z0.45 F3300.0 E0.84947
G1 X15.32 Y-28.6919 Z0.45 F3300.0 E0.0154
G1 X14.92 Y22.1945 Z0.45 F3300.0 E0.84138
G1 X15.74 Y21.7466 Z0.45 F3300.0 E0.01545
G1 X15.34 Y-28.6502 Z0.45 F3300.0 E0.83328
G1 X16.16 Y-28.1732 Z0.45 F3300.0 E0.01568
G1 X15.76 Y21.6873 Z0.45 F3300.0 E0.82441
G1 X16.58 Y21.2032 Z0.45 F3300.0 E0.01574
G1 X16.18 Y-28.0962 Z0.45 F3300.0 E0.81514
G1 X17.0 Y-27.6192 Z0.45 F3300.0 E0.01568
G1 X16.6 Y21.1192 Z0.45 F3300.0 E0.80586
G1 X17.42 Y20.6351 Z0.45 F3300.0 E0.01574
G1 X17.02 Y-27.5268 Z0.45 F3300.0 E0.79633
G1 X17.84 Y-27.0112 Z0.45 F3300.0 E0.01602
G1 X17.44 Y20.5223 Z0.45 F3300.0 E0.78594
G1 X18.26 Y19.999 Z0.45 F3300.0 E0.01608
G1 X17.86 Y-26.8956 Z0.45 F3300.0 E0.77538
G1 X18.68 Y-26.38 Z0.45 F3300.0 E0.01602
G1 X18.28 Y19.8757 Z0.45 F3300.0 E0.76481
G1 X19.1 Y19.3393 Z0.45 F3300.0 E0.0162
G1 X18.7 Y-26.2246 Z0.45 F3300.0 E0.75338
G1 X19.52 Y-25.6666 Z0.45 F3300.0 E0.0164
G1 X19.12 Y19.1729 Z0.45 F3300.0 E0.7414
G1 X19.94 Y18.6064 Z0.45 F3300.0 E0.01648
G1 X19.54 Y-25.5087 Z0.45 F3300.0 E0.72942
G1 X20.36 Y-24.9203 Z0.45 F3300.0 E0.01669
G1 X19.96 Y18.4379 Z0.45 F3300.0 E0.71691
G1 X20.78 Y17.8234 Z0.45 F3300.0 E0.01694
G1 X20.38 Y-24.7153 Z0.45 F3300.0 E0.70336
G1 X21.2 Y-24.1104 Z0.45 F3300.0 E0.01685
G1 X20.8 Y17.6089 Z0.45 F3300.0 E0.68981
G1 X21.62 Y16.9944 Z0.45 F3300.0 E0.01694
G1 X21.22 Y-23.8772 Z0.45 F3300.0 E0.6758
G1 X22.04 Y-23.2193 Z0.45 F3300.0 E0.01738
G1 X21.64 Y16.7276 Z0.45 F3300.0 E0.66051
G1 X22.46 Y16.0589 Z0.45 F3300.0 E0.01749
G1 X22.06 Y-22.9614 Z0.45 F3300.0 E0.64519
G1 X22.88 Y-22.2666 Z0.45 F3300.0 E0.01777
G1 X22.48 Y15.7853 Z0.45 F3300.0 E0.62918
G1 X23.3 Y15.0544 Z0.45 F3300.0 E0.01816
G1 X22.9 Y-21.9482 Z0.45 F3300.0 E0.61183
G1 X23.72 Y-21.2298 Z0.45 F3300.0 E0.01802
G1 X23.32 Y14.7234 Z0.45 F3300.0 E0.59448
G1 X24.14 Y13.9639 Z0.45 F3300.0 E0.01848
G1 X23.74 Y-20.8488 Z0.45 F3300.0 E0.57563
G1 X24.56 Y-20.06 Z0.45 F3300.0 E0.01881
G1 X24.16 Y13.5602 Z0.45 F3300.0 E0.55591
G1 X24.98 Y12.7566 Z0.45 F3300.0 E0.01898
G1 X24.58 Y-19.6396 Z0.45 F3300.0 E0.53568
G1 X25.4 Y-18.767 Z0.45 F3300.0 E0.0198
G1 X25.0 Y12.2728 Z0.45 F3300.0 E0.51325
G1 X25.82 Y11.3824 Z0.45 F3300.0 E0.02001
G1 X25.42 Y-18.2857 Z0.45 F3300.0 E0.49057
G1 F12000.0
G1 E-0.0
G1 F3300.0
M103
G1 X26.24 Y-17.311 Z0.45 F3000.0
G1 F12000.0
G1 E0.0
G1 F3000.0
M101
G1 X25.84 Y10.8203 Z0.45 F3300.0 E0.46517
G1 F12000.0
G1 E-0.0
G1 F3300.0
M103
G1 X26.66 Y9.8235 Z0.45 F3000.0
G1 F12000.0
G1 E0.0
G1 F3000.0
M101
G1 X26.26 Y-16.7334 Z0.45 F3300.0 E0.43914
G1 F12000.0
G1 E-0.0
G1 F3300.0
M103
G1 X27.08 Y-15.6306 Z0.45 F3000.0
G1 F12000.0
G1 E0.0
G1 F3000.0
M101
G1 X26.68 Y9.1385 Z0.45 F3300.0 E0.40958
G1 F12000.0
G1 E-0.0
G1 F3300.0
M103
G1 X27.5 Y8.0074 Z0.45 F3000.0
G1 F12000.0
G1 E0.0
G1 F3000.0
M101
G1 X27.1 Y-14.8947 Z0.45 F3300.0 E0.37872
G1 F12000.0
G1 E-0.0
G1 F3300.0
M103
G1 X27.92 Y-13.6248 Z0.45 F3000.0
G1 F12000.0
G1 E0.0
G1 F3000.0
M101
G1 X27.52 Y7.1211 Z0.45 F3300.0 E0.34307
G1 F12000.0
G1 E-0.0
G1 F3300.0
M103
G1 X28.34 Y5.7288 Z0.45 F3000.0
G1 F12000.0
G1 E0.0
G1 F3000.0
M101
G1 X27.94 Y-12.6134 Z0.45 F3300.0 E0.30334
G1 F12000.0
G1 E-0.0
G1 F3300.0
M103
G1 X28.76 Y-11.0177 Z0.45 F3000.0
G1 F12000.0
G1 E0.0
G1 F3000.0
M101
G1 X28.36 Y4.5531 Z0.45 F3300.0 E0.25753
G1 F12000.0
G1 E-0.0
G1 F3300.0
M103
G1 X29.18 Y2.6125 Z0.45 F3000.0
G1 F12000.0
G1 E0.0
G1 F3000.0
M101
G1 X28.78 Y-9.4661 Z0.45 F3300.0 E0.19982
G1 F12000.0
G1 E-0.0
G1 F3300.0
M103
G1 X29.6 Y-6.6623 Z0.45 F3000.0
G1 F12000.0
G1 E0.0
G1 F3000.0
M101
G1 X29.2 Y0.1473 Z0.45 F3300.0 E0.11278
G1 F12000.0
G1 E-2.0
G1 F3300.0
M103
G1 X-0.2 Y-33.0561 Z0.45 F3000.0
G1 F12000.0
G1 E2.0
G1 F3000.0
M101
G1 X-0.2 Y28.1678 Z0.45 F3300.0 E1.01227
G1 X0.62 Y28.2001 Z0.45 F3300.0 E0.01357
G1 X0.22 Y-33.0432 Z0.45 F3300.0 E1.01261
G1 X1.04 Y-32.8303 Z0.45 F3300.0 E0.01401
G1 X0.64 Y28.336 Z0.45 F3300.0 E1.01134
G1 X1.46 Y28.5687 Z0.45 F3300.0 E0.01409
G1 X1.06 Y-33.0174 Z0.45 F3300.0 E1.01828
G1 X1.88 Y-32.8046 Z0.45 F3300.0 E0.01401
G1 X1.48 Y28.9491 Z0.45 F3300.0 E1.02105
G1 X2.3 Y29.6824 Z0.45 F3300.0 E0.01819
G1 X1.9 Y-32.9742 Z0.45 F3300.0 E1.03598
G1 X2.72 Y-32.7354 Z0.45 F3300.0 E0.01412
G1 X2.32 Y30.9105 Z0.45 F3300.0 E1.05233
G1 X1.9 Y31.0599 Z0.45 F3300.0 E0.00737
G1 X1.9 Y31.7481 Z0.45 F3300.0 E0.01138
G1 X1.48 Y31.8138 Z0.45 F3300.0 E0.00703
G1 X1.48 Y32.1804 Z0.45 F3300.0 E0.00606
G1 X1.06 Y32.1929 Z0.45 F3300.0 E0.00695
G1 X1.06 Y32.45 Z0.45 F3300.0 E0.00425
G1 X0.64 Y32.2274 Z0.45 F3300.0 E0.00786
G1 X0.64 Y32.6127 Z0.45 F3300.0 E0.00637
G1 X0.22 Y32.3575 Z0.45 F3300.0 E0.00813
G1 X0.22 Y32.6913 Z0.45 F3300.0 E0.00552
G1 X-0.2 Y32.6959 Z0.45 F3300.0 E0.00694
G1 X-0.2 Y32.3869 Z0.45 F3300.0 E0.00511
G1 X-0.62 Y32.344 Z0.45 F3300.0 E0.00698
G1 X-0.62 Y32.6913 Z0.45 F3300.0 E0.00574
G1 X-1.04 Y32.4127 Z0.45 F3300.0 E0.00833
G1 X-1.04 Y32.2228 Z0.45 F3300.0 E0.00314
G1 X-1.46 Y32.45 Z0.45 F3300.0 E0.00789
G1 X-1.46 Y32.0024 Z0.45 F3300.0 E0.0074
G1 X-1.88 Y31.9804 Z0.45 F3300.0 E0.00695
G1 X-1.88 Y31.6229 Z0.45 F3300.0 E0.00591
G1 X-2.3 Y31.5481 Z0.45 F3300.0 E0.00705
G1 X-2.3 Y30.8603 Z0.45 F3300.0 E0.01137
G1 X-2.72 Y30.7105 Z0.45 F3300.0 E0.00737
G1 X-2.72 Y-32.9354 Z0.45 F3300.0 E1.05231
G1 X-3.14 Y-32.6966 Z0.45 F3300.0 E0.00799
G1 X-3.14 Y26.224 Z0.45 F3300.0 E0.97419
G1 X-3.56 Y25.9603 Z0.45 F3300.0 E0.0082
G1 X-3.56 Y-32.8578 Z0.45 F3300.0 E0.97249
G1 X-3.98 Y-32.6094 Z0.45 F3300.0 E0.00807
G1 X-3.98 Y26.0966 Z0.45 F3300.0 E0.97064
G1 X-4.4 Y25.8329 Z0.45 F3300.0 E0.0082
G1 X-4.4 Y-32.7445 Z0.45 F3300.0 E0.96851
G1 X-4.82 Y-32.4795 Z0.45 F3300.0 E0.00821
G1 X-4.82 Y25.9692 Z0.45 F3300.0 E0.96638
G1 X-5.24 Y25.7054 Z0.45 F3300.0 E0.0082
G1 X-5.24 Y-32.6146 Z0.45 F3300.0 E0.96426
G1 X-5.66 Y-32.3471 Z0.45 F3300.0 E0.00823
G1 X-5.66 Y25.8417 Z0.45 F3300.0 E0.96209
G1 X-6.08 Y25.5689 Z0.45 F3300.0 E0.00828
G1 X-6.08 Y-32.4555 Z0.45 F3300.0 E0.95937
G1 X-6.5 Y-32.1639 Z0.45 F3300.0 E0.00845
G1 X-6.5 Y25.6721 Z0.45 F3300.0 E0.95625
G1 X-6.92 Y25.3753 Z0.45 F3300.0 E0.0085
G1 X-6.92 Y-32.2722 Z0.45 F3300.0 E0.95314
G1 X-7.34 Y-31.9806 Z0.45 F3300.0 E0.00845
G1 X-7.34 Y25.4785 Z0.45 F3300.0 E0.95002
G1 X-7.76 Y25.1798 Z0.45 F3300.0 E0.00852
G1 X-7.76 Y-32.0652 Z0.45 F3300.0 E0.94648
G1 X-8.18 Y-31.7462 Z0.45 F3300.0 E0.00872
G1 X-8.18 Y25.2555 Z0.45 F3300.0 E0.94246
G1 X-8.6 Y24.9311 Z0.45 F3300.0 E0.00877
G1 X-8.6 Y-31.8272 Z0.45 F3300.0 E0.93844
G1 X-9.02 Y-31.5081 Z0.45 F3300.0 E0.00872
G1 X-9.02 Y25.0068 Z0.45 F3300.0 E0.93441
G1 X-9.44 Y24.6824 Z0.45 F3300.0 E0.00877
G1 X-9.44 Y-31.5691 Z0.45 F3300.0 E0.93006
G1 X-9.86 Y-31.2217 Z0.45 F3300.0 E0.00901
G1 X-9.86 Y24.7317 Z0.45 F3300.0 E0.92513
G1 X-10.28 Y24.3788 Z0.45 F3300.0 E0.00907
G1 X-10.28 Y-31.2743 Z0.45 F3300.0 E0.92016
G1 X-10.7 Y-30.9269 Z0.45 F3300.0 E0.00901
G1 X-10.7 Y24.4259 Z0.45 F3300.0 E0.9152
G1 X-11.12 Y24.0729 Z0.45 F3300.0 E0.00907
G1 X-11.12 Y-30.961 Z0.45 F3300.0 E0.90992
G1 X-11.54 Y-30.5839 Z0.45 F3300.0 E0.00933
G1 X-11.54 Y24.0943 Z0.45 F3300.0 E0.90404
G1 X-11.96 Y23.7115 Z0.45 F3300.0 E0.0094
G1 X-11.96 Y-30.6069 Z0.45 F3300.0 E0.89809
G1 X-12.38 Y-30.2299 Z0.45 F3300.0 E0.00933
G1 X-12.38 Y23.7287 Z0.45 F3300.0 E0.89214
G1 X-12.8 Y23.3458 Z0.45 F3300.0 E0.0094
G1 X-12.8 Y-30.2329 Z0.45 F3300.0 E0.88587
G1 X-13.22 Y-29.8247 Z0.45 F3300.0 E0.00968
G1 X-13.22 Y23.3349 Z0.45 F3300.0 E0.87894
G1 X-13.64 Y22.9205 Z0.45 F3300.0 E0.00976
G1 X-13.64 Y-29.8165 Z0.45 F3300.0 E0.87195
G1 X-14.06 Y-29.4082 Z0.45 F3300.0 E0.00968
G1 X-14.06 Y22.9061 Z0.45 F3300.0 E0.86496
G1 X-14.48 Y22.4905 Z0.45 F3300.0 E0.00977
G1 X-14.48 Y-29.3747 Z0.45 F3300.0 E0.85753
G1 X-14.9 Y-28.9333 Z0.45 F3300.0 E0.01007
G1 X-14.9 Y22.4425 Z0.45 F3300.0 E0.84944
G1 X-15.32 Y21.9945 Z0.45 F3300.0 E0.01015
G1 X-15.32 Y-28.8919 Z0.45 F3300.0 E0.84135
G1 X-15.74 Y-28.4502 Z0.45 F3300.0 E0.01008
G1 X-15.74 Y21.9466 Z0.45 F3300.0 E0.83325
G1 X-16.16 Y21.4873 Z0.45 F3300.0 E0.01029
G1 X-16.16 Y-28.3732 Z0.45 F3300.0 E0.82439
G1 X-16.58 Y-27.8962 Z0.45 F3300.0 E0.01051
G1 X-16.58 Y21.4032 Z0.45 F3300.0 E0.81511
G1 X-17.0 Y20.9191 Z0.45 F3300.0 E0.0106
G1 X-17.0 Y-27.8192 Z0.45 F3300.0 E0.80583
G1 X-17.42 Y-27.3268 Z0.45 F3300.0 E0.0107
G1 X-17.42 Y20.8351 Z0.45 F3300.0 E0.7963
G1 X-17.84 Y20.3224 Z0.45 F3300.0 E0.01096
G1 X-17.84 Y-27.2112 Z0.45 F3300.0 E0.78591
G1 X-18.26 Y-26.6956 Z0.45 F3300.0 E0.011
G1 X-18.26 Y20.199 Z0.45 F3300.0 E0.77535
G1 X-18.68 Y19.6757 Z0.45 F3300.0 E0.01109
G1 X-18.68 Y-26.58 Z0.45 F3300.0 E0.76479
G1 X-19.1 Y-26.0246 Z0.45 F3300.0 E0.01151
G1 X-19.1 Y19.5393 Z0.45 F3300.0 E0.75335
G1 X-19.52 Y18.9729 Z0.45 F3300.0 E0.01166
G1 X-19.52 Y-25.8666 Z0.45 F3300.0 E0.74137
G1 X-19.94 Y-25.3087 Z0.45 F3300.0 E0.01155
G1 X-19.94 Y18.8064 Z0.45 F3300.0 E0.72939
G1 X-20.36 Y18.2379 Z0.45 F3300.0 E0.01169
G1 X-20.36 Y-25.1203 Z0.45 F3300.0 E0.71688
G1 X-20.78 Y-24.5153 Z0.45 F3300.0 E0.01218
G1 X-20.78 Y18.0234 Z0.45 F3300.0 E0.70333
G1 X-21.2 Y17.4089 Z0.45 F3300.0 E0.01231
G1 X-21.2 Y-24.3104 Z0.45 F3300.0 E0.68978
G1 X-21.62 Y-23.6772 Z0.45 F3300.0 E0.01256
G1 X-21.62 Y17.1944 Z0.45 F3300.0 E0.67577
G1 X-22.04 Y16.5276 Z0.45 F3300.0 E0.01303
G1 X-22.04 Y-23.4193 Z0.45 F3300.0 E0.66048
G1 X-22.46 Y-22.7614 Z0.45 F3300.0 E0.0129
G1 X-22.46 Y16.2589 Z0.45 F3300.0 E0.64516
G1 X-22.88 Y15.5854 Z0.45 F3300.0 E0.01312
G1 X-22.88 Y-22.4666 Z0.45 F3300.0 E0.62915
G1 X-23.3 Y-21.7482 Z0.45 F3300.0 E0.01376
G1 X-23.3 Y15.2544 Z0.45 F3300.0 E0.6118
G1 X-23.72 Y14.5234 Z0.45 F3300.0 E0.01394
G1 X-23.72 Y-21.4298 Z0.45 F3300.0 E0.59445
G1 X-24.14 Y-20.6488 Z0.45 F3300.0 E0.01466
G1 X-24.14 Y14.1639 Z0.45 F3300.0 E0.57559
G1 X-24.56 Y13.3602 Z0.45 F3300.0 E0.01499
G1 X-24.56 Y-20.2599 Z0.45 F3300.0 E0.55587
G1 X-24.98 Y-19.4396 Z0.45 F3300.0 E0.01524
G1 X-24.98 Y12.9566 Z0.45 F3300.0 E0.53563
G1 X-25.4 Y12.0728 Z0.45 F3300.0 E0.01618
G1 X-25.4 Y-18.967 Z0.45 F3300.0 E0.51321
G1 X-25.82 Y-18.0857 Z0.45 F3300.0 E0.01614
G1 X-25.82 Y11.5824 Z0.45 F3300.0 E0.49053
G1 F12000.0
G1 E-0.0
G1 F3300.0
M103
G1 X-26.24 Y10.6203 Z0.45 F3000.0
G1 F12000.0
G1 E0.0
G1 F3000.0
M101
G1 X-26.24 Y-17.511 Z0.45 F3300.0 E0.46512
G1 F12000.0
G1 E-0.0
G1 F3300.0
M103
G1 X-26.66 Y-16.5334 Z0.45 F3000.0
G1 F12000.0
G1 E0.0
G1 F3000.0
M101
G1 X-26.66 Y10.0235 Z0.45 F3300.0 E0.43909
G1 F12000.0
G1 E-0.0
G1 F3300.0
M103
G1 X-27.08 Y8.9385 Z0.45 F3000.0
G1 F12000.0
G1 E0.0
G1 F3000.0
M101
G1 X-27.08 Y-15.8306 Z0.45 F3300.0 E0.40953
G1 F12000.0
G1 E-0.0
G1 F3300.0
M103
G1 X-27.5 Y-14.6947 Z0.45 F3000.0
G1 F12000.0
G1 E0.0
G1 F3000.0
M101
G1 X-27.5 Y8.2074 Z0.45 F3300.0 E0.37866
G1 F12000.0
G1 E-0.0
G1 F3300.0
M103
G1 X-27.92 Y6.9211 Z0.45 F3000.0
G1 F12000.0
G1 E0.0
G1 F3000.0
M101
G1 X-27.92 Y-13.8248 Z0.45 F3300.0 E0.34301
G1 F12000.0
G1 E-0.0
G1 F3300.0
M103
G1 X-28.34 Y-12.4133 Z0.45 F3000.0
G1 F12000.0
G1 E0.0
G1 F3000.0
M101
G1 X-28.34 Y5.9288 Z0.45 F3300.0 E0.30327
G1 F12000.0
G1 E-0.0
G1 F3300.0
M103
G1 X-28.76 Y4.3531 Z0.45 F3000.0
G1 F12000.0
G1 E0.0
G1 F3000.0
M101
G1 X-28.76 Y-11.2177 Z0.45 F3300.0 E0.25745
G1 F12000.0
G1 E-0.0
G1 F3300.0
M103
G1 X-29.18 Y-9.2661 Z0.45 F3000.0
G1 F12000.0
G1 E0.0
G1 F3000.0
M101
G1 X-29.18 Y2.8125 Z0.45 F3300.0 E0.19971
G1 F12000.0
G1 E-0.0
G1 F3300.0
M103
G1 X-29.6 Y-0.0527 Z0.45 F3000.0
G1 F12000.0
G1 E0.0
G1 F3000.0
M101
G1 X-29.6 Y-6.8623 Z0.45 F3300.0 E0.11259
G1 F12000.0
G1 E-2.0
G1 F3300.0
M103
M104 S195.0
M106 S255
G1 X-18.9592 Y-26.4458 Z0.75 F3000.0
G1 F12000.0
G1 E2.0
G1 F3000.0
M101
G1 X-18.5123 Y-26.8264 Z0.75 F2400.0 E0.01334
G1 X-17.0431 Y-27.9296 Z0.75 F2400.0 E0.04177
G1 X-15.5094 Y-28.9409 Z0.75 F2400.0 E0.04177
G1 X-13.9165 Y-29.8562 Z0.75 F2400.0 E0.04177
G1 X-12.2704 Y-30.6722 Z0.75 F2400.0 E0.04177
G1 X-10.5775 Y-31.3857 Z0.75 F2400.0 E0.04177
G1 X-8.8439 Y-31.994 Z0.75 F2400.0 E0.04177
G1 X-7.0763 Y-32.4949 Z0.75 F2400.0 E0.04177
G1 X-5.2814 Y-32.8864 Z0.75 F2400.0 E0.04177
G1 X-3.4658 Y-33.1671 Z0.75 F2400.0 E0.04177
G1 X-1.6364 Y-33.336 Z0.75 F2400.0 E0.04177
G1 X0.1999 Y-33.3923 Z0.75 F2400.0 E0.04177
G1 X2.0362 Y-33.136 Z0.75 F2400.0 E0.04215
G1 X3.8656 Y-32.9671 Z0.75 F2400.0 E0.04177
G1 X5.6812 Y-32.6864 Z0.75 F2400.0 E0.04177
G1 X7.4762 Y-32.2949 Z0.75 F2400.0 E0.04177
G1 X9.2438 Y-31.794 Z0.75 F2400.0 E0.04177
G1 X10.9773 Y-31.1857 Z0.75 F2400.0 E0.04177
G1 X12.6703 Y-30.4723 Z0.75 F2400.0 E0.04177
G1 X14.3163 Y-29.6563 Z0.75 F2400.0 E0.04177
G1 X15.9092 Y-28.741 Z0.75 F2400.0 E0.04177
G1 X17.443 Y-27.7297 Z0.75 F2400.0 E0.04177
G1 X18.9119 Y-26.6262 Z0.75 F2400.0 E0.04177
G1 X20.3103 Y-25.4348 Z0.75 F2400.0 E0.04177
G1 X21.6331 Y-24.1598 Z0.75 F2400.0 E0.04177
G1 X22.8752 Y-22.8061 Z0.75 F2400.0 E0.04177
G1 X24.0319 Y-21.3788 Z0.75 F2400.0 E0.04177
G1 X25.0989 Y-19.8833 Z0.75 F2400.0 E0.04177
G1 X26.0723 Y-18.3252 Z0.75 F2400.0 E0.04177
G1 X26.9482 Y-16.7102 Z0.75 F2400.0 E0.04177
G1 X27.7234 Y-15.0447 Z0.75 F2400.0 E0.04177
G1 X28.3951 Y-13.3346 Z0.75 F2400.0 E0.04177
G1 X28.9606 Y-11.5867 Z0.75 F2400.0 E0.04177
G1 X29.4179 Y-9.8073 Z0.75 F2400.0 E0.04177
G1 X29.7652 Y-8.0033 Z0.75 F2400.0 E0.04177
G1 X30.0012 Y-6.1814 Z0.75 F2400.0 E0.04177
G1 X30.1251 Y-4.3484 Z0.75 F2400.0 E0.04177
G1 X30.1363 Y-2.5112 Z0.75 F2400.0 E0.04177
G1 X29.6349 Y-0.6768 Z0.75 F2400.0 E0.04323
G1 X29.4211 Y1.1478 Z0.75 F2400.0 E0.04177
G1 X29.0959 Y2.956 Z0.75 F2400.0 E0.04177
G1 X28.6604 Y4.7408 Z0.75 F2400.0 E0.04177
G1 X28.1162 Y6.4955 Z0.75 F2400.0 E0.04177
G1 X27.4655 Y8.2136 Z0.75 F2400.0 E0.04177
G1 X26.7107 Y9.8885 Z0.75 F2400.0 E0.04177
G1 X25.8545 Y11.514 Z0.75 F2400.0 E0.04177
G1 X24.9003 Y13.0839 Z0.75 F2400.0 E0.04177
G1 X23.8516 Y14.5924 Z0.75 F2400.0 E0.04177
G1 X22.7124 Y16.0337 Z0.75 F2400.0 E0.04177
G1 X21.487 Y17.4025 Z0.75 F2400.0 E0.04177
G1 X20.1799 Y18.6935 Z0.75 F2400.0 E0.04177
G1 X18.7961 Y19.9019 Z0.75 F2400.0 E0.04177
G1 X17.3408 Y21.0233 Z0.75 F2400.0 E0.04177
G1 X15.8195 Y22.0532 Z0.75 F2400.0 E0.04177
G1 X14.2379 Y22.9879 Z0.75 F2400.0 E0.04177
G1 X12.602 Y23.8239 Z0.75 F2400.0 E0.04177
G1 X10.9179 Y24.558 Z0.75 F2400.0 E0.04177
G1 X9.1919 Y25.1874 Z0.75 F2400.0 E0.04177
G1 X7.4306 Y25.7099 Z0.75 F2400.0 E0.04177
G1 X5.6417 Y26.1229 Z0.75 F2400.0 E0.04174
G1 X2.9703 Y26.5382 Z0.75 F2400.0 E0.06146
G1 X2.96 Y30.2465 Z0.75 F2400.0 E0.0843
G1 X2.923 Y30.808 Z0.75 F2400.0 E0.01279
G1 X2.7729 Y31.3417 Z0.75 F2400.0 E0.0126
G1 X2.5256 Y31.8384 Z0.75 F2400.0 E0.01262
G1 X2.1912 Y32.2812 Z0.75 F2400.0 E0.01261
G1 X1.7811 Y32.655 Z0.75 F2400.0 E0.01261
G1 X1.3093 Y32.9471 Z0.75 F2400.0 E0.01261
G1 X0.7919 Y33.1475 Z0.75 F2400.0 E0.01261
G1 X0.2468 Y33.2438 Z0.75 F2400.0 E0.01258
G1 X-0.6468 Y33.0438 Z0.75 F2400.0 E0.02082
G1 X-1.1919 Y32.9475 Z0.75 F2400.0 E0.01258
G1 X-1.7093 Y32.7471 Z0.75 F2400.0 E0.01261
G1 X-2.1811 Y32.455 Z0.75 F2400.0 E0.01261
G1 X-2.5912 Y32.0812 Z0.75 F2400.0 E0.01261
G1 X-2.9256 Y31.6384 Z0.75 F2400.0 E0.01261
G1 X-3.1729 Y31.1416 Z0.75 F2400.0 E0.01262
G1 X-3.323 Y30.608 Z0.75 F2400.0 E0.0126
G1 X-3.36 Y30.0465 Z0.75 F2400.0 E0.01279
G1 X-3.3633 Y26.3464 Z0.75 F2400.0 E0.08412
G1 X-6.0415 Y25.923 Z0.75 F2400.0 E0.06164
G1 X-7.8304 Y25.5099 Z0.75 F2400.0 E0.04174
G1 X-9.5917 Y24.9875 Z0.75 F2400.0 E0.04177
G1 X-11.3177 Y24.3581 Z0.75 F2400.0 E0.04177
G1 X-13.0018 Y23.624 Z0.75 F2400.0 E0.04177
G1 X-14.6378 Y22.788 Z0.75 F2400.0 E0.04177
G1 X-16.2194 Y21.8533 Z0.75 F2400.0 E0.04177
G1 X-17.7407 Y20.8234 Z0.75 F2400.0 E0.04177
G1 X-19.196 Y19.702 Z0.75 F2400.0 E0.04177
G1 X-20.5798 Y18.4936 Z0.75 F2400.0 E0.04177
G1 X-21.8869 Y17.2026 Z0.75 F2400.0 E0.04177
G1 X-23.1123 Y15.8338 Z0.75 F2400.0 E0.04177
G1 X-24.2515 Y14.3925 Z0.75 F2400.0 E0.04177
G1 X-25.3002 Y12.8841 Z0.75 F2400.0 E0.04177
G1 X-26.2544 Y11.3141 Z0.75 F2400.0 E0.04177
G1 X-27.1106 Y9.6887 Z0.75 F2400.0 E0.04177
G1 X-27.8654 Y8.0137 Z0.75 F2400.0 E0.04177
G1 X-28.5162 Y6.2957 Z0.75 F2400.0 E0.04177
G1 X-29.0603 Y4.5409 Z0.75 F2400.0 E0.04177
G1 X-29.4958 Y2.7561 Z0.75 F2400.0 E0.04177
G1 X-29.8211 Y0.948 Z0.75 F2400.0 E0.04177
G1 X-30.0349 Y-0.8767 Z0.75 F2400.0 E0.04177
G1 X-30.1363 Y-2.7111 Z0.75 F2400.0 E0.04177
G1 X-29.7251 Y-4.5482 Z0.75 F2400.0 E0.0428
G1 X-29.6013 Y-6.3812 Z0.75 F2400.0 E0.04177
G1 X-29.3652 Y-8.2032 Z0.75 F2400.0 E0.04177
G1 X-29.0179 Y-10.0072 Z0.75 F2400.0 E0.04177
G1 X-28.5607 Y-11.7866 Z0.75 F2400.0 E0.04177
G1 X-27.9951 Y-13.5345 Z0.75 F2400.0 E0.04177
G1 X-27.3235 Y-15.2445 Z0.75 F2400.0 E0.04177
G1 X-26.5482 Y-16.9101 Z0.75 F2400.0 E0.04177
G1 X-25.6723 Y-18.525 Z0.75 F2400.0 E0.04177
G1 X-24.699 Y-20.0832 Z0.75 F2400.0 E0.04177
G1 X-23.632 Y-21.5787 Z0.75 F2400.0 E0.04177
G1 X-22.4753 Y-23.006 Z0.75 F2400.0 E0.04177
G1 X-21.2332 Y-24.3597 Z0.75 F2400.0 E0.04177
G1 X-19.9105 Y-25.6349 Z0.75 F2400.0 E0.04177
G1 X-18.9592 Y-26.4458 Z0.75 F2400.0 E0.02842
G1 F12000.0
G1 E-2.0
G1 F2400.0
M103
G1 X-1.6104 Y31.0688 Z0.75 F3000.0
G1 F12000.0
G1 E2.0
G1 F3000.0
M101
G1 X-1.5367 Y31.2819 Z0.75 F2400.0 E0.00513
G1 X-1.2577 Y31.6855 Z0.75 F2400.0 E0.01115
G1 X-0.8871 Y32.0069 Z0.75 F2400.0 E0.01115
G1 X-0.4481 Y32.2261 Z0.75 F2400.0 E0.01115
G1 X0.0316 Y32.3293 Z0.75 F2400.0 E0.01115
G1 X0.5218 Y32.1099 Z0.75 F2400.0 E0.01221
G1 X0.9918 Y31.9692 Z0.75 F2400.0 E0.01115
G1 X1.4121 Y31.7161 Z0.75 F2400.0 E0.01115
G1 X1.7562 Y31.3664 Z0.75 F2400.0 E0.01115
G1 X2.0025 Y30.9421 Z0.75 F2400.0 E0.01115
G1 X2.1356 Y30.4698 Z0.75 F2400.0 E0.01115
G1 X2.147 Y29.9793 Z0.75 F2400.0 E0.01115
G1 X1.6361 Y29.5014 Z0.75 F2400.0 E0.0159
G1 X1.4099 Y29.0661 Z0.75 F2400.0 E0.01115
G1 X1.0825 Y28.7007 Z0.75 F2400.0 E0.01115
G1 X0.6745 Y28.4282 Z0.75 F2400.0 E0.01115
G1 X0.2115 Y28.2658 Z0.75 F2400.0 E0.01115
G1 X-0.2773 Y28.2235 Z0.75 F2400.0 E0.01115
G1 X-0.7612 Y28.5042 Z0.75 F2400.0 E0.01272
G1 X-1.2099 Y28.7027 Z0.75 F2400.0 E0.01115
G1 X-1.5952 Y29.0065 Z0.75 F2400.0 E0.01115
G1 X-1.8927 Y29.3966 Z0.75 F2400.0 E0.01115
G1 X-2.0839 Y29.8484 Z0.75 F2400.0 E0.01115
G1 X-2.1567 Y30.3336 Z0.75 F2400.0 E0.01115
G1 X-1.7066 Y30.8217 Z0.75 F2400.0 E0.01509
G1 X-1.6104 Y31.0688 Z0.75 F2400.0 E0.00603
G1 F12000.0
G1 E-0.91039
G1 F2400.0
M103
G1 X-2.5146 Y26.7979 Z0.75 F3000.0
G1 F12000.0
G1 E0.91039
G1 F3000.0
M101
G1 X-2.0998 Y25.6263 Z0.75 F3000.0 E0.0226
G1 X-5.8823 Y25.0977 Z0.75 F3000.0 E0.06946
G1 X-7.6098 Y24.6987 Z0.75 F3000.0 E0.03225
G1 X-11.0052 Y23.5772 Z0.75 F3000.0 E0.06503
G1 X-14.232 Y22.0513 Z0.75 F3000.0 E0.06492
G1 X-17.2478 Y20.1419 Z0.75 F3000.0 E0.06492
G1 X-20.0071 Y17.8776 Z0.75 F3000.0 E0.06492
G1 X-22.4686 Y15.2926 Z0.75 F3000.0 E0.06492
G1 X-24.5951 Y12.4257 Z0.75 F3000.0 E0.06492
G1 X-26.3546 Y9.32 Z0.75 F3000.0 E0.06492
G1 X-27.7208 Y6.0224 Z0.75 F3000.0 E0.06492
G1 X-28.673 Y2.5822 Z0.75 F3000.0 E0.06492
G1 X-29.1969 Y-0.9486 Z0.75 F3000.0 E0.06492
G1 X-29.2846 Y-4.5169 Z0.75 F3000.0 E0.06492
G1 X-28.5349 Y-8.0692 Z0.75 F3000.0 E0.06603
G1 X-27.753 Y-11.552 Z0.75 F3000.0 E0.06492
G1 X-26.5506 Y-14.9129 Z0.75 F3000.0 E0.06492
G1 X-24.9458 Y-18.1013 Z0.75 F3000.0 E0.06492
G1 X-22.9628 Y-21.0692 Z0.75 F3000.0 E0.06492
G1 X-20.6315 Y-23.7721 Z0.75 F3000.0 E0.06492
G1 X-17.9867 Y-26.1693 Z0.75 F3000.0 E0.06492
G1 X-15.0684 Y-28.2247 Z0.75 F3000.0 E0.06492
G1 X-11.9205 Y-29.9074 Z0.75 F3000.0 E0.06492
G1 X-8.5902 Y-31.1921 Z0.75 F3000.0 E0.06492
G1 X-5.1277 Y-32.0595 Z0.75 F3000.0 E0.06492
G1 X-1.5851 Y-32.4965 Z0.75 F3000.0 E0.06492
G1 X1.9843 Y-32.4965 Z0.75 F3000.0 E0.06492
G1 X5.527 Y-31.8596 Z0.75 F3000.0 E0.06546
G1 X8.9895 Y-30.9923 Z0.75 F3000.0 E0.06492
G1 X12.3198 Y-29.7077 Z0.75 F3000.0 E0.06492
G1 X15.4677 Y-28.0251 Z0.75 F3000.0 E0.06492
G1 X18.3861 Y-25.9698 Z0.75 F3000.0 E0.06492
G1 X21.0309 Y-23.5727 Z0.75 F3000.0 E0.06492
G1 X23.3623 Y-20.8698 Z0.75 F3000.0 E0.06492
G1 X25.3454 Y-17.9019 Z0.75 F3000.0 E0.06492
G1 X26.9503 Y-14.7136 Z0.75 F3000.0 E0.06492
G1 X28.1528 Y-11.3528 Z0.75 F3000.0 E0.06492
G1 X28.9348 Y-7.87 Z0.75 F3000.0 E0.06492
G1 X29.2846 Y-4.3178 Z0.75 F3000.0 E0.06492
G1 X28.7969 Y-0.7494 Z0.75 F3000.0 E0.0655
G1 X28.2731 Y2.7814 Z0.75 F3000.0 E0.06492
G1 X27.321 Y6.2216 Z0.75 F3000.0 E0.06492
G1 X25.955 Y9.5193 Z0.75 F3000.0 E0.06492
G1 X24.1955 Y12.625 Z0.75 F3000.0 E0.06492
G1 X22.0691 Y15.4919 Z0.75 F3000.0 E0.06492
G1 X19.6077 Y18.077 Z0.75 F3000.0 E0.06492
G1 X16.8484 Y20.3414 Z0.75 F3000.0 E0.06492
G1 X13.8327 Y22.2509 Z0.75 F3000.0 E0.06492
G1 X10.6059 Y23.7769 Z0.75 F3000.0 E0.06492
G1 X7.2102 Y24.8986 Z0.75 F3000.0 E0.06504
G1 X5.4825 Y25.2976 Z0.75 F3000.0 E0.03225
G1 X2.1349 Y25.818 Z0.75 F3000.0 E0.06161
G1 X2.097 Y28.5996 Z0.75 F3000.0 E0.05059
G1 X1.8604 Y28.6623 Z0.75 F3000.0 E0.00445
G1 X1.602 Y28.1438 Z0.75 F3000.0 E0.01054
G1 X1.0277 Y27.7209 Z0.75 F3000.0 E0.01297
G1 X0.3777 Y27.4928 Z0.75 F3000.0 E0.01253
G1 X-0.3085 Y27.4336 Z0.75 F3000.0 E0.01253
G1 X-0.9879 Y27.7468 Z0.75 F3000.0 E0.01361
G1 X-1.6117 Y28.0383 Z0.75 F3000.0 E0.01252
G1 X-2.0196 Y28.4031 Z0.75 F3000.0 E0.00995
G1 X-2.5189 Y28.4643 Z0.75 F3000.0 E0.00915
G1 X-2.1146 Y26.7979 Z0.75 F3000.0 E0.03119
G1 F12000.0
G1 E-0.48854
G1 F3000.0
M103
G1 X-2.0814 Y30.5305 Z0.75 F3000.0
G1 F12000.0
G1 E0.48854
G1 F3000.0
M101
G1 X-2.0216 Y30.9495 Z0.75 F3000.0 E0.0077
G1 X-1.9568 Y31.1161 Z0.75 F3000.0 E0.00325
G1 X-2.736 Y31.3158 Z0.75 F3000.0 E0.01463
G1 X-2.8933 Y30.5571 Z0.75 F3000.0 E0.01409
G1 X-2.9435 Y25.987 Z0.75 F3000.0 E0.08312
G1 X-5.9619 Y25.5103 Z0.75 F3000.0 E0.05558
G1 X-7.7232 Y25.1035 Z0.75 F3000.0 E0.03288
G1 X-11.1614 Y23.9679 Z0.75 F3000.0 E0.06585
G1 X-14.4349 Y22.42 Z0.75 F3000.0 E0.06586
G1 X-17.4943 Y20.4829 Z0.75 F3000.0 E0.06586
G1 X-20.2935 Y18.1859 Z0.75 F3000.0 E0.06586
G1 X-22.7905 Y15.5635 Z0.75 F3000.0 E0.06586
G1 X-24.9478 Y12.6552 Z0.75 F3000.0 E0.06586
G1 X-26.7328 Y9.5046 Z0.75 F3000.0 E0.06586
G1 X-28.1186 Y6.1593 Z0.75 F3000.0 E0.06586
G1 X-29.0846 Y2.6694 Z0.75 F3000.0 E0.06586
G1 X-29.6161 Y-0.9124 Z0.75 F3000.0 E0.06586
G1 X-29.7051 Y-4.5324 Z0.75 F3000.0 E0.06586
G1 X-28.9504 Y-8.1361 Z0.75 F3000.0 E0.06696
G1 X-28.1571 Y-11.6692 Z0.75 F3000.0 E0.06586
G1 X-26.9373 Y-15.0786 Z0.75 F3000.0 E0.06586
G1 X-25.3094 Y-18.3131 Z0.75 F3000.0 E0.06586
G1 X-23.2977 Y-21.324 Z0.75 F3000.0 E0.06586
G1 X-20.9326 Y-24.066 Z0.75 F3000.0 E0.06586
G1 X-18.2497 Y-26.4978 Z0.75 F3000.0 E0.06586
G1 X-15.2892 Y-28.5829 Z0.75 F3000.0 E0.06586
G1 X-12.0957 Y-30.29 Z0.75 F3000.0 E0.06586
G1 X-8.7173 Y-31.5932 Z0.75 F3000.0 E0.06586
G1 X-5.2048 Y-32.4731 Z0.75 F3000.0 E0.06586
G1 X-1.6109 Y-32.9165 Z0.75 F3000.0 E0.06586
G1 X2.0101 Y-32.9165 Z0.75 F3000.0 E0.06586
G1 X5.604 Y-32.2733 Z0.75 F3000.0 E0.0664
G1 X9.1165 Y-31.3935 Z0.75 F3000.0 E0.06586
G1 X12.495 Y-30.0903 Z0.75 F3000.0 E0.06586
G1 X15.6885 Y-28.3834 Z0.75 F3000.0 E0.06586
G1 X18.649 Y-26.2983 Z0.75 F3000.0 E0.06586
G1 X21.3321 Y-23.8665 Z0.75 F3000.0 E0.06586
G1 X23.6972 Y-21.1246 Z0.75 F3000.0 E0.06586
G1 X25.709 Y-18.1138 Z0.75 F3000.0 E0.06586
G1 X27.337 Y-14.8794 Z0.75 F3000.0 E0.06586
G1 X28.5569 Y-11.47 Z0.75 F3000.0 E0.06586
G1 X29.3502 Y-7.9369 Z0.75 F3000.0 E0.06586
G1 X29.7051 Y-4.3332 Z0.75 F3000.0 E0.06586
G1 X29.2162 Y-0.7133 Z0.75 F3000.0 E0.06644
G1 X28.6848 Y2.8686 Z0.75 F3000.0 E0.06586
G1 X27.7189 Y6.3585 Z0.75 F3000.0 E0.06586
G1 X26.3331 Y9.7039 Z0.75 F3000.0 E0.06586
G1 X24.5482 Y12.8545 Z0.75 F3000.0 E0.06586
G1 X22.3911 Y15.7629 Z0.75 F3000.0 E0.06586
G1 X19.8941 Y18.3853 Z0.75 F3000.0 E0.06586
G1 X17.0949 Y20.6824 Z0.75 F3000.0 E0.06586
G1 X14.0356 Y22.6196 Z0.75 F3000.0 E0.06586
G1 X10.7621 Y24.1676 Z0.75 F3000.0 E0.06586
G1 X7.3235 Y25.3035 Z0.75 F3000.0 E0.06586
G1 X5.5621 Y25.7103 Z0.75 F3000.0 E0.03288
G1 X2.551 Y26.1783 Z0.75 F3000.0 E0.05542
G1 X2.4932 Y30.7646 Z0.75 F3000.0 E0.08342
G1 X2.3636 Y31.2637 Z0.75 F3000.0 E0.00938
G1 X1.9854 Y30.8066 Z0.75 F3000.0 E0.01079
G1 X2.4626 Y30.5564 Z0.75 F3000.0 E0.0098
G1 X2.5142 Y29.9421 Z0.75 F3000.0 E0.01121
G1 X1.9843 Y29.3729 Z0.75 F3000.0 E0.01414
G1 X1.7151 Y28.855 Z0.75 F3000.0 E0.01061
G1 X1.3256 Y28.4204 Z0.75 F3000.0 E0.01061
G1 X0.8402 Y28.0962 Z0.75 F3000.0 E0.01062
G1 X0.2895 Y27.903 Z0.75 F3000.0 E0.01061
G1 X-0.2919 Y27.8528 Z0.75 F3000.0 E0.01061
G1 X-0.8676 Y28.1487 Z0.75 F3000.0 E0.01177
G1 X-1.4014 Y28.3848 Z0.75 F3000.0 E0.01061
G1 X-1.8596 Y28.7462 Z0.75 F3000.0 E0.01061
G1 X-2.2136 Y29.2103 Z0.75 F3000.0 E0.01061
G1 X-2.4411 Y29.7478 Z0.75 F3000.0 E0.01062
G1 X-2.5201 Y30.3277 Z0.75 F3000.0 E0.01065
G1 X-2.0814 Y30.5305 Z0.75 F3000.0 E0.00879
G1 F12000.0
G1 E-0.92581
G1 F3000.0
M103
G1 X0.7418 Y27.1704 Z0.75 F3000.0
G1 F12000.0
G1 E0.92581
G1 F3000.0
M101
G1 X-0.3083 Y27.1143 Z0.75 F3000.0 E0.01913
G1 X-0.8202 Y27.3964 Z0.75 F3000.0 E0.01063
G1 X-1.2816 Y27.5289 Z0.75 F3000.0 E0.00873
G1 X-2.1892 Y25.8274 Z0.75 F3000.0 E0.03507
G1 X-1.776 Y27.2285 Z0.75 F3000.0 E0.02657
G1 X-1.2934 Y27.7111 Z0.75 F3000.0 E0.01241
G1 X-2.0429 Y27.9556 Z0.75 F3000.0 E0.01434
G1 X-2.1694 Y27.6291 Z0.75 F3000.0 E0.00637
G1 F12000.0
G1 E-0.0
G1 F3000.0
M103
G1 X-2.7761 Y25.2404 Z0.75 F3000.0
G1 F12000.0
G1 E0.0
G1 F3000.0
M101
G1 X-5.5893 Y24.8032 Z0.75 F3000.0 E0.05178
G1 X-28.8732 Y-1.4506 Z0.75 F3000.0 E0.63821
G1 X-27.8938 Y2.8927 Z0.75 F3000.0 E0.08097
G1 X-27.6664 Y3.714 Z0.75 F3000.0 E0.0155
G1 X-6.7115 Y24.6689 Z0.75 F3000.0 E0.53898
G1 X-5.9391 Y24.8473 Z0.75 F3000.0 E0.01442
G1 F12000.0
G1 E-0.0
G1 F3000.0
M103
G1 X-7.9379 Y24.2365 Z0.75 F3000.0
G1 F12000.0
G1 E0.0
G1 F3000.0
M101
G1 X-10.5986 Y23.3577 Z0.75 F3000.0 E0.05096
G1 X-26.9491 Y7.0072 Z0.75 F3000.0 E0.42055
G1 X-27.3692 Y5.9931 Z0.75 F3000.0 E0.01996
G1 X-27.8391 Y4.3352 Z0.75 F3000.0 E0.03134
G1 F12000.0
G1 E-0.83041
G1 F3000.0
M103
G1 X-26.129 Y8.2212 Z0.75 F3000.0
G1 F12000.0
G1 E0.83041
G1 F3000.0
M101
G1 X-25.709 Y9.2353 Z0.75 F3000.0 E0.01996
G1 X-24.2043 Y11.9279 Z0.75 F3000.0 E0.0561
G1 X-15.0491 Y21.083 Z0.75 F3000.0 E0.23548
G1 X-13.5029 Y22.0352 Z0.75 F3000.0 E0.03303
G1 X-11.2492 Y23.101 Z0.75 F3000.0 E0.04534
G1 F12000.0
G1 E-2.0
G1 F3000.0
M103
G1 X-17.0864 Y19.8397 Z0.75 F3000.0
G1 F12000.0
G1 E2.0
G1 F3000.0
M101
G1 X-23.2471 Y13.679 Z0.75 F3000.0 E0.15846
G1 F12000.0
G1 E-2.0
G1 F3000.0
M103
G1 X2.1847 Y26.4375 Z0.75 F3000.0
G1 F12000.0
G1 E2.0
G1 F3000.0
M101
G1 X2.1912 Y25.65 Z0.75 F3000.0 E0.01432
G1 X2.4295 Y25.2943 Z0.75 F3000.0 E0.00779
G1 X3.4576 Y25.1345 Z0.75 F3000.0 E0.01892
G1 X-28.7361 Y-6.6592 Z0.75 F3000.0 E0.82292
G1 X-28.948 Y-4.2952 Z0.75 F3000.0 E0.04317
G1 X-28.4881 Y-1.8595 Z0.75 F3000.0 E0.04508
G1 X1.6567 Y27.6913 Z0.75 F3000.0 E0.76774
G1 X2.1718 Y27.4125 Z0.75 F3000.0 E0.01065
G1 X2.1782 Y26.825 Z0.75 F3000.0 E0.01069
G1 F12000.0
G1 E-2.0
G1 F3000.0
M103
G1 X-22.3838 Y-21.6898 Z0.75 F3000.0
G1 F12000.0
G1 E2.0
G1 F3000.0
M101
G1 X-23.4315 Y-20.1617 Z0.75 F3000.0 E0.0337
G1 X18.4372 Y18.9312 Z0.75 F3000.0 E1.04181
G1 X16.7322 Y20.0021 Z0.75 F3000.0 E0.03662
G1 X15.2868 Y20.9325 Z0.75 F3000.0 E0.03126
G1 X-23.6694 Y-20.0056 Z0.75 F3000.0 E1.02779
G1 X-25.2888 Y-17.2672 Z0.75 F3000.0 E0.05786
G1 X15.3231 Y21.1628 Z0.75 F3000.0 E1.01689
G1 X13.4464 Y22.062 Z0.75 F3000.0 E0.03785
G1 X11.8333 Y22.8248 Z0.75 F3000.0 E0.03245
G1 X-25.4877 Y-17.0721 Z0.75 F3000.0 E0.9936
G1 X-26.6724 Y-14.493 Z0.75 F3000.0 E0.05162
G1 X-26.9854 Y-13.6181 Z0.75 F3000.0 E0.0169
G1 X11.8301 Y23.0155 Z0.75 F3000.0 E0.97071
G1 X10.6235 Y23.3969 Z0.75 F3000.0 E0.02301
G1 X8.4064 Y24.1496 Z0.75 F3000.0 E0.04258
G1 X-27.1419 Y-13.3806 Z0.75 F3000.0 E0.94016
G1 X-27.768 Y-11.4308 Z0.75 F3000.0 E0.03725
G1 X-28.2223 Y-9.5093 Z0.75 F3000.0 E0.03591
G1 X8.3599 Y24.2971 Z0.75 F3000.0 E0.90593
G1 X7.0627 Y24.5878 Z0.75 F3000.0 E0.02418
G1 X4.5998 Y25.0948 Z0.75 F3000.0 E0.04573
G1 X-28.3313 Y-9.2242 Z0.75 F3000.0 E0.86504
G1 X-28.5491 Y-8.0541 Z0.75 F3000.0 E0.02165
G1 X-28.6829 Y-7.0 Z0.75 F3000.0 E0.01933
G1 X3.9717 Y25.2546 Z0.75 F3000.0 E0.83477
G1 X4.4858 Y24.9747 Z0.75 F3000.0 E0.01065
G1 F12000.0
G1 E-2.0
G1 F3000.0
M103
G1 X-21.5586 Y-22.6465 Z0.75 F3000.0
G1 F12000.0
G1 E2.0
G1 F3000.0
M101
G1 X-22.1088 Y-21.8087 Z0.75 F3000.0 E0.01823
G1 X18.7635 Y18.6635 Z0.75 F3000.0 E1.04613
G1 X19.7422 Y17.6603 Z0.75 F3000.0 E0.02549
G1 X20.9051 Y16.4473 Z0.75 F3000.0 E0.03056
G1 X-21.2835 Y-22.9654 Z0.75 F3000.0 E1.05003
G1 X-20.3258 Y-23.5957 Z0.75 F3000.0 E0.02085
G1 X-18.4564 Y-25.2901 Z0.75 F3000.0 E0.04589
G1 X21.1948 Y16.3431 Z0.75 F3000.0 E1.04566
G1 X22.3356 Y14.9079 Z0.75 F3000.0 E0.03334
G1 X23.0944 Y13.8849 Z0.75 F3000.0 E0.02317
G1 X-18.5449 Y-25.5725 Z0.75 F3000.0 E1.04331
G1 X-15.749 Y-27.3344 Z0.75 F3000.0 E0.0601
G1 X23.3474 Y13.7439 Z0.75 F3000.0 E1.03139
G1 X24.3522 Y12.1728 Z0.75 F3000.0 E0.03392
G1 X24.9966 Y11.0353 Z0.75 F3000.0 E0.02378
G1 X-15.8005 Y-27.5799 Z0.75 F3000.0 E1.02166
G1 X-12.7473 Y-29.0845 Z0.75 F3000.0 E0.06191
G1 X25.2114 Y10.8562 Z0.75 F3000.0 E1.00214
G1 X26.0672 Y9.136 Z0.75 F3000.0 E0.03494
G1 X26.5892 Y7.8761 Z0.75 F3000.0 E0.0248
G1 X-12.7602 Y-29.2914 Z0.75 F3000.0 E0.98443
G1 X-9.4221 Y-30.5111 Z0.75 F3000.0 E0.06464
G1 X26.7631 Y7.6561 Z0.75 F3000.0 E0.95654
G1 X27.4444 Y5.7615 Z0.75 F3000.0 E0.03662
G1 X27.8307 Y4.3658 Z0.75 F3000.0 E0.02634
G1 X-9.3935 Y-30.6764 Z0.75 F3000.0 E0.92979
G1 X-5.7232 Y-31.5639 Z0.75 F3000.0 E0.06868
G1 X27.9594 Y4.1006 Z0.75 F3000.0 E0.89219
G1 X28.3449 Y2.5042 Z0.75 F3000.0 E0.02987
G1 X28.6519 Y0.4353 Z0.75 F3000.0 E0.03804
G1 X-5.6482 Y-31.6829 Z0.75 F3000.0 E0.85462
G1 X-1.5676 Y-32.1601 Z0.75 F3000.0 E0.07472
G1 X28.7286 Y0.1181 Z0.75 F3000.0 E0.80513
G1 X28.8654 Y-1.1331 Z0.75 F3000.0 E0.02289
G1 X28.9366 Y-4.0317 Z0.75 F3000.0 E0.05273
G1 X-1.3741 Y-32.1605 Z0.75 F3000.0 E0.75208
G1 X2.0002 Y-31.9561 Z0.75 F3000.0 E0.06148
G1 X3.3553 Y-31.7889 Z0.75 F3000.0 E0.02483
G1 X28.9363 Y-4.426 Z0.75 F3000.0 E0.68126
G1 X28.212 Y-7.9202 Z0.75 F3000.0 E0.0649
G1 X27.8836 Y-9.4365 Z0.75 F3000.0 E0.02822
G1 X3.6328 Y-31.9054 Z0.75 F3000.0 E0.60127
G1 X5.3879 Y-31.5382 Z0.75 F3000.0 E0.03261
G1 X9.4359 Y-30.46 Z0.75 F3000.0 E0.07619
G1 X27.7105 Y-11.5915 Z0.75 F3000.0 E0.47773
G1 X28.1116 Y-10.0024 Z0.75 F3000.0 E0.02981
G1 F12000.0
G1 E-0.0
G1 F3000.0
M103
G1 X26.9796 Y-12.7164 Z0.75 F3000.0
G1 F12000.0
G1 E0.0
G1 F3000.0
M101
G1 X26.3178 Y-14.5661 Z0.75 F3000.0 E0.03573
G1 X25.1768 Y-16.8951 Z0.75 F3000.0 E0.04717
G1 X11.987 Y-29.4908 Z0.75 F3000.0 E0.3317
G1 X10.0029 Y-30.287 Z0.75 F3000.0 E0.03888
G1 F12000.0
G1 E-0.68441
G1 F3000.0
M103
G1 X13.6631 Y-28.6087 Z0.75 F3000.0
G1 F12000.0
G1 E0.68441
G1 F3000.0
M101
G1 X14.9392 Y-27.9267 Z0.75 F3000.0 E0.02632
G1 X16.7455 Y-26.7142 Z0.75 F3000.0 E0.03957
G1 X23.7 Y-19.7598 Z0.75 F3000.0 E0.17887
G1 X24.8959 Y-17.9699 Z0.75 F3000.0 E0.03915
G1 F12000.0
G1 E-2.0
G1 F3000.0
M103
G1 X20.8534 Y-23.0003 Z0.75 F3000.0
G1 F12000.0
G1 E2.0
G1 F3000.0
M101
G1 X19.602 Y-24.2517 Z0.75 F3000.0 E0.03219
G1 F12000.0
G1 E-2.0
G1 F3000.0
M103
M106 S255
G1 X-20.5629 Y-25.3922 Z1.05 F3000.0
G1 F12000.0
G1 E2.0
G1 F3000.0
M101
G1 X-19.9079 Y-25.6375 Z1.05 F2400.0 E0.0159
G1 X-18.5093 Y-26.8283 Z1.05 F2400.0 E0.04176
G1 X-17.0406 Y-27.9314 Z1.05 F2400.0 E0.04176
G1 X-15.507 Y-28.9424 Z1.05 F2400.0 E0.04176
G1 X-13.9142 Y-29.8574 Z1.05 F2400.0 E0.04176
G1 X-12.2684 Y-30.6731 Z1.05 F2400.0 E0.04176
G1 X-10.5757 Y-31.3864 Z1.05 F2400.0 E0.04176
G1 X-8.8424 Y-31.9945 Z1.05 F2400.0 E0.04176
G1 X-7.0751 Y-32.4952 Z1.05 F2400.0 E0.04176
G1 X-5.2805 Y-32.8866 Z1.05 F2400.0 E0.04176
G1 X-3.4652 Y-33.1672 Z1.05 F2400.0 E0.04176
G1 X-1.6361 Y-33.336 Z1.05 F2400.0 E0.04176
G1 X0.1999 Y-33.3923 Z1.05 F2400.0 E0.04176
G1 X2.0359 Y-33.136 Z1.05 F2400.0 E0.04214
G1 X3.865 Y-32.9672 Z1.05 F2400.0 E0.04176
G1 X5.6803 Y-32.6866 Z1.05 F2400.0 E0.04176
G1 X7.475 Y-32.2952 Z1.05 F2400.0 E0.04176
G1 X9.2423 Y-31.7945 Z1.05 F2400.0 E0.04176
G1 X10.9756 Y-31.1864 Z1.05 F2400.0 E0.04176
G1 X12.6683 Y-30.4732 Z1.05 F2400.0 E0.04176
G1 X14.3141 Y-29.6575 Z1.05 F2400.0 E0.04176
G1 X15.9068 Y-28.7425 Z1.05 F2400.0 E0.04176
G1 X17.4404 Y-27.7315 Z1.05 F2400.0 E0.04176
G1 X18.9092 Y-26.6284 Z1.05 F2400.0 E0.04176
G1 X20.3075 Y-25.4373 Z1.05 F2400.0 E0.04176
G1 X21.6302 Y-24.1627 Z1.05 F2400.0 E0.04176
G1 X22.8723 Y-22.8095 Z1.05 F2400.0 E0.04176
G1 X24.0291 Y-21.3826 Z1.05 F2400.0 E0.04176
G1 X25.0962 Y-19.8875 Z1.05 F2400.0 E0.04176
G1 X26.0696 Y-18.3298 Z1.05 F2400.0 E0.04176
G1 X26.9456 Y-16.7153 Z1.05 F2400.0 E0.04176
G1 X27.7211 Y-15.0501 Z1.05 F2400.0 E0.04176
G1 X28.393 Y-13.3406 Z1.05 F2400.0 E0.04176
G1 X28.9588 Y-11.593 Z1.05 F2400.0 E0.04176
G1 X29.4164 Y-9.8141 Z1.05 F2400.0 E0.04176
G1 X29.7641 Y-8.0104 Z1.05 F2400.0 E0.04176
G1 X30.0005 Y-6.1889 Z1.05 F2400.0 E0.04176
G1 X30.1248 Y-4.3562 Z1.05 F2400.0 E0.04176
G1 X30.1365 Y-2.5194 Z1.05 F2400.0 E0.04176
G1 X29.6356 Y-0.6853 Z1.05 F2400.0 E0.04322
G1 X29.4224 Y1.1391 Z1.05 F2400.0 E0.04176
G1 X29.0977 Y2.9471 Z1.05 F2400.0 E0.04176
G1 X28.6629 Y4.7317 Z1.05 F2400.0 E0.04176
G1 X28.1194 Y6.4863 Z1.05 F2400.0 E0.04176
G1 X27.4693 Y8.2043 Z1.05 F2400.0 E0.04176
G1 X26.7152 Y9.8792 Z1.05 F2400.0 E0.04176
G1 X25.8598 Y11.5047 Z1.05 F2400.0 E0.04176
G1 X24.9063 Y13.0747 Z1.05 F2400.0 E0.04176
G1 X23.8584 Y14.5833 Z1.05 F2400.0 E0.04176
G1 X22.7199 Y16.0248 Z1.05 F2400.0 E0.04176
G1 X21.4952 Y17.3938 Z1.05 F2400.0 E0.04176
G1 X20.1889 Y18.6851 Z1.05 F2400.0 E0.04176
G1 X18.8058 Y19.894 Z1.05 F2400.0 E0.04176
G1 X17.3513 Y21.0157 Z1.05 F2400.0 E0.04176
G1 X15.8307 Y22.0461 Z1.05 F2400.0 E0.04176
G1 X14.2497 Y22.9814 Z1.05 F2400.0 E0.04176
G1 X12.6145 Y23.818 Z1.05 F2400.0 E0.04176
G1 X10.931 Y24.5527 Z1.05 F2400.0 E0.04176
G1 X9.2056 Y25.1829 Z1.05 F2400.0 E0.04176
G1 X7.4448 Y25.7061 Z1.05 F2400.0 E0.04176
G1 X5.6563 Y26.12 Z1.05 F2400.0 E0.04173
G1 X3.0789 Y26.5262 Z1.05 F2400.0 E0.05932
G1 X3.068 Y30.2465 Z1.05 F2400.0 E0.08458
G1 X3.0297 Y30.8225 Z1.05 F2400.0 E0.01312
G1 X2.8769 Y31.3704 Z1.05 F2400.0 E0.01293
G1 X2.6253 Y31.881 Z1.05 F2400.0 E0.01294
G1 X2.2848 Y32.3373 Z1.05 F2400.0 E0.01294
G1 X1.867 Y32.7239 Z1.05 F2400.0 E0.01294
G1 X1.3858 Y33.0279 Z1.05 F2400.0 E0.01294
G1 X0.8573 Y33.2395 Z1.05 F2400.0 E0.01294
G1 X0.301 Y33.3445 Z1.05 F2400.0 E0.01287
G1 X-0.701 Y33.1445 Z1.05 F2400.0 E0.02323
G1 X-1.2573 Y33.0395 Z1.05 F2400.0 E0.01287
G1 X-1.7858 Y32.8279 Z1.05 F2400.0 E0.01294
G1 X-2.267 Y32.5239 Z1.05 F2400.0 E0.01294
G1 X-2.6848 Y32.1373 Z1.05 F2400.0 E0.01294
G1 X-3.0253 Y31.681 Z1.05 F2400.0 E0.01294
G1 X-3.2769 Y31.1704 Z1.05 F2400.0 E0.01294
G1 X-3.4297 Y30.6225 Z1.05 F2400.0 E0.01293
G1 X-3.468 Y30.0465 Z1.05 F2400.0 E0.01312
G1 X-3.4718 Y26.3345 Z1.05 F2400.0 E0.08439
G1 X-6.0561 Y25.9201 Z1.05 F2400.0 E0.0595
G1 X-7.8447 Y25.5061 Z1.05 F2400.0 E0.04174
G1 X-9.6054 Y24.9829 Z1.05 F2400.0 E0.04176
G1 X-11.3308 Y24.3528 Z1.05 F2400.0 E0.04176
G1 X-13.0143 Y23.6181 Z1.05 F2400.0 E0.04176
G1 X-14.6496 Y22.7815 Z1.05 F2400.0 E0.04176
G1 X-16.2305 Y21.8462 Z1.05 F2400.0 E0.04176
G1 X-17.7511 Y20.8158 Z1.05 F2400.0 E0.04176
G1 X-19.2057 Y19.6941 Z1.05 F2400.0 E0.04176
G1 X-20.5888 Y18.4853 Z1.05 F2400.0 E0.04176
G1 X-21.8951 Y17.1939 Z1.05 F2400.0 E0.04176
G1 X-23.1198 Y15.8249 Z1.05 F2400.0 E0.04176
G1 X-24.2583 Y14.3834 Z1.05 F2400.0 E0.04176
G1 X-25.3062 Y12.8749 Z1.05 F2400.0 E0.04176
G1 X-26.2597 Y11.3049 Z1.05 F2400.0 E0.04176
G1 X-27.1151 Y9.6793 Z1.05 F2400.0 E0.04176
G1 X-27.8693 Y8.0045 Z1.05 F2400.0 E0.04176
G1 X-28.5193 Y6.2865 Z1.05 F2400.0 E0.04176
G1 X-29.0628 Y4.5319 Z1.05 F2400.0 E0.04176
G1 X-29.4977 Y2.7472 Z1.05 F2400.0 E0.04176
G1 X-29.8224 Y0.9393 Z1.05 F2400.0 E0.04176
G1 X-30.0356 Y-0.8851 Z1.05 F2400.0 E0.04176
G1 X-30.1365 Y-2.7192 Z1.05 F2400.0 E0.04176
G1 X-29.7248 Y-4.556 Z1.05 F2400.0 E0.04279
G1 X-29.6005 Y-6.3887 Z1.05 F2400.0 E0.04176
G1 X-29.3641 Y-8.2103 Z1.05 F2400.0 E0.04176
G1 X-29.0164 Y-10.0139 Z1.05 F2400.0 E0.04176
G1 X-28.5588 Y-11.7929 Z1.05 F2400.0 E0.04176
G1 X-27.993 Y-13.5404 Z1.05 F2400.0 E0.04176
G1 X-27.3211 Y-15.25 Z1.05 F2400.0 E0.04176
G1 X-26.5457 Y-16.9152 Z1.05 F2400.0 E0.04176
G1 X-25.6696 Y-18.5296 Z1.05 F2400.0 E0.04176
G1 X-24.6962 Y-20.0874 Z1.05 F2400.0 E0.04176
G1 X-23.6291 Y-21.5825 Z1.05 F2400.0 E0.04176
G1 X-22.4724 Y-23.0094 Z1.05 F2400.0 E0.04176
G1 X-21.2304 Y-24.3627 Z1.05 F2400.0 E0.04176
G1 X-20.1629 Y-25.3922 Z1.05 F2400.0 E0.03372
G1 F12000.0
G1 E-2.0
G1 F2400.0
M103
G1 X-1.5078 Y29.4458 Z1.05 F3000.0
G1 F12000.0
G1 E2.0
G1 F3000.0
M101
G1 X-2.0783 Y29.831 Z1.05 F2400.0 E0.01565
G1 X-2.1557 Y30.3153 Z1.05 F2400.0 E0.01115
G1 X-1.7102 Y30.8037 Z1.05 F2400.0 E0.01503
G1 X-1.5446 Y31.2654 Z1.05 F2400.0 E0.01115
G1 X-1.2694 Y31.6714 Z1.05 F2400.0 E0.01115
G1 X-0.9019 Y31.9963 Z1.05 F2400.0 E0.01115
G1 X-0.4652 Y32.2195 Z1.05 F2400.0 E0.01115
G1 X0.0134 Y32.3271 Z1.05 F2400.0 E0.01115
G1 X0.5037 Y32.1123 Z1.05 F2400.0 E0.01217
G1 X0.9748 Y31.9761 Z1.05 F2400.0 E0.01115
G1 X1.3973 Y31.7269 Z1.05 F2400.0 E0.01115
G1 X1.7446 Y31.3805 Z1.05 F2400.0 E0.01115
G1 X1.9948 Y30.9587 Z1.05 F2400.0 E0.01115
G1 X2.1323 Y30.4878 Z1.05 F2400.0 E0.01115
G1 X2.1483 Y29.9976 Z1.05 F2400.0 E0.01115
G1 X1.6419 Y29.5188 Z1.05 F2400.0 E0.01584
G1 X1.4198 Y29.0815 Z1.05 F2400.0 E0.01115
G1 X1.0959 Y28.7131 Z1.05 F2400.0 E0.01115
G1 X0.6905 Y28.4369 Z1.05 F2400.0 E0.01115
G1 X0.2293 Y28.2702 Z1.05 F2400.0 E0.01115
G1 X-0.259 Y28.2234 Z1.05 F2400.0 E0.01115
G1 X-0.7435 Y28.4995 Z1.05 F2400.0 E0.01268
G1 X-1.1939 Y28.6938 Z1.05 F2400.0 E0.01115
G1 X-1.5819 Y28.9939 Z1.05 F2400.0 E0.01115
G1 X-1.883 Y29.3811 Z1.05 F2400.0 E0.01115
G1 X-1.9078 Y29.4458 Z1.05 F2400.0 E0.00158
G1 F12000.0
G1 E-0.0
G1 F2400.0
M103
G1 X-2.2133 Y28.3903 Z1.05 F3000.0
G1 F12000.0
G1 E0.0
G1 F3000.0
M101
G1 X-2.3375 Y28.7607 Z1.05 F3000.0 E0.0071
G1 X-2.6042 Y28.4482 Z1.05 F3000.0 E0.00747
G1 X-2.6361 Y25.6162 Z1.05 F3000.0 E0.05151
G1 X-5.8958 Y25.095 Z1.05 F3000.0 E0.06004
G1 X-7.6237 Y24.695 Z1.05 F3000.0 E0.03226
G1 X-11.0179 Y23.5721 Z1.05 F3000.0 E0.06502
G1 X-14.2435 Y22.045 Z1.05 F3000.0 E0.06491
G1 X-17.2579 Y20.1345 Z1.05 F3000.0 E0.06491
G1 X-20.0159 Y17.8695 Z1.05 F3000.0 E0.06491
G1 X-22.4759 Y15.2839 Z1.05 F3000.0 E0.06491
G1 X-24.6009 Y12.4167 Z1.05 F3000.0 E0.06491
G1 X-26.359 Y9.311 Z1.05 F3000.0 E0.06491
G1 X-27.7238 Y6.0134 Z1.05 F3000.0 E0.06491
G1 X-28.6748 Y2.5736 Z1.05 F3000.0 E0.06491
G1 X-29.1976 Y-0.9568 Z1.05 F3000.0 E0.06491
G1 X-29.2843 Y-4.5246 Z1.05 F3000.0 E0.06491
G1 X-28.5338 Y-8.0762 Z1.05 F3000.0 E0.06602
G1 X-27.7512 Y-11.5581 Z1.05 F3000.0 E0.06491
G1 X-26.5483 Y-14.9182 Z1.05 F3000.0 E0.06491
G1 X-24.9432 Y-18.1057 Z1.05 F3000.0 E0.06491
G1 X-22.9601 Y-21.0728 Z1.05 F3000.0 E0.06491
G1 X-20.6287 Y-23.7749 Z1.05 F3000.0 E0.06491
G1 X-17.9841 Y-26.1714 Z1.05 F3000.0 E0.06491
G1 X-15.0661 Y-28.2261 Z1.05 F3000.0 E0.06491
G1 X-11.9185 Y-29.9083 Z1.05 F3000.0 E0.06491
G1 X-8.5888 Y-31.1926 Z1.05 F3000.0 E0.06491
G1 X-5.1269 Y-32.0596 Z1.05 F3000.0 E0.06491
G1 X-1.5848 Y-32.4965 Z1.05 F3000.0 E0.06491
G1 X1.984 Y-32.4965 Z1.05 F3000.0 E0.06491
G1 X5.5261 Y-31.8598 Z1.05 F3000.0 E0.06545
G1 X8.988 Y-30.9928 Z1.05 F3000.0 E0.06491
G1 X12.3178 Y-29.7086 Z1.05 F3000.0 E0.06491
G1 X15.4654 Y-28.0265 Z1.05 F3000.0 E0.06491
G1 X18.3835 Y-25.9719 Z1.05 F3000.0 E0.06491
G1 X21.0281 Y-23.5755 Z1.05 F3000.0 E0.06491
G1 X23.3596 Y-20.8735 Z1.05 F3000.0 E0.06491
G1 X25.3428 Y-17.9064 Z1.05 F3000.0 E0.06491
G1 X26.948 Y-14.7189 Z1.05 F3000.0 E0.06491
G1 X28.151 Y-11.3589 Z1.05 F3000.0 E0.06491
G1 X28.9337 Y-7.877 Z1.05 F3000.0 E0.06491
G1 X29.2843 Y-4.3254 Z1.05 F3000.0 E0.06491
G1 X28.7976 Y-0.7576 Z1.05 F3000.0 E0.06549
G1 X28.2749 Y2.7728 Z1.05 F3000.0 E0.06491
G1 X27.3241 Y6.2126 Z1.05 F3000.0 E0.06491
G1 X25.9594 Y9.5102 Z1.05 F3000.0 E0.06491
G1 X24.2013 Y12.616 Z1.05 F3000.0 E0.06491
G1 X22.0764 Y15.4833 Z1.05 F3000.0 E0.06491
G1 X19.6165 Y18.0689 Z1.05 F3000.0 E0.06491
G1 X16.8586 Y20.334 Z1.05 F3000.0 E0.06491
G1 X13.8442 Y22.2446 Z1.05 F3000.0 E0.06491
G1 X10.6187 Y23.7718 Z1.05 F3000.0 E0.06491
G1 X7.224 Y24.8949 Z1.05 F3000.0 E0.06503
G1 X5.496 Y25.2949 Z1.05 F3000.0 E0.03226
G1 X2.2436 Y25.8074 Z1.05 F3000.0 E0.05988
G1 X2.2047 Y28.6015 Z1.05 F3000.0 E0.05082
G1 X1.8732 Y28.6837 Z1.05 F3000.0 E0.00621
G1 X1.6149 Y28.1564 Z1.05 F3000.0 E0.01068
G1 X1.0504 Y27.733 Z1.05 F3000.0 E0.01283
G1 X0.4027 Y27.4989 Z1.05 F3000.0 E0.01252
G1 X-0.2828 Y27.4332 Z1.05 F3000.0 E0.01252
G1 X-0.9631 Y27.7401 Z1.05 F3000.0 E0.01357
G1 X-1.5955 Y28.0128 Z1.05 F3000.0 E0.01252
G1 X-2.1408 Y28.4834 Z1.05 F3000.0 E0.0131
G1 X-2.2133 Y28.5903 Z1.05 F3000.0 E0.00235
G1 F12000.0
G1 E-0.0
G1 F3000.0
M103
G1 X-1.6435 Y28.9939 Z1.05 F3000.0
G1 F12000.0
G1 E0.0
G1 F3000.0
M101
G1 X-2.2021 Y29.1918 Z1.05 F3000.0 E0.01078
G1 X-2.4346 Y29.727 Z1.05 F3000.0 E0.01061
G1 X-2.5266 Y30.3032 Z1.05 F3000.0 E0.01061
G1 X-2.0724 Y30.8842 Z1.05 F3000.0 E0.01341
G1 X-1.8713 Y31.4326 Z1.05 F3000.0 E0.01062
G1 X-1.4927 Y31.926 Z1.05 F3000.0 E0.01131
G1 X-1.3177 Y32.0739 Z1.05 F3000.0 E0.00417
G1 X-1.9207 Y32.4664 Z1.05 F3000.0 E0.01309
G1 X-2.3647 Y31.8839 Z1.05 F3000.0 E0.01332
G1 X-2.6674 Y31.462 Z1.05 F3000.0 E0.00944
G1 X-2.8866 Y31.02 Z1.05 F3000.0 E0.00897
G1 X-3.0006 Y30.5459 Z1.05 F3000.0 E0.00887
G1 X-3.0521 Y25.9758 Z1.05 F3000.0 E0.08312
G1 X-5.976 Y25.5075 Z1.05 F3000.0 E0.05386
G1 X-7.7372 Y25.0998 Z1.05 F3000.0 E0.03288
G1 X-11.1743 Y23.9627 Z1.05 F3000.0 E0.06584
G1 X-14.4465 Y22.4135 Z1.05 F3000.0 E0.06585
G1 X-17.5045 Y20.4754 Z1.05 F3000.0 E0.06585
G1 X-20.3024 Y18.1777 Z1.05 F3000.0 E0.06585
G1 X-22.7979 Y15.5547 Z1.05 F3000.0 E0.06585
G1 X-24.9537 Y12.6461 Z1.05 F3000.0 E0.06585
G1 X-26.7372 Y9.4954 Z1.05 F3000.0 E0.06585
G1 X-28.1218 Y6.1502 Z1.05 F3000.0 E0.06585
G1 X-29.0865 Y2.6606 Z1.05 F3000.0 E0.06585
G1 X-29.6168 Y-0.9208 Z1.05 F3000.0 E0.06585
G1 X-29.7049 Y-4.5402 Z1.05 F3000.0 E0.06585
G1 X-28.9492 Y-8.1431 Z1.05 F3000.0 E0.06695
G1 X-28.1553 Y-11.6754 Z1.05 F3000.0 E0.06585
G1 X-26.935 Y-15.084 Z1.05 F3000.0 E0.06585
G1 X-25.3067 Y-18.3177 Z1.05 F3000.0 E0.06585
G1 X-23.2949 Y-21.3277 Z1.05 F3000.0 E0.06585
G1 X-20.9298 Y-24.0689 Z1.05 F3000.0 E0.06585
G1 X-18.247 Y-26.4999 Z1.05 F3000.0 E0.06585
G1 X-15.2868 Y-28.5844 Z1.05 F3000.0 E0.06585
G1 X-12.0937 Y-30.2909 Z1.05 F3000.0 E0.06585
G1 X-8.7158 Y-31.5937 Z1.05 F3000.0 E0.06585
G1 X-5.2039 Y-32.4733 Z1.05 F3000.0 E0.06585
G1 X-1.6106 Y-32.9165 Z1.05 F3000.0 E0.06585
G1 X2.0098 Y-32.9165 Z1.05 F3000.0 E0.06585
G1 X5.6031 Y-32.2735 Z1.05 F3000.0 E0.06639
G1 X9.1151 Y-31.394 Z1.05 F3000.0 E0.06585
G1 X12.493 Y-30.0912 Z1.05 F3000.0 E0.06585
G1 X15.6861 Y-28.3848 Z1.05 F3000.0 E0.06585
G1 X18.6464 Y-26.3004 Z1.05 F3000.0 E0.06585
G1 X21.3292 Y-23.8694 Z1.05 F3000.0 E0.06585
G1 X23.6944 Y-21.1283 Z1.05 F3000.0 E0.06585
G1 X25.7063 Y-18.1184 Z1.05 F3000.0 E0.06585
G1 X27.3347 Y-14.8848 Z1.05 F3000.0 E0.06585
G1 X28.5551 Y-11.4762 Z1.05 F3000.0 E0.06585
G1 X29.3491 Y-7.9439 Z1.05 F3000.0 E0.06585
G1 X29.7048 Y-4.341 Z1.05 F3000.0 E0.06585
G1 X29.2169 Y-0.7216 Z1.05 F3000.0 E0.06642
G1 X28.6866 Y2.8598 Z1.05 F3000.0 E0.06585
G1 X27.722 Y6.3494 Z1.05 F3000.0 E0.06585
G1 X26.3376 Y9.6947 Z1.05 F3000.0 E0.06585
G1 X24.5541 Y12.8454 Z1.05 F3000.0 E0.06585
G1 X22.3984 Y15.7541 Z1.05 F3000.0 E0.06585
G1 X19.903 Y18.3771 Z1.05 F3000.0 E0.06585
G1 X17.1052 Y20.675 Z1.05 F3000.0 E0.06585
G1 X14.0472 Y22.6131 Z1.05 F3000.0 E0.06585
G1 X10.7751 Y24.1624 Z1.05 F3000.0 E0.06585
G1 X7.3376 Y25.2997 Z1.05 F3000.0 E0.06585
G1 X5.5762 Y25.7075 Z1.05 F3000.0 E0.03288
G1 X2.6596 Y26.1671 Z1.05 F3000.0 E0.0537
G1 X2.6006 Y30.7459 Z1.05 F3000.0 E0.08328
G1 X2.4866 Y31.22 Z1.05 F3000.0 E0.00887
G1 X2.2671 Y31.6617 Z1.05 F3000.0 E0.00897
G1 X1.9615 Y32.0884 Z1.05 F3000.0 E0.00955
G1 X1.5592 Y32.447 Z1.05 F3000.0 E0.0098
G1 X1.3813 Y31.8095 Z1.05 F3000.0 E0.01204
G1 X1.9914 Y31.6116 Z1.05 F3000.0 E0.01166
G1 X2.3347 Y31.1064 Z1.05 F3000.0 E0.01111
G1 X2.4987 Y30.5464 Z1.05 F3000.0 E0.01061
G1 X2.5177 Y29.9631 Z1.05 F3000.0 E0.01061
G1 X1.9912 Y29.3936 Z1.05 F3000.0 E0.01411
G1 X1.7269 Y28.8733 Z1.05 F3000.0 E0.01061
G1 X1.3416 Y28.4351 Z1.05 F3000.0 E0.01061
G1 X0.8594 Y28.1065 Z1.05 F3000.0 E0.01061
G1 X0.3107 Y27.9082 Z1.05 F3000.0 E0.01061
G1 X-0.2702 Y27.8525 Z1.05 F3000.0 E0.01061
G1 X-0.8466 Y28.1431 Z1.05 F3000.0 E0.01174
G1 X-1.3824 Y28.3741 Z1.05 F3000.0 E0.01061
G1 X-1.8439 Y28.7312 Z1.05 F3000.0 E0.01061
G1 X-2.0435 Y28.9939 Z1.05 F3000.0 E0.006
G1 F12000.0
G1 E-2.0
G1 F3000.0
M103
G1 X2.769 Y25.2475 Z1.05 F3000.0
G1 F12000.0
G1 E2.0
G1 F3000.0
M101
G1 X1.8989 Y25.9176 Z1.05 F3000.0 E0.01997
G1 X1.8921 Y26.5184 Z1.05 F3000.0 E0.01093
G1 X0.4342 Y27.3824 Z1.05 F3000.0 E0.03082
G1 X1.6919 Y27.7126 Z1.05 F3000.0 E0.02365
G1 X2.2854 Y26.9191 Z1.05 F3000.0 E0.01802
G1 X1.8786 Y27.7199 Z1.05 F3000.0 E0.01633
G1 X1.653 Y27.9455 Z1.05 F3000.0 E0.0058
G1 F12000.0
G1 E-1.01127
G1 F3000.0
M103
G1 X-2.2985 Y25.7573 Z1.05 F3000.0
G1 F12000.0
G1 E1.01127
G1 F3000.0
M101
G1 X-2.4353 Y25.3001 Z1.05 F3000.0 E0.00868
G1 X28.8961 Y-5.0373 Z1.05 F3000.0 E0.79319
G1 X28.9475 Y-4.2948 Z1.05 F3000.0 E0.01354
G1 X28.5179 Y-3.0772 Z1.05 F3000.0 E0.02348
G1 X-2.2919 Y26.5446 Z1.05 F3000.0 E0.77732
G1 X-1.8786 Y27.7193 Z1.05 F3000.0 E0.02265
G1 X-1.2591 Y27.4938 Z1.05 F3000.0 E0.01199
G1 X-0.3571 Y27.1857 Z1.05 F3000.0 E0.01734
G1 X0.2922 Y27.1304 Z1.05 F3000.0 E0.01185
G1 X28.9031 Y-2.6685 Z1.05 F3000.0 E0.75133
G1 X28.4378 Y-0.6213 Z1.05 F3000.0 E0.03818
G1 X28.0249 Y2.1676 Z1.05 F3000.0 E0.05127
G1 X3.0741 Y25.3364 Z1.05 F3000.0 E0.61926
G1 X5.5893 Y24.8031 Z1.05 F3000.0 E0.04676
G1 X7.9369 Y24.2375 Z1.05 F3000.0 E0.04392
G1 X8.8245 Y23.9438 Z1.05 F3000.0 E0.017
G1 X27.6123 Y5.156 Z1.05 F3000.0 E0.48323
G1 X28.2931 Y2.6934 Z1.05 F3000.0 E0.04647
G1 F12000.0
G1 E-0.4954
G1 F3000.0
M103
G1 X26.9682 Y6.1941 Z1.05 F3000.0
G1 F12000.0
G1 E0.4954
G1 F3000.0
M101
G1 X25.71 Y9.2342 Z1.05 F3000.0 E0.05984
G1 X12.3764 Y22.5678 Z1.05 F3000.0 E0.34295
G1 X10.1997 Y23.5565 Z1.05 F3000.0 E0.04348
G1 X9.3121 Y23.8502 Z1.05 F3000.0 E0.017
G1 F12000.0
G1 E-1.3437
G1 F3000.0
M103
G1 X13.9045 Y21.8337 Z1.05 F3000.0
G1 F12000.0
G1 E1.3437
G1 F3000.0
M101
G1 X15.4489 Y20.8832 Z1.05 F3000.0 E0.03298
G1 X24.6054 Y11.7267 Z1.05 F3000.0 E0.23551
G1 X25.3803 Y10.3579 Z1.05 F3000.0 E0.02861
G1 F12000.0
G1 E-0.89169
G1 F3000.0
M103
G1 X22.8472 Y13.8789 Z1.05 F3000.0
G1 F12000.0
G1 E0.89169
G1 F3000.0
M101
G1 X16.6813 Y20.0448 Z1.05 F3000.0 E0.15859
G1 F12000.0
G1 E-2.0
G1 F3000.0
M103
G1 X23.1934 Y-20.7175 Z1.05 F3000.0
G1 F12000.0
G1 E2.0
G1 F3000.0
M101
G1 X23.9073 Y-19.4495 Z1.05 F3000.0 E0.02647
G1 X-17.785 Y19.4669 Z1.05 F3000.0 E1.03727
G1 X-16.7327 Y20.0026 Z1.05 F3000.0 E0.02147
G1 X-14.5596 Y21.3933 Z1.05 F3000.0 E0.04692
G1 X24.1452 Y-19.2935 Z1.05 F3000.0 E1.02132
G1 X25.0897 Y-17.6621 Z1.05 F3000.0 E0.03428
G1 X25.6865 Y-16.4769 Z1.05 F3000.0 E0.02413
G1 X-14.5961 Y21.6237 Z1.05 F3000.0 E1.00843
G1 X-11.4303 Y23.0158 Z1.05 F3000.0 E0.0629
G1 X25.8854 Y-16.2819 Z1.05 F3000.0 E0.9856
G1 X26.6721 Y-14.4927 Z1.05 F3000.0 E0.03555
G1 X27.1419 Y-13.1806 Z1.05 F3000.0 E0.02535
G1 X-11.4272 Y23.2066 Z1.05 F3000.0 E0.96437
G1 X-7.9602 Y24.2974 Z1.05 F3000.0 E0.0661
G1 X27.2985 Y-12.9432 Z1.05 F3000.0 E0.93272
G1 X27.7682 Y-11.4311 Z1.05 F3000.0 E0.0288
G1 X28.2224 Y-9.5093 Z1.05 F3000.0 E0.03591
G1 X-7.9139 Y24.4451 Z1.05 F3000.0 E0.90183
G1 X-5.6154 Y24.9224 Z1.05 F3000.0 E0.0427
G1 X-4.0878 Y25.1767 Z1.05 F3000.0 E0.02817
G1 X28.3314 Y-9.2243 Z1.05 F3000.0 E0.85971
G1 X28.5494 Y-8.0544 Z1.05 F3000.0 E0.02164
G1 X28.8428 Y-5.378 Z1.05 F3000.0 E0.04897
G1 X-2.9484 Y25.4193 Z1.05 F3000.0 E0.80501
G1 X-3.9747 Y25.0576 Z1.05 F3000.0 E0.01979
G1 F12000.0
G1 E-2.0
G1 F3000.0
M103
G1 X22.1088 Y-22.0088 Z1.05 F3000.0
G1 F12000.0
G1 E2.0
G1 F3000.0
M101
G1 X22.9341 Y-20.8522 Z1.05 F3000.0 E0.02584
G1 X-18.1111 Y19.199 Z1.05 F3000.0 E1.04301
G1 X-19.7417 Y17.6598 Z1.05 F3000.0 E0.04078
G1 X-20.326 Y17.0561 Z1.05 F3000.0 E0.01528
G1 X21.8337 Y-22.3276 Z1.05 F3000.0 E1.04928
G1 X20.326 Y-23.5958 Z1.05 F3000.0 E0.03583
G1 X19.0796 Y-24.7253 Z1.05 F3000.0 E0.03059
G1 X-20.6156 Y16.9518 Z1.05 F3000.0 E1.04679
G1 X-22.5888 Y14.5672 Z1.05 F3000.0 E0.05629
G1 X19.168 Y-25.0077 Z1.05 F3000.0 E1.04633
G1 X17.8331 Y-25.8547 Z1.05 F3000.0 E0.02875
G1 X16.446 Y-26.8435 Z1.05 F3000.0 E0.03098
G1 X-22.8417 Y14.4261 Z1.05 F3000.0 E1.03631
G1 X-24.3527 Y12.1733 Z1.05 F3000.0 E0.04934
G1 X16.4975 Y-27.0889 Z1.05 F3000.0 E1.03048
G1 X15.0518 Y-27.8252 Z1.05 F3000.0 E0.02951
G1 X-24.5674 Y11.994 Z1.05 F3000.0 E1.02161
G1 X-24.7821 Y11.4147 Z1.05 F3000.0 E0.01124
G1 X15.0827 Y-28.0501 Z1.05 F3000.0 E1.02022
G1 X14.2956 Y-28.2569 Z1.05 F3000.0 E0.0148
G1 X-24.9967 Y11.2354 Z1.05 F3000.0 E1.0132
G1 X-25.2114 Y10.6562 Z1.05 F3000.0 E0.01124
G1 X14.3086 Y-28.4638 Z1.05 F3000.0 E1.01135
G1 X13.5214 Y-28.6707 Z1.05 F3000.0 E0.0148
G1 X-25.4261 Y10.4769 Z1.05 F3000.0 E1.00433
G1 X-25.6408 Y9.8976 Z1.05 F3000.0 E0.01124
G1 X13.5343 Y-28.8776 Z1.05 F3000.0 E1.00248
G1 X12.7472 Y-29.0844 Z1.05 F3000.0 E0.0148
G1 X-25.8555 Y9.7183 Z1.05 F3000.0 E0.99547
G1 X-26.0677 Y9.1365 Z1.05 F3000.0 E0.01126
G1 X12.7601 Y-29.2913 Z1.05 F3000.0 E0.99355
G1 X11.9731 Y-29.4982 Z1.05 F3000.0 E0.0148
G1 X-26.2415 Y8.9164 Z1.05 F3000.0 E0.98548
G1 X-26.4154 Y8.2963 Z1.05 F3000.0 E0.01171
G1 X11.9653 Y-29.6844 Z1.05 F3000.0 E0.98205
G1 X11.1367 Y-29.8498 Z1.05 F3000.0 E0.01537
G1 X-26.5892 Y8.0762 Z1.05 F3000.0 E0.97291
G1 X-26.7631 Y7.4561 Z1.05 F3000.0 E0.01171
G1 X11.1081 Y-30.0151 Z1.05 F3000.0 E0.96894
G1 X10.2794 Y-30.1804 Z1.05 F3000.0 E0.01537
G1 X-26.937 Y7.236 Z1.05 F3000.0 E0.95981
G1 X-27.1108 Y6.6159 Z1.05 F3000.0 E0.01171
G1 X10.2508 Y-30.3457 Z1.05 F3000.0 E0.95584
G1 X9.4221 Y-30.511 Z1.05 F3000.0 E0.01537
G1 X-27.2847 Y6.3958 Z1.05 F3000.0 E0.9467
G1 X-27.4448 Y5.7619 Z1.05 F3000.0 E0.01189
G1 X9.3934 Y-30.6764 Z1.05 F3000.0 E0.94238
G1 X8.5648 Y-30.8417 Z1.05 F3000.0 E0.01537
G1 X-27.5734 Y5.4966 Z1.05 F3000.0 E0.93208
G1 X-27.7021 Y4.8312 Z1.05 F3000.0 E0.01232
G1 X8.4982 Y-30.9691 Z1.05 F3000.0 E0.92597
G1 X7.6232 Y-31.088 Z1.05 F3000.0 E0.01606
G1 X-27.8307 Y4.5659 Z1.05 F3000.0 E0.91448
G1 X-27.9594 Y3.9006 Z1.05 F3000.0 E0.01232
G1 X7.5482 Y-31.207 Z1.05 F3000.0 E0.90815
G1 X6.6732 Y-31.326 Z1.05 F3000.0 E0.01606
G1 X-28.088 Y3.6352 Z1.05 F3000.0 E0.89666
G1 X-28.2166 Y2.9699 Z1.05 F3000.0 E0.01232
G1 X6.5982 Y-31.4449 Z1.05 F3000.0 E0.89033
G1 X5.7232 Y-31.5639 Z1.05 F3000.0 E0.01606
G1 X-28.3453 Y2.7046 Z1.05 F3000.0 E0.87884
G1 X-28.422 Y1.9873 Z1.05 F3000.0 E0.01312
G1 X5.6482 Y-31.6829 Z1.05 F3000.0 E0.87118
G1 X4.7402 Y-31.7688 Z1.05 F3000.0 E0.01659
G1 X-28.4986 Y1.6699 Z1.05 F3000.0 E0.8575
G1 X-28.5752 Y0.9526 Z1.05 F3000.0 E0.01312
G1 X4.6114 Y-31.834 Z1.05 F3000.0 E0.84845
G1 X3.6827 Y-31.8992 Z1.05 F3000.0 E0.01693
G1 X-28.6518 Y0.6352 Z1.05 F3000.0 E0.83424
G1 X-28.7284 Y-0.0822 Z1.05 F3000.0 E0.01312
G1 X3.5539 Y-31.9644 Z1.05 F3000.0 E0.8252
G1 X2.6251 Y-32.0297 Z1.05 F3000.0 E0.01693
G1 X-28.805 Y-0.3995 Z1.05 F3000.0 E0.81098
G1 X-28.8658 Y-1.1327 Z1.05 F3000.0 E0.01338
G1 X2.4964 Y-32.0949 Z1.05 F3000.0 E0.80153
G1 X1.5676 Y-32.1601 Z1.05 F3000.0 E0.01693
G1 X-28.8799 Y-1.5126 Z1.05 F3000.0 E0.78571
G1 X-28.894 Y-2.2924 Z1.05 F3000.0 E0.01419
G1 X1.3741 Y-32.1605 Z1.05 F3000.0 E0.77339
G1 X0.3801 Y-32.1605 Z1.05 F3000.0 E0.01808
G1 X-28.9081 Y-2.6723 Z1.05 F3000.0 E0.75589
G1 X-28.9222 Y-3.4522 Z1.05 F3000.0 E0.01419
G1 X0.1862 Y-32.1605 Z1.05 F3000.0 E0.74356
G1 X-0.8078 Y-32.1605 Z1.05 F3000.0 E0.01808
G1 X-28.9363 Y-3.8321 Z1.05 F3000.0 E0.72606
G1 X-28.9368 Y-4.6255 Z1.05 F3000.0 E0.01443
G1 X-1.0018 Y-32.1605 Z1.05 F3000.0 E0.71338
G1 X-2.0002 Y-31.9561 Z1.05 F3000.0 E0.01854
G1 X-28.8717 Y-5.0845 Z1.05 F3000.0 E0.69115
G1 X-28.4067 Y-5.9436 Z1.05 F3000.0 E0.01777
G1 X-2.2778 Y-32.0725 Z1.05 F3000.0 E0.67205
G1 X-3.3553 Y-31.7889 Z1.05 F3000.0 E0.02026
G1 X-28.7416 Y-6.4026 Z1.05 F3000.0 E0.65295
G1 X-28.2766 Y-7.2616 Z1.05 F3000.0 E0.01777
G1 X-3.6328 Y-31.9054 Z1.05 F3000.0 E0.63386
G1 X-4.7103 Y-31.6218 Z1.05 F3000.0 E0.02026
G1 X-28.6115 Y-7.7207 Z1.05 F3000.0 E0.61476
G1 X-28.0559 Y-8.6702 Z1.05 F3000.0 E0.02001
G1 X-4.9878 Y-31.7383 Z1.05 F3000.0 E0.59333
G1 X-6.1672 Y-31.3529 Z1.05 F3000.0 E0.02257
G1 X-28.2837 Y-9.2364 Z1.05 F3000.0 E0.56885
G1 X-27.7115 Y-10.2026 Z1.05 F3000.0 E0.02042
G1 X-6.5596 Y-31.3544 Z1.05 F3000.0 E0.54404
G1 X-7.7521 Y-30.956 Z1.05 F3000.0 E0.02287
G1 X-27.9393 Y-10.7687 Z1.05 F3000.0 E0.51923
G1 F12000.0
G1 E-0.0
G1 F3000.0
M103
G1 X-27.311 Y-11.791 Z1.05 F3000.0
G1 F12000.0
G1 E0.0
G1 F3000.0
M101
G1 X-8.1445 Y-30.9575 Z1.05 F3000.0 E0.49298
G1 F12000.0
G1 E-0.0
G1 F3000.0
M103
G1 X-9.436 Y-30.4599 Z1.05 F3000.0
G1 F12000.0
G1 E0.0
G1 F3000.0
M101
G1 X-27.3798 Y-12.5162 Z1.05 F3000.0 E0.46153
G1 F12000.0
G1 E-0.0
G1 F3000.0
M103
G1 X-26.6485 Y-13.6414 Z1.05 F3000.0
G1 F12000.0
G1 E0.0
G1 F3000.0
M101
G1 X-10.0029 Y-30.287 Z1.05 F3000.0 E0.42814
G1 F12000.0
G1 E-0.0
G1 F3000.0
M103
G1 X-11.3698 Y-29.7141 Z1.05 F3000.0
G1 F12000.0
G1 E0.0
G1 F3000.0
M101
G1 X-26.7173 Y-14.3666 Z1.05 F3000.0 E0.39475
G1 F12000.0
G1 E-0.0
G1 F3000.0
M103
G1 X-25.7791 Y-15.6988 Z1.05 F3000.0
G1 F12000.0
G1 E0.0
G1 F3000.0
M101
G1 X-11.9873 Y-29.4905 Z1.05 F3000.0 E0.35473
G1 F12000.0
G1 E-0.0
G1 F3000.0
M103
G1 X-13.6631 Y-28.6088 Z1.05 F3000.0
G1 F12000.0
G1 E0.0
G1 F3000.0
M101
G1 X-25.5765 Y-16.6953 Z1.05 F3000.0 E0.30642
G1 F12000.0
G1 E-0.0
G1 F3000.0
M103
G1 X-24.4969 Y-18.1689 Z1.05 F3000.0
G1 F12000.0
G1 E0.0
G1 F3000.0
M101
G1 X-14.5388 Y-28.127 Z1.05 F3000.0 E0.25613
G1 F12000.0
G1 E-0.0
G1 F3000.0
M103
G1 X-16.7454 Y-26.7143 Z1.05 F3000.0
G1 F12000.0
G1 E0.0
G1 F3000.0
M101
G1 X-23.6997 Y-19.7601 Z1.05 F3000.0 E0.17887
G1 F12000.0
G1 E-0.87634
G1 F3000.0
M103
G1 X-20.8522 Y-23.0016 Z1.05 F3000.0
G1 F12000.0
G1 E0.87634
G1 F3000.0
M101
G1 X-19.6004 Y-24.2533 Z1.05 F3000.0 E0.0322
G1 F12000.0
G1 E-2.0
G1 F3000.0
M103
M106 S255
G1 X-21.7098 Y-24.2767 Z1.35 F3000.0
G1 F12000.0
G1 E2.0
G1 F3000.0
M101
G1 X-21.2278 Y-24.3658 Z1.35 F2400.0 E0.01114
G1 X-19.9049 Y-25.6397 Z1.35 F2400.0 E0.04175
G1 X-18.5066 Y-26.8304 Z1.35 F2400.0 E0.04175
G1 X-17.038 Y-27.9332 Z1.35 F2400.0 E0.04175
G1 X-15.5046 Y-28.9439 Z1.35 F2400.0 E0.04175
G1 X-13.912 Y-29.8586 Z1.35 F2400.0 E0.04175
G1 X-12.2664 Y-30.674 Z1.35 F2400.0 E0.04175
G1 X-10.5739 Y-31.387 Z1.35 F2400.0 E0.04175
G1 X-8.8409 Y-31.9949 Z1.35 F2400.0 E0.04175
G1 X-7.0739 Y-32.4955 Z1.35 F2400.0 E0.04175
G1 X-5.2795 Y-32.8867 Z1.35 F2400.0 E0.04175
G1 X-3.4645 Y-33.1673 Z1.35 F2400.0 E0.04175
G1 X-1.6358 Y-33.336 Z1.35 F2400.0 E0.04175
G1 X0.1999 Y-33.3923 Z1.35 F2400.0 E0.04175
G1 X2.0356 Y-33.136 Z1.35 F2400.0 E0.04214
G1 X3.8644 Y-32.9673 Z1.35 F2400.0 E0.04175
G1 X5.6794 Y-32.6868 Z1.35 F2400.0 E0.04175
G1 X7.4738 Y-32.2955 Z1.35 F2400.0 E0.04175
G1 X9.2408 Y-31.795 Z1.35 F2400.0 E0.04175
G1 X10.9738 Y-31.1871 Z1.35 F2400.0 E0.04175
G1 X12.6663 Y-30.4741 Z1.35 F2400.0 E0.04175
G1 X14.3119 Y-29.6587 Z1.35 F2400.0 E0.04175
G1 X15.9044 Y-28.7439 Z1.35 F2400.0 E0.04175
G1 X17.4379 Y-27.7333 Z1.35 F2400.0 E0.04175
G1 X18.9065 Y-26.6305 Z1.35 F2400.0 E0.04175
G1 X20.3047 Y-25.4398 Z1.35 F2400.0 E0.04175
G1 X21.6274 Y-24.1657 Z1.35 F2400.0 E0.04175
G1 X22.8694 Y-22.8128 Z1.35 F2400.0 E0.04175
G1 X24.0262 Y-21.3863 Z1.35 F2400.0 E0.04175
G1 X25.0934 Y-19.8916 Z1.35 F2400.0 E0.04175
G1 X26.0669 Y-18.3344 Z1.35 F2400.0 E0.04175
G1 X26.9431 Y-16.7203 Z1.35 F2400.0 E0.04175
G1 X27.7187 Y-15.0556 Z1.35 F2400.0 E0.04175
G1 X28.3909 Y-13.3465 Z1.35 F2400.0 E0.04175
G1 X28.9569 Y-11.5994 Z1.35 F2400.0 E0.04175
G1 X29.4149 Y-9.8208 Z1.35 F2400.0 E0.04175
G1 X29.7629 Y-8.0176 Z1.35 F2400.0 E0.04175
G1 X29.9998 Y-6.1963 Z1.35 F2400.0 E0.04175
G1 X30.1245 Y-4.364 Z1.35 F2400.0 E0.04175
G1 X30.1367 Y-2.5276 Z1.35 F2400.0 E0.04175
G1 X29.6363 Y-0.6937 Z1.35 F2400.0 E0.04321
G1 X29.4237 Y1.1304 Z1.35 F2400.0 E0.04175
G1 X29.0996 Y2.9381 Z1.35 F2400.0 E0.04175
G1 X28.6654 Y4.7226 Z1.35 F2400.0 E0.04175
G1 X28.1225 Y6.4771 Z1.35 F2400.0 E0.04175
G1 X27.4732 Y8.195 Z1.35 F2400.0 E0.04175
G1 X26.7197 Y9.8699 Z1.35 F2400.0 E0.04175
G1 X25.865 Y11.4954 Z1.35 F2400.0 E0.04175
G1 X24.9123 Y13.0655 Z1.35 F2400.0 E0.04175
G1 X23.8651 Y14.5742 Z1.35 F2400.0 E0.04175
G1 X22.7274 Y16.0159 Z1.35 F2400.0 E0.04175
G1 X21.5034 Y17.3852 Z1.35 F2400.0 E0.04175
G1 X20.1978 Y18.6768 Z1.35 F2400.0 E0.04175
G1 X18.8155 Y19.886 Z1.35 F2400.0 E0.04175
G1 X17.3617 Y21.0081 Z1.35 F2400.0 E0.04175
G1 X15.8418 Y22.039 Z1.35 F2400.0 E0.04175
G1 X14.2616 Y22.9749 Z1.35 F2400.0 E0.04175
G1 X12.6269 Y23.812 Z1.35 F2400.0 E0.04175
G1 X10.9441 Y24.5475 Z1.35 F2400.0 E0.04175
G1 X9.2193 Y25.1783 Z1.35 F2400.0 E0.04175
G1 X7.4591 Y25.7023 Z1.35 F2400.0 E0.04175
G1 X5.6711 Y26.117 Z1.35 F2400.0 E0.04173
G1 X3.1131 Y26.5224 Z1.35 F2400.0 E0.05888
G1 X3.106 Y30.247 Z1.35 F2400.0 E0.08468
G1 X3.0716 Y30.8029 Z1.35 F2400.0 E0.01266
G1 X2.9311 Y31.3335 Z1.35 F2400.0 E0.01248
G1 X2.6989 Y31.8315 Z1.35 F2400.0 E0.01249
G1 X2.3838 Y32.2816 Z1.35 F2400.0 E0.01249
G1 X1.9952 Y32.6701 Z1.35 F2400.0 E0.01249
G1 X1.5451 Y32.9853 Z1.35 F2400.0 E0.01249
G1 X1.0472 Y33.2181 Z1.35 F2400.0 E0.0125
G1 X0.5197 Y33.3549 Z1.35 F2400.0 E0.01239
G1 X-0.3665 Y33.4011 Z1.35 F2400.0 E0.02017
G1 X-0.9165 Y33.1591 Z1.35 F2400.0 E0.01366
G1 X-1.4472 Y33.0175 Z1.35 F2400.0 E0.01249
G1 X-1.9451 Y32.7853 Z1.35 F2400.0 E0.01249
G1 X-2.3952 Y32.4701 Z1.35 F2400.0 E0.01249
G1 X-2.7837 Y32.0816 Z1.35 F2400.0 E0.01249
G1 X-3.0989 Y31.6315 Z1.35 F2400.0 E0.01249
G1 X-3.3311 Y31.1335 Z1.35 F2400.0 E0.01249
G1 X-3.4716 Y30.6029 Z1.35 F2400.0 E0.01248
G1 X-3.506 Y30.047 Z1.35 F2400.0 E0.01266
G1 X-3.506 Y26.3307 Z1.35 F2400.0 E0.08449
G1 X-6.0709 Y25.9171 Z1.35 F2400.0 E0.05906
G1 X-7.8589 Y25.5023 Z1.35 F2400.0 E0.04173
G1 X-9.6191 Y24.9784 Z1.35 F2400.0 E0.04175
G1 X-11.3439 Y24.3475 Z1.35 F2400.0 E0.04175
G1 X-13.0268 Y23.6121 Z1.35 F2400.0 E0.04175
G1 X-14.6614 Y22.7749 Z1.35 F2400.0 E0.04175
G1 X-16.2417 Y21.8391 Z1.35 F2400.0 E0.04175
G1 X-17.7615 Y20.8082 Z1.35 F2400.0 E0.04175
G1 X-19.2154 Y19.6861 Z1.35 F2400.0 E0.04175
G1 X-20.5977 Y18.4769 Z1.35 F2400.0 E0.04175
G1 X-21.9033 Y17.1853 Z1.35 F2400.0 E0.04175
G1 X-23.1273 Y15.816 Z1.35 F2400.0 E0.04175
G1 X-24.265 Y14.3743 Z1.35 F2400.0 E0.04175
G1 X-25.3122 Y12.8656 Z1.35 F2400.0 E0.04175
G1 X-26.2649 Y11.2956 Z1.35 F2400.0 E0.04175
G1 X-27.1197 Y9.67 Z1.35 F2400.0 E0.04175
G1 X-27.8731 Y7.9952 Z1.35 F2400.0 E0.04175
G1 X-28.5225 Y6.2773 Z1.35 F2400.0 E0.04175
G1 X-29.0653 Y4.5228 Z1.35 F2400.0 E0.04175
G1 X-29.4996 Y2.7383 Z1.35 F2400.0 E0.04175
G1 X-29.8237 Y0.9306 Z1.35 F2400.0 E0.04175
G1 X-30.0363 Y-0.8936 Z1.35 F2400.0 E0.04175
G1 X-30.1367 Y-2.7274 Z1.35 F2400.0 E0.04175
G1 X-29.7245 Y-4.5639 Z1.35 F2400.0 E0.04279
G1 X-29.5998 Y-6.3962 Z1.35 F2400.0 E0.04175
G1 X-29.3629 Y-8.2174 Z1.35 F2400.0 E0.04175
G1 X-29.0149 Y-10.0207 Z1.35 F2400.0 E0.04175
G1 X-28.557 Y-11.7992 Z1.35 F2400.0 E0.04175
G1 X-27.9909 Y-13.5463 Z1.35 F2400.0 E0.04175
G1 X-27.3188 Y-15.2555 Z1.35 F2400.0 E0.04175
G1 X-26.5432 Y-16.9202 Z1.35 F2400.0 E0.04175
G1 X-25.6669 Y-18.5342 Z1.35 F2400.0 E0.04175
G1 X-24.6934 Y-20.0915 Z1.35 F2400.0 E0.04175
G1 X-23.6263 Y-21.5862 Z1.35 F2400.0 E0.04175
G1 X-22.4696 Y-23.0127 Z1.35 F2400.0 E0.04175
G1 X-21.3098 Y-24.2767 Z1.35 F2400.0 E0.039
G1 F12000.0
G1 E-2.0
G1 F2400.0
M103
G1 X-0.2013 Y28.4812 Z1.35 F3000.0
G1 F12000.0
G1 E2.0
G1 F3000.0
M101
G1 X-0.7258 Y28.4949 Z1.35 F2400.0 E0.01193
G1 X-1.1779 Y28.6849 Z1.35 F2400.0 E0.01115
G1 X-1.5686 Y28.9813 Z1.35 F2400.0 E0.01115
G1 X-1.8733 Y29.3656 Z1.35 F2400.0 E0.01115
G1 X-2.0728 Y29.8135 Z1.35 F2400.0 E0.01115
G1 X-2.1546 Y30.297 Z1.35 F2400.0 E0.01115
G1 X-1.7137 Y30.7857 Z1.35 F2400.0 E0.01496
G1 X-1.5525 Y31.2489 Z1.35 F2400.0 E0.01115
G1 X-1.2811 Y31.6574 Z1.35 F2400.0 E0.01115
G1 X-0.9168 Y31.9856 Z1.35 F2400.0 E0.01115
G1 X-0.4822 Y32.2128 Z1.35 F2400.0 E0.01115
G1 X-0.0048 Y32.3249 Z1.35 F2400.0 E0.01115
G1 X0.4855 Y32.1147 Z1.35 F2400.0 E0.01213
G1 X0.9578 Y31.9829 Z1.35 F2400.0 E0.01115
G1 X1.3826 Y31.7377 Z1.35 F2400.0 E0.01115
G1 X1.733 Y31.3947 Z1.35 F2400.0 E0.01115
G1 X1.9871 Y30.9753 Z1.35 F2400.0 E0.01115
G1 X2.1289 Y30.5058 Z1.35 F2400.0 E0.01115
G1 X2.1495 Y30.0159 Z1.35 F2400.0 E0.01115
G1 X1.6476 Y29.5362 Z1.35 F2400.0 E0.01578
G1 X1.4297 Y29.0969 Z1.35 F2400.0 E0.01115
G1 X1.1093 Y28.7256 Z1.35 F2400.0 E0.01115
G1 X0.7066 Y28.4457 Z1.35 F2400.0 E0.01115
G1 X0.247 Y28.2747 Z1.35 F2400.0 E0.01115
G1 X-0.2407 Y28.2233 Z1.35 F2400.0 E0.01115
G1 X-0.6013 Y28.4812 Z1.35 F2400.0 E0.01008
G1 F12000.0
G1 E-0.0
G1 F2400.0
M103
G1 X-0.817 Y27.5169 Z1.35 F3000.0
G1 F12000.0
G1 E0.0
G1 F3000.0
M101
G1 X-0.9383 Y27.7332 Z1.35 F3000.0 E0.00451
G1 X-1.5731 Y28.0001 Z1.35 F3000.0 E0.01252
G1 X-2.1191 Y28.4616 Z1.35 F3000.0 E0.013
G1 X-2.3268 Y28.7506 Z1.35 F3000.0 E0.00647
G1 X-2.6424 Y28.4287 Z1.35 F3000.0 E0.0082
G1 X-2.6694 Y25.6131 Z1.35 F3000.0 E0.05121
G1 X-5.9034 Y25.0931 Z1.35 F3000.0 E0.05957
G1 X-9.3543 Y24.1801 Z1.35 F3000.0 E0.06492
G1 X-12.6662 Y22.8523 Z1.35 F3000.0 E0.0649
G1 X-15.7908 Y21.1291 Z1.35 F3000.0 E0.0649
G1 X-18.681 Y19.0365 Z1.35 F3000.0 E0.0649
G1 X-21.2935 Y16.606 Z1.35 F3000.0 E0.0649
G1 X-23.5889 Y13.8741 Z1.35 F3000.0 E0.0649
G1 X-25.5327 Y10.8818 Z1.35 F3000.0 E0.0649
G1 X-27.0957 Y7.6741 Z1.35 F3000.0 E0.0649
G1 X-28.2545 Y4.2992 Z1.35 F3000.0 E0.0649
G1 X-28.9916 Y0.808 Z1.35 F3000.0 E0.0649
G1 X-29.2959 Y-2.7473 Z1.35 F3000.0 E0.0649
G1 X-28.7628 Y-6.313 Z1.35 F3000.0 E0.06557
G1 X-28.1944 Y-9.8357 Z1.35 F3000.0 E0.0649
G1 X-27.1992 Y-13.2624 Z1.35 F3000.0 E0.0649
G1 X-25.7922 Y-16.5415 Z1.35 F3000.0 E0.0649
G1 X-23.9945 Y-19.6238 Z1.35 F3000.0 E0.0649
G1 X-21.833 Y-22.4629 Z1.35 F3000.0 E0.0649
G1 X-19.3404 Y-25.0162 Z1.35 F3000.0 E0.0649
G1 X-16.5541 Y-27.2453 Z1.35 F3000.0 E0.0649
G1 X-13.516 Y-29.1166 Z1.35 F3000.0 E0.0649
G1 X-10.2716 Y-30.6022 Z1.35 F3000.0 E0.0649
G1 X-6.8699 Y-31.6795 Z1.35 F3000.0 E0.0649
G1 X-3.3619 Y-32.3325 Z1.35 F3000.0 E0.0649
G1 X0.1996 Y-32.5513 Z1.35 F3000.0 E0.0649
G1 X3.7611 Y-32.1326 Z1.35 F3000.0 E0.06522
G1 X7.2691 Y-31.4797 Z1.35 F3000.0 E0.0649
G1 X10.6709 Y-30.4025 Z1.35 F3000.0 E0.0649
G1 X13.9153 Y-28.917 Z1.35 F3000.0 E0.0649
G1 X16.9535 Y-27.0458 Z1.35 F3000.0 E0.0649
G1 X19.7398 Y-24.8167 Z1.35 F3000.0 E0.0649
G1 X22.2325 Y-22.2635 Z1.35 F3000.0 E0.0649
G1 X24.394 Y-19.4244 Z1.35 F3000.0 E0.0649
G1 X26.1918 Y-16.3422 Z1.35 F3000.0 E0.0649
G1 X27.599 Y-13.0631 Z1.35 F3000.0 E0.0649
G1 X28.5943 Y-9.6365 Z1.35 F3000.0 E0.0649
G1 X29.1628 Y-6.1138 Z1.35 F3000.0 E0.0649
G1 X29.2959 Y-2.5481 Z1.35 F3000.0 E0.0649
G1 X28.5917 Y1.0072 Z1.35 F3000.0 E0.06592
G1 X27.8547 Y4.4985 Z1.35 F3000.0 E0.0649
G1 X26.6961 Y7.8734 Z1.35 F3000.0 E0.0649
G1 X25.1331 Y11.0811 Z1.35 F3000.0 E0.0649
G1 X23.1894 Y14.0734 Z1.35 F3000.0 E0.0649
G1 X20.8941 Y16.8054 Z1.35 F3000.0 E0.0649
G1 X18.2817 Y19.236 Z1.35 F3000.0 E0.0649
G1 X15.3915 Y21.3287 Z1.35 F3000.0 E0.0649
G1 X12.267 Y23.0519 Z1.35 F3000.0 E0.0649
G1 X8.955 Y24.3799 Z1.35 F3000.0 E0.0649
G1 X5.504 Y25.293 Z1.35 F3000.0 E0.06493
G1 X2.2769 Y25.8044 Z1.35 F3000.0 E0.05943
G1 X2.2427 Y28.5978 Z1.35 F3000.0 E0.05081
G1 X1.8815 Y28.6965 Z1.35 F3000.0 E0.00681
G1 X1.6322 Y28.174 Z1.35 F3000.0 E0.01053
G1 X1.073 Y27.7451 Z1.35 F3000.0 E0.01282
G1 X0.4277 Y27.505 Z1.35 F3000.0 E0.01252
G1 X-0.2571 Y27.4327 Z1.35 F3000.0 E0.01252
